(G-CODE GENERATED BY FLATCAM v8.994 - www.flatcam.org - Version Date: 2020/11/7)

(Name: profile.gbr_cutout_cnc)
(Type: G-code from Geometry)
(Units: MM)

(Created on Saturday, 02 April 2022 at 15:39)


G01 F400.00

M5
G00 Z15.0000
G00 X0.0000 Y0.0000
T1
M6    
(MSG, Change to Tool Dia = 1.5875)
M0
G00 Z15.0000

M03 S22250.0
G01 F400.00
G00 X-0.8698 Y27.0513
G01 F190.00
G01 Z-1.7000
G01 F400.00
G01 X-0.8697 Y-0.0046
G01 X-0.8677 Y-0.0590
G01 X-0.8661 Y-0.0733
G01 X-0.8652 Y-0.0884
G01 X-0.8623 Y-0.1065
G01 X-0.8608 Y-0.1197
G01 X-0.8602 Y-0.1197
G01 X-0.8574 Y-0.1370
G01 X-0.8580 Y-0.1371
G01 X-0.8564 Y-0.1473
G01 X-0.8538 Y-0.1595
G01 X-0.8519 Y-0.1713
G01 X-0.8497 Y-0.1815
G01 X-0.8492 Y-0.1813
G01 X-0.8395 Y-0.2273
G01 X-0.8132 Y-0.3089
G01 X-0.7857 Y-0.3728
G01 X-0.7595 Y-0.4223
G01 X-0.7528 Y-0.4341
G01 X-0.7261 Y-0.4786
G01 X-0.6858 Y-0.5350
G01 X-0.6318 Y-0.5977
G01 X-0.5996 Y-0.6280
G01 X-0.6000 Y-0.6284
G01 X-0.5925 Y-0.6356
G01 X-0.5812 Y-0.6454
G01 X-0.5716 Y-0.6545
G01 X-0.5637 Y-0.6612
G01 X-0.5634 Y-0.6608
G01 X-0.5331 Y-0.6872
G01 X-0.4689 Y-0.7327
G01 X-0.4034 Y-0.7705
G01 X-0.3599 Y-0.7905
G01 X-0.3601 Y-0.7908
G01 X-0.3382 Y-0.8005
G01 X-0.2876 Y-0.8208
G01 X-0.2225 Y-0.8409
G01 X-0.1606 Y-0.8549
G01 X-0.1018 Y-0.8635
G01 X-0.0851 Y-0.8653
G01 X0.0000 Y-0.8698
G01 X25.0190 Y-0.8698
G01 X25.0432 Y-0.8695
G01 X25.1172 Y-0.8641
G01 X25.1561 Y-0.8576
G01 X25.1561 Y-0.8580
G01 X25.1663 Y-0.8564
G01 X25.1903 Y-0.8519
G01 X25.2005 Y-0.8497
G01 X25.2003 Y-0.8492
G01 X25.2463 Y-0.8395
G01 X25.3242 Y-0.8146
G01 X25.3918 Y-0.7857
G01 X25.4413 Y-0.7595
G01 X25.4531 Y-0.7528
G01 X25.4976 Y-0.7261
G01 X25.5509 Y-0.6882
G01 X25.6167 Y-0.6318
G01 X25.6470 Y-0.5996
G01 X25.6474 Y-0.6000
G01 X25.6546 Y-0.5925
G01 X25.6644 Y-0.5812
G01 X25.6735 Y-0.5716
G01 X25.6802 Y-0.5637
G01 X25.6798 Y-0.5634
G01 X25.7062 Y-0.5331
G01 X25.7538 Y-0.4656
G01 X25.7895 Y-0.4034
G01 X25.8095 Y-0.3599
G01 X25.8098 Y-0.3601
G01 X25.8141 Y-0.3507
G01 X25.8195 Y-0.3382
G01 X25.8398 Y-0.2876
G01 X25.8599 Y-0.2225
G01 X25.8739 Y-0.1606
G01 X25.8825 Y-0.1018
G01 X25.8843 Y-0.0851
G01 X25.8888 Y0.0000
G01 X25.8888 Y27.0513
G00 Z5.0000
G00 X-0.8698 Y32.6388
G01 F190.00
G01 Z-1.7000
G01 F400.00
G01 X-0.8698 Y59.6900
G01 X-0.8653 Y59.7751
G01 X-0.8635 Y59.7918
G01 X-0.8549 Y59.8506
G01 X-0.8409 Y59.9125
G01 X-0.8208 Y59.9776
G01 X-0.8005 Y60.0282
G01 X-0.7951 Y60.0407
G01 X-0.7908 Y60.0501
G01 X-0.7905 Y60.0499
G01 X-0.7705 Y60.0934
G01 X-0.7348 Y60.1556
G01 X-0.6872 Y60.2231
G01 X-0.6608 Y60.2534
G01 X-0.6612 Y60.2537
G01 X-0.6545 Y60.2616
G01 X-0.6454 Y60.2712
G01 X-0.6356 Y60.2825
G01 X-0.6284 Y60.2900
G01 X-0.6280 Y60.2896
G01 X-0.5977 Y60.3218
G01 X-0.5319 Y60.3782
G01 X-0.4786 Y60.4161
G01 X-0.4341 Y60.4428
G01 X-0.4223 Y60.4495
G01 X-0.3728 Y60.4757
G01 X-0.3052 Y60.5046
G01 X-0.2273 Y60.5295
G01 X-0.1813 Y60.5392
G01 X-0.1815 Y60.5397
G01 X-0.1713 Y60.5419
G01 X-0.1473 Y60.5464
G01 X-0.1371 Y60.5480
G01 X-0.1371 Y60.5476
G01 X-0.0982 Y60.5541
G01 X-0.0242 Y60.5595
G01 X0.0000 Y60.5598
G01 X25.0190 Y60.5598
G01 X25.1041 Y60.5553
G01 X25.1208 Y60.5535
G01 X25.1796 Y60.5449
G01 X25.2415 Y60.5309
G01 X25.3066 Y60.5108
G01 X25.3572 Y60.4905
G01 X25.3791 Y60.4808
G01 X25.3789 Y60.4805
G01 X25.4224 Y60.4605
G01 X25.4879 Y60.4227
G01 X25.5521 Y60.3772
G01 X25.5824 Y60.3508
G01 X25.5827 Y60.3512
G01 X25.5906 Y60.3445
G01 X25.6002 Y60.3354
G01 X25.6115 Y60.3256
G01 X25.6190 Y60.3184
G01 X25.6186 Y60.3180
G01 X25.6508 Y60.2877
G01 X25.7048 Y60.2250
G01 X25.7451 Y60.1686
G01 X25.7718 Y60.1241
G01 X25.7785 Y60.1123
G01 X25.8047 Y60.0628
G01 X25.8322 Y59.9989
G01 X25.8585 Y59.9173
G01 X25.8682 Y59.8713
G01 X25.8687 Y59.8715
G01 X25.8709 Y59.8613
G01 X25.8754 Y59.8373
G01 X25.8770 Y59.8271
G01 X25.8766 Y59.8271
G01 X25.8831 Y59.7882
G01 X25.8885 Y59.7142
G01 X25.8888 Y59.6900
G01 X25.8888 Y32.6388
G00 Z5.0000
G01 F400.00

M5
G00 Z15.0000
G00 X0.0000 Y0.0000
T9999
M6    
(MSG, Change to Tool Dia = 1.5875)
M0
G00 Z15.0000

M03 S22250.0
G01 F400.00
G00 X-0.8698 Y27.0513
G01 F190.00
G01 Z-1.2500
G01 F400.00
G01 X-0.8698 Y32.6388
G00 Z5.0000
G00 X25.8888 Y32.6388
G01 F190.00
G01 Z-1.2500
G01 F400.00
G01 X25.8888 Y27.0513
G00 Z5.0000
M05
G00 Z5.0000
G00 Z15.00


