(G-CODE GENERATED BY FLATCAM v8.994 - www.flatcam.org - Version Date: 2020/11/7)

(Name: drill_1_16.xln_mill_cnc)
(Type: G-code from Geometry)
(Units: MM)

(Created on Saturday, 02 April 2022 at 15:51)

(This preprocessor is the default preprocessor used by FlatCAM.)
(It is made to work with MACH3 compatible motion controllers.)

(TOOL DIAMETER: 1.0 mm)
(Feedrate_XY: 400.0 mm/min)
(Feedrate_Z: 100.0 mm/min)
(Feedrate rapids 800.0 mm/min)

(Z_Cut: -1.7 mm)
(DepthPerCut: 0.25 mm <=>7 passes)
(Z_Move: 3.0 mm)
(Z Start: None mm)
(Z End: 15.0 mm)
(X,Y End: None mm)
(Steps per circle: 64)
(Preprocessor Geometry: default)

(X range:    3.9290 ...   20.4550  mm)
(Y range:    5.7150 ...   54.6180  mm)

(Spindle Speed: 29000.0 RPM)
G21
G90
G94

G01 F400.00

M5
G00 Z15.0000
G00 X0.0000 Y0.0000
T2
M6    
(MSG, Change to Tool Dia = 1.0000)
M0
G00 Z15.0000

M03 S29000.0
G01 F400.00
G00 X9.6520 Y5.7150
G01 F100.00
G01 Z-0.2500
G01 F400.00
G01 X9.6520 Y5.7150
G01 X9.6520 Y5.7150
G01 X9.6520 Y5.7150
G01 X9.6520 Y5.7150
G00 X9.6520 Y5.7150
G01 F100.00
G01 Z-0.5000
G01 F400.00
G01 X9.6520 Y5.7150
G01 X9.6520 Y5.7150
G01 X9.6520 Y5.7150
G01 X9.6520 Y5.7150
G00 X9.6520 Y5.7150
G01 F100.00
G01 Z-0.7500
G01 F400.00
G01 X9.6520 Y5.7150
G01 X9.6520 Y5.7150
G01 X9.6520 Y5.7150
G01 X9.6520 Y5.7150
G00 X9.6520 Y5.7150
G01 F100.00
G01 Z-1.0000
G01 F400.00
G01 X9.6520 Y5.7150
G01 X9.6520 Y5.7150
G01 X9.6520 Y5.7150
G01 X9.6520 Y5.7150
G00 X9.6520 Y5.7150
G01 F100.00
G01 Z-1.2500
G01 F400.00
G01 X9.6520 Y5.7150
G01 X9.6520 Y5.7150
G01 X9.6520 Y5.7150
G01 X9.6520 Y5.7150
G00 X9.6520 Y5.7150
G01 F100.00
G01 Z-1.5000
G01 F400.00
G01 X9.6520 Y5.7150
G01 X9.6520 Y5.7150
G01 X9.6520 Y5.7150
G01 X9.6520 Y5.7150
G00 X9.6520 Y5.7150
G01 F100.00
G01 Z-1.7000
G01 F400.00
G01 X9.6520 Y5.7150
G01 X9.6520 Y5.7150
G01 X9.6520 Y5.7150
G01 X9.6520 Y5.7150
G00 Z3.0000
G00 X12.1920 Y5.7150
G01 F100.00
G01 Z-0.2500
G01 F400.00
G01 X12.1920 Y5.7150
G01 X12.1920 Y5.7150
G01 X12.1920 Y5.7150
G01 X12.1920 Y5.7150
G00 X12.1920 Y5.7150
G01 F100.00
G01 Z-0.5000
G01 F400.00
G01 X12.1920 Y5.7150
G01 X12.1920 Y5.7150
G01 X12.1920 Y5.7150
G01 X12.1920 Y5.7150
G00 X12.1920 Y5.7150
G01 F100.00
G01 Z-0.7500
G01 F400.00
G01 X12.1920 Y5.7150
G01 X12.1920 Y5.7150
G01 X12.1920 Y5.7150
G01 X12.1920 Y5.7150
G00 X12.1920 Y5.7150
G01 F100.00
G01 Z-1.0000
G01 F400.00
G01 X12.1920 Y5.7150
G01 X12.1920 Y5.7150
G01 X12.1920 Y5.7150
G01 X12.1920 Y5.7150
G00 X12.1920 Y5.7150
G01 F100.00
G01 Z-1.2500
G01 F400.00
G01 X12.1920 Y5.7150
G01 X12.1920 Y5.7150
G01 X12.1920 Y5.7150
G01 X12.1920 Y5.7150
G00 X12.1920 Y5.7150
G01 F100.00
G01 Z-1.5000
G01 F400.00
G01 X12.1920 Y5.7150
G01 X12.1920 Y5.7150
G01 X12.1920 Y5.7150
G01 X12.1920 Y5.7150
G00 X12.1920 Y5.7150
G01 F100.00
G01 Z-1.7000
G01 F400.00
G01 X12.1920 Y5.7150
G01 X12.1920 Y5.7150
G01 X12.1920 Y5.7150
G01 X12.1920 Y5.7150
G00 Z3.0000
G00 X14.7320 Y5.7150
G01 F100.00
G01 Z-0.2500
G01 F400.00
G01 X14.7320 Y5.7150
G01 X14.7320 Y5.7150
G01 X14.7320 Y5.7150
G01 X14.7320 Y5.7150
G00 X14.7320 Y5.7150
G01 F100.00
G01 Z-0.5000
G01 F400.00
G01 X14.7320 Y5.7150
G01 X14.7320 Y5.7150
G01 X14.7320 Y5.7150
G01 X14.7320 Y5.7150
G00 X14.7320 Y5.7150
G01 F100.00
G01 Z-0.7500
G01 F400.00
G01 X14.7320 Y5.7150
G01 X14.7320 Y5.7150
G01 X14.7320 Y5.7150
G01 X14.7320 Y5.7150
G00 X14.7320 Y5.7150
G01 F100.00
G01 Z-1.0000
G01 F400.00
G01 X14.7320 Y5.7150
G01 X14.7320 Y5.7150
G01 X14.7320 Y5.7150
G01 X14.7320 Y5.7150
G00 X14.7320 Y5.7150
G01 F100.00
G01 Z-1.2500
G01 F400.00
G01 X14.7320 Y5.7150
G01 X14.7320 Y5.7150
G01 X14.7320 Y5.7150
G01 X14.7320 Y5.7150
G00 X14.7320 Y5.7150
G01 F100.00
G01 Z-1.5000
G01 F400.00
G01 X14.7320 Y5.7150
G01 X14.7320 Y5.7150
G01 X14.7320 Y5.7150
G01 X14.7320 Y5.7150
G00 X14.7320 Y5.7150
G01 F100.00
G01 Z-1.7000
G01 F400.00
G01 X14.7320 Y5.7150
G01 X14.7320 Y5.7150
G01 X14.7320 Y5.7150
G01 X14.7320 Y5.7150
G00 Z3.0000
G00 X17.2800 Y10.7950
G01 F100.00
G01 Z-0.2500
G01 F400.00
G01 X17.2794 Y10.7919
G01 X17.2777 Y10.7893
G01 X17.2751 Y10.7876
G01 X17.2720 Y10.7870
G01 X17.2689 Y10.7876
G01 X17.2663 Y10.7893
G01 X17.2646 Y10.7919
G01 X17.2640 Y10.7950
G01 X17.2646 Y10.7981
G01 X17.2663 Y10.8007
G01 X17.2689 Y10.8024
G01 X17.2720 Y10.8030
G01 X17.2751 Y10.8024
G01 X17.2777 Y10.8007
G01 X17.2794 Y10.7981
G01 X17.2800 Y10.7950
G00 X17.2800 Y10.7950
G01 F100.00
G01 Z-0.5000
G01 F400.00
G01 X17.2794 Y10.7919
G01 X17.2777 Y10.7893
G01 X17.2751 Y10.7876
G01 X17.2720 Y10.7870
G01 X17.2689 Y10.7876
G01 X17.2663 Y10.7893
G01 X17.2646 Y10.7919
G01 X17.2640 Y10.7950
G01 X17.2646 Y10.7981
G01 X17.2663 Y10.8007
G01 X17.2689 Y10.8024
G01 X17.2720 Y10.8030
G01 X17.2751 Y10.8024
G01 X17.2777 Y10.8007
G01 X17.2794 Y10.7981
G01 X17.2800 Y10.7950
G00 X17.2800 Y10.7950
G01 F100.00
G01 Z-0.7500
G01 F400.00
G01 X17.2794 Y10.7919
G01 X17.2777 Y10.7893
G01 X17.2751 Y10.7876
G01 X17.2720 Y10.7870
G01 X17.2689 Y10.7876
G01 X17.2663 Y10.7893
G01 X17.2646 Y10.7919
G01 X17.2640 Y10.7950
G01 X17.2646 Y10.7981
G01 X17.2663 Y10.8007
G01 X17.2689 Y10.8024
G01 X17.2720 Y10.8030
G01 X17.2751 Y10.8024
G01 X17.2777 Y10.8007
G01 X17.2794 Y10.7981
G01 X17.2800 Y10.7950
G00 X17.2800 Y10.7950
G01 F100.00
G01 Z-1.0000
G01 F400.00
G01 X17.2794 Y10.7919
G01 X17.2777 Y10.7893
G01 X17.2751 Y10.7876
G01 X17.2720 Y10.7870
G01 X17.2689 Y10.7876
G01 X17.2663 Y10.7893
G01 X17.2646 Y10.7919
G01 X17.2640 Y10.7950
G01 X17.2646 Y10.7981
G01 X17.2663 Y10.8007
G01 X17.2689 Y10.8024
G01 X17.2720 Y10.8030
G01 X17.2751 Y10.8024
G01 X17.2777 Y10.8007
G01 X17.2794 Y10.7981
G01 X17.2800 Y10.7950
G00 X17.2800 Y10.7950
G01 F100.00
G01 Z-1.2500
G01 F400.00
G01 X17.2794 Y10.7919
G01 X17.2777 Y10.7893
G01 X17.2751 Y10.7876
G01 X17.2720 Y10.7870
G01 X17.2689 Y10.7876
G01 X17.2663 Y10.7893
G01 X17.2646 Y10.7919
G01 X17.2640 Y10.7950
G01 X17.2646 Y10.7981
G01 X17.2663 Y10.8007
G01 X17.2689 Y10.8024
G01 X17.2720 Y10.8030
G01 X17.2751 Y10.8024
G01 X17.2777 Y10.8007
G01 X17.2794 Y10.7981
G01 X17.2800 Y10.7950
G00 X17.2800 Y10.7950
G01 F100.00
G01 Z-1.5000
G01 F400.00
G01 X17.2794 Y10.7919
G01 X17.2777 Y10.7893
G01 X17.2751 Y10.7876
G01 X17.2720 Y10.7870
G01 X17.2689 Y10.7876
G01 X17.2663 Y10.7893
G01 X17.2646 Y10.7919
G01 X17.2640 Y10.7950
G01 X17.2646 Y10.7981
G01 X17.2663 Y10.8007
G01 X17.2689 Y10.8024
G01 X17.2720 Y10.8030
G01 X17.2751 Y10.8024
G01 X17.2777 Y10.8007
G01 X17.2794 Y10.7981
G01 X17.2800 Y10.7950
G00 X17.2800 Y10.7950
G01 F100.00
G01 Z-1.7000
G01 F400.00
G01 X17.2794 Y10.7919
G01 X17.2777 Y10.7893
G01 X17.2751 Y10.7876
G01 X17.2720 Y10.7870
G01 X17.2689 Y10.7876
G01 X17.2663 Y10.7893
G01 X17.2646 Y10.7919
G01 X17.2640 Y10.7950
G01 X17.2646 Y10.7981
G01 X17.2663 Y10.8007
G01 X17.2689 Y10.8024
G01 X17.2720 Y10.8030
G01 X17.2751 Y10.8024
G01 X17.2777 Y10.8007
G01 X17.2794 Y10.7981
G01 X17.2800 Y10.7950
G00 Z3.0000
G00 X14.7400 Y14.6050
G01 F100.00
G01 Z-0.2500
G01 F400.00
G01 X14.7394 Y14.6019
G01 X14.7377 Y14.5993
G01 X14.7351 Y14.5976
G01 X14.7320 Y14.5970
G01 X14.7289 Y14.5976
G01 X14.7263 Y14.5993
G01 X14.7246 Y14.6019
G01 X14.7240 Y14.6050
G01 X14.7246 Y14.6081
G01 X14.7263 Y14.6107
G01 X14.7289 Y14.6124
G01 X14.7320 Y14.6130
G01 X14.7351 Y14.6124
G01 X14.7377 Y14.6107
G01 X14.7394 Y14.6081
G01 X14.7400 Y14.6050
G00 X14.7400 Y14.6050
G01 F100.00
G01 Z-0.5000
G01 F400.00
G01 X14.7394 Y14.6019
G01 X14.7377 Y14.5993
G01 X14.7351 Y14.5976
G01 X14.7320 Y14.5970
G01 X14.7289 Y14.5976
G01 X14.7263 Y14.5993
G01 X14.7246 Y14.6019
G01 X14.7240 Y14.6050
G01 X14.7246 Y14.6081
G01 X14.7263 Y14.6107
G01 X14.7289 Y14.6124
G01 X14.7320 Y14.6130
G01 X14.7351 Y14.6124
G01 X14.7377 Y14.6107
G01 X14.7394 Y14.6081
G01 X14.7400 Y14.6050
G00 X14.7400 Y14.6050
G01 F100.00
G01 Z-0.7500
G01 F400.00
G01 X14.7394 Y14.6019
G01 X14.7377 Y14.5993
G01 X14.7351 Y14.5976
G01 X14.7320 Y14.5970
G01 X14.7289 Y14.5976
G01 X14.7263 Y14.5993
G01 X14.7246 Y14.6019
G01 X14.7240 Y14.6050
G01 X14.7246 Y14.6081
G01 X14.7263 Y14.6107
G01 X14.7289 Y14.6124
G01 X14.7320 Y14.6130
G01 X14.7351 Y14.6124
G01 X14.7377 Y14.6107
G01 X14.7394 Y14.6081
G01 X14.7400 Y14.6050
G00 X14.7400 Y14.6050
G01 F100.00
G01 Z-1.0000
G01 F400.00
G01 X14.7394 Y14.6019
G01 X14.7377 Y14.5993
G01 X14.7351 Y14.5976
G01 X14.7320 Y14.5970
G01 X14.7289 Y14.5976
G01 X14.7263 Y14.5993
G01 X14.7246 Y14.6019
G01 X14.7240 Y14.6050
G01 X14.7246 Y14.6081
G01 X14.7263 Y14.6107
G01 X14.7289 Y14.6124
G01 X14.7320 Y14.6130
G01 X14.7351 Y14.6124
G01 X14.7377 Y14.6107
G01 X14.7394 Y14.6081
G01 X14.7400 Y14.6050
G00 X14.7400 Y14.6050
G01 F100.00
G01 Z-1.2500
G01 F400.00
G01 X14.7394 Y14.6019
G01 X14.7377 Y14.5993
G01 X14.7351 Y14.5976
G01 X14.7320 Y14.5970
G01 X14.7289 Y14.5976
G01 X14.7263 Y14.5993
G01 X14.7246 Y14.6019
G01 X14.7240 Y14.6050
G01 X14.7246 Y14.6081
G01 X14.7263 Y14.6107
G01 X14.7289 Y14.6124
G01 X14.7320 Y14.6130
G01 X14.7351 Y14.6124
G01 X14.7377 Y14.6107
G01 X14.7394 Y14.6081
G01 X14.7400 Y14.6050
G00 X14.7400 Y14.6050
G01 F100.00
G01 Z-1.5000
G01 F400.00
G01 X14.7394 Y14.6019
G01 X14.7377 Y14.5993
G01 X14.7351 Y14.5976
G01 X14.7320 Y14.5970
G01 X14.7289 Y14.5976
G01 X14.7263 Y14.5993
G01 X14.7246 Y14.6019
G01 X14.7240 Y14.6050
G01 X14.7246 Y14.6081
G01 X14.7263 Y14.6107
G01 X14.7289 Y14.6124
G01 X14.7320 Y14.6130
G01 X14.7351 Y14.6124
G01 X14.7377 Y14.6107
G01 X14.7394 Y14.6081
G01 X14.7400 Y14.6050
G00 X14.7400 Y14.6050
G01 F100.00
G01 Z-1.7000
G01 F400.00
G01 X14.7394 Y14.6019
G01 X14.7377 Y14.5993
G01 X14.7351 Y14.5976
G01 X14.7320 Y14.5970
G01 X14.7289 Y14.5976
G01 X14.7263 Y14.5993
G01 X14.7246 Y14.6019
G01 X14.7240 Y14.6050
G01 X14.7246 Y14.6081
G01 X14.7263 Y14.6107
G01 X14.7289 Y14.6124
G01 X14.7320 Y14.6130
G01 X14.7351 Y14.6124
G01 X14.7377 Y14.6107
G01 X14.7394 Y14.6081
G01 X14.7400 Y14.6050
G00 Z3.0000
G00 X9.6600 Y10.7950
G01 F100.00
G01 Z-0.2500
G01 F400.00
G01 X9.6594 Y10.7919
G01 X9.6577 Y10.7893
G01 X9.6551 Y10.7876
G01 X9.6520 Y10.7870
G01 X9.6489 Y10.7876
G01 X9.6463 Y10.7893
G01 X9.6446 Y10.7919
G01 X9.6440 Y10.7950
G01 X9.6446 Y10.7981
G01 X9.6463 Y10.8007
G01 X9.6489 Y10.8024
G01 X9.6520 Y10.8030
G01 X9.6551 Y10.8024
G01 X9.6577 Y10.8007
G01 X9.6594 Y10.7981
G01 X9.6600 Y10.7950
G00 X9.6600 Y10.7950
G01 F100.00
G01 Z-0.5000
G01 F400.00
G01 X9.6594 Y10.7919
G01 X9.6577 Y10.7893
G01 X9.6551 Y10.7876
G01 X9.6520 Y10.7870
G01 X9.6489 Y10.7876
G01 X9.6463 Y10.7893
G01 X9.6446 Y10.7919
G01 X9.6440 Y10.7950
G01 X9.6446 Y10.7981
G01 X9.6463 Y10.8007
G01 X9.6489 Y10.8024
G01 X9.6520 Y10.8030
G01 X9.6551 Y10.8024
G01 X9.6577 Y10.8007
G01 X9.6594 Y10.7981
G01 X9.6600 Y10.7950
G00 X9.6600 Y10.7950
G01 F100.00
G01 Z-0.7500
G01 F400.00
G01 X9.6594 Y10.7919
G01 X9.6577 Y10.7893
G01 X9.6551 Y10.7876
G01 X9.6520 Y10.7870
G01 X9.6489 Y10.7876
G01 X9.6463 Y10.7893
G01 X9.6446 Y10.7919
G01 X9.6440 Y10.7950
G01 X9.6446 Y10.7981
G01 X9.6463 Y10.8007
G01 X9.6489 Y10.8024
G01 X9.6520 Y10.8030
G01 X9.6551 Y10.8024
G01 X9.6577 Y10.8007
G01 X9.6594 Y10.7981
G01 X9.6600 Y10.7950
G00 X9.6600 Y10.7950
G01 F100.00
G01 Z-1.0000
G01 F400.00
G01 X9.6594 Y10.7919
G01 X9.6577 Y10.7893
G01 X9.6551 Y10.7876
G01 X9.6520 Y10.7870
G01 X9.6489 Y10.7876
G01 X9.6463 Y10.7893
G01 X9.6446 Y10.7919
G01 X9.6440 Y10.7950
G01 X9.6446 Y10.7981
G01 X9.6463 Y10.8007
G01 X9.6489 Y10.8024
G01 X9.6520 Y10.8030
G01 X9.6551 Y10.8024
G01 X9.6577 Y10.8007
G01 X9.6594 Y10.7981
G01 X9.6600 Y10.7950
G00 X9.6600 Y10.7950
G01 F100.00
G01 Z-1.2500
G01 F400.00
G01 X9.6594 Y10.7919
G01 X9.6577 Y10.7893
G01 X9.6551 Y10.7876
G01 X9.6520 Y10.7870
G01 X9.6489 Y10.7876
G01 X9.6463 Y10.7893
G01 X9.6446 Y10.7919
G01 X9.6440 Y10.7950
G01 X9.6446 Y10.7981
G01 X9.6463 Y10.8007
G01 X9.6489 Y10.8024
G01 X9.6520 Y10.8030
G01 X9.6551 Y10.8024
G01 X9.6577 Y10.8007
G01 X9.6594 Y10.7981
G01 X9.6600 Y10.7950
G00 X9.6600 Y10.7950
G01 F100.00
G01 Z-1.5000
G01 F400.00
G01 X9.6594 Y10.7919
G01 X9.6577 Y10.7893
G01 X9.6551 Y10.7876
G01 X9.6520 Y10.7870
G01 X9.6489 Y10.7876
G01 X9.6463 Y10.7893
G01 X9.6446 Y10.7919
G01 X9.6440 Y10.7950
G01 X9.6446 Y10.7981
G01 X9.6463 Y10.8007
G01 X9.6489 Y10.8024
G01 X9.6520 Y10.8030
G01 X9.6551 Y10.8024
G01 X9.6577 Y10.8007
G01 X9.6594 Y10.7981
G01 X9.6600 Y10.7950
G00 X9.6600 Y10.7950
G01 F100.00
G01 Z-1.7000
G01 F400.00
G01 X9.6594 Y10.7919
G01 X9.6577 Y10.7893
G01 X9.6551 Y10.7876
G01 X9.6520 Y10.7870
G01 X9.6489 Y10.7876
G01 X9.6463 Y10.7893
G01 X9.6446 Y10.7919
G01 X9.6440 Y10.7950
G01 X9.6446 Y10.7981
G01 X9.6463 Y10.8007
G01 X9.6489 Y10.8024
G01 X9.6520 Y10.8030
G01 X9.6551 Y10.8024
G01 X9.6577 Y10.8007
G01 X9.6594 Y10.7981
G01 X9.6600 Y10.7950
G00 Z3.0000
G00 X7.1200 Y14.6050
G01 F100.00
G01 Z-0.2500
G01 F400.00
G01 X7.1194 Y14.6019
G01 X7.1177 Y14.5993
G01 X7.1151 Y14.5976
G01 X7.1120 Y14.5970
G01 X7.1089 Y14.5976
G01 X7.1063 Y14.5993
G01 X7.1046 Y14.6019
G01 X7.1040 Y14.6050
G01 X7.1046 Y14.6081
G01 X7.1063 Y14.6107
G01 X7.1089 Y14.6124
G01 X7.1120 Y14.6130
G01 X7.1151 Y14.6124
G01 X7.1177 Y14.6107
G01 X7.1194 Y14.6081
G01 X7.1200 Y14.6050
G00 X7.1200 Y14.6050
G01 F100.00
G01 Z-0.5000
G01 F400.00
G01 X7.1194 Y14.6019
G01 X7.1177 Y14.5993
G01 X7.1151 Y14.5976
G01 X7.1120 Y14.5970
G01 X7.1089 Y14.5976
G01 X7.1063 Y14.5993
G01 X7.1046 Y14.6019
G01 X7.1040 Y14.6050
G01 X7.1046 Y14.6081
G01 X7.1063 Y14.6107
G01 X7.1089 Y14.6124
G01 X7.1120 Y14.6130
G01 X7.1151 Y14.6124
G01 X7.1177 Y14.6107
G01 X7.1194 Y14.6081
G01 X7.1200 Y14.6050
G00 X7.1200 Y14.6050
G01 F100.00
G01 Z-0.7500
G01 F400.00
G01 X7.1194 Y14.6019
G01 X7.1177 Y14.5993
G01 X7.1151 Y14.5976
G01 X7.1120 Y14.5970
G01 X7.1089 Y14.5976
G01 X7.1063 Y14.5993
G01 X7.1046 Y14.6019
G01 X7.1040 Y14.6050
G01 X7.1046 Y14.6081
G01 X7.1063 Y14.6107
G01 X7.1089 Y14.6124
G01 X7.1120 Y14.6130
G01 X7.1151 Y14.6124
G01 X7.1177 Y14.6107
G01 X7.1194 Y14.6081
G01 X7.1200 Y14.6050
G00 X7.1200 Y14.6050
G01 F100.00
G01 Z-1.0000
G01 F400.00
G01 X7.1194 Y14.6019
G01 X7.1177 Y14.5993
G01 X7.1151 Y14.5976
G01 X7.1120 Y14.5970
G01 X7.1089 Y14.5976
G01 X7.1063 Y14.5993
G01 X7.1046 Y14.6019
G01 X7.1040 Y14.6050
G01 X7.1046 Y14.6081
G01 X7.1063 Y14.6107
G01 X7.1089 Y14.6124
G01 X7.1120 Y14.6130
G01 X7.1151 Y14.6124
G01 X7.1177 Y14.6107
G01 X7.1194 Y14.6081
G01 X7.1200 Y14.6050
G00 X7.1200 Y14.6050
G01 F100.00
G01 Z-1.2500
G01 F400.00
G01 X7.1194 Y14.6019
G01 X7.1177 Y14.5993
G01 X7.1151 Y14.5976
G01 X7.1120 Y14.5970
G01 X7.1089 Y14.5976
G01 X7.1063 Y14.5993
G01 X7.1046 Y14.6019
G01 X7.1040 Y14.6050
G01 X7.1046 Y14.6081
G01 X7.1063 Y14.6107
G01 X7.1089 Y14.6124
G01 X7.1120 Y14.6130
G01 X7.1151 Y14.6124
G01 X7.1177 Y14.6107
G01 X7.1194 Y14.6081
G01 X7.1200 Y14.6050
G00 X7.1200 Y14.6050
G01 F100.00
G01 Z-1.5000
G01 F400.00
G01 X7.1194 Y14.6019
G01 X7.1177 Y14.5993
G01 X7.1151 Y14.5976
G01 X7.1120 Y14.5970
G01 X7.1089 Y14.5976
G01 X7.1063 Y14.5993
G01 X7.1046 Y14.6019
G01 X7.1040 Y14.6050
G01 X7.1046 Y14.6081
G01 X7.1063 Y14.6107
G01 X7.1089 Y14.6124
G01 X7.1120 Y14.6130
G01 X7.1151 Y14.6124
G01 X7.1177 Y14.6107
G01 X7.1194 Y14.6081
G01 X7.1200 Y14.6050
G00 X7.1200 Y14.6050
G01 F100.00
G01 Z-1.7000
G01 F400.00
G01 X7.1194 Y14.6019
G01 X7.1177 Y14.5993
G01 X7.1151 Y14.5976
G01 X7.1120 Y14.5970
G01 X7.1089 Y14.5976
G01 X7.1063 Y14.5993
G01 X7.1046 Y14.6019
G01 X7.1040 Y14.6050
G01 X7.1046 Y14.6081
G01 X7.1063 Y14.6107
G01 X7.1089 Y14.6124
G01 X7.1120 Y14.6130
G01 X7.1151 Y14.6124
G01 X7.1177 Y14.6107
G01 X7.1194 Y14.6081
G01 X7.1200 Y14.6050
G00 Z3.0000
G00 X9.6600 Y33.6550
G01 F100.00
G01 Z-0.2500
G01 F400.00
G01 X9.6594 Y33.6519
G01 X9.6577 Y33.6493
G01 X9.6551 Y33.6476
G01 X9.6520 Y33.6470
G01 X9.6489 Y33.6476
G01 X9.6463 Y33.6493
G01 X9.6446 Y33.6519
G01 X9.6440 Y33.6550
G01 X9.6446 Y33.6581
G01 X9.6463 Y33.6607
G01 X9.6489 Y33.6624
G01 X9.6520 Y33.6630
G01 X9.6551 Y33.6624
G01 X9.6577 Y33.6607
G01 X9.6594 Y33.6581
G01 X9.6600 Y33.6550
G00 X9.6600 Y33.6550
G01 F100.00
G01 Z-0.5000
G01 F400.00
G01 X9.6594 Y33.6519
G01 X9.6577 Y33.6493
G01 X9.6551 Y33.6476
G01 X9.6520 Y33.6470
G01 X9.6489 Y33.6476
G01 X9.6463 Y33.6493
G01 X9.6446 Y33.6519
G01 X9.6440 Y33.6550
G01 X9.6446 Y33.6581
G01 X9.6463 Y33.6607
G01 X9.6489 Y33.6624
G01 X9.6520 Y33.6630
G01 X9.6551 Y33.6624
G01 X9.6577 Y33.6607
G01 X9.6594 Y33.6581
G01 X9.6600 Y33.6550
G00 X9.6600 Y33.6550
G01 F100.00
G01 Z-0.7500
G01 F400.00
G01 X9.6594 Y33.6519
G01 X9.6577 Y33.6493
G01 X9.6551 Y33.6476
G01 X9.6520 Y33.6470
G01 X9.6489 Y33.6476
G01 X9.6463 Y33.6493
G01 X9.6446 Y33.6519
G01 X9.6440 Y33.6550
G01 X9.6446 Y33.6581
G01 X9.6463 Y33.6607
G01 X9.6489 Y33.6624
G01 X9.6520 Y33.6630
G01 X9.6551 Y33.6624
G01 X9.6577 Y33.6607
G01 X9.6594 Y33.6581
G01 X9.6600 Y33.6550
G00 X9.6600 Y33.6550
G01 F100.00
G01 Z-1.0000
G01 F400.00
G01 X9.6594 Y33.6519
G01 X9.6577 Y33.6493
G01 X9.6551 Y33.6476
G01 X9.6520 Y33.6470
G01 X9.6489 Y33.6476
G01 X9.6463 Y33.6493
G01 X9.6446 Y33.6519
G01 X9.6440 Y33.6550
G01 X9.6446 Y33.6581
G01 X9.6463 Y33.6607
G01 X9.6489 Y33.6624
G01 X9.6520 Y33.6630
G01 X9.6551 Y33.6624
G01 X9.6577 Y33.6607
G01 X9.6594 Y33.6581
G01 X9.6600 Y33.6550
G00 X9.6600 Y33.6550
G01 F100.00
G01 Z-1.2500
G01 F400.00
G01 X9.6594 Y33.6519
G01 X9.6577 Y33.6493
G01 X9.6551 Y33.6476
G01 X9.6520 Y33.6470
G01 X9.6489 Y33.6476
G01 X9.6463 Y33.6493
G01 X9.6446 Y33.6519
G01 X9.6440 Y33.6550
G01 X9.6446 Y33.6581
G01 X9.6463 Y33.6607
G01 X9.6489 Y33.6624
G01 X9.6520 Y33.6630
G01 X9.6551 Y33.6624
G01 X9.6577 Y33.6607
G01 X9.6594 Y33.6581
G01 X9.6600 Y33.6550
G00 X9.6600 Y33.6550
G01 F100.00
G01 Z-1.5000
G01 F400.00
G01 X9.6594 Y33.6519
G01 X9.6577 Y33.6493
G01 X9.6551 Y33.6476
G01 X9.6520 Y33.6470
G01 X9.6489 Y33.6476
G01 X9.6463 Y33.6493
G01 X9.6446 Y33.6519
G01 X9.6440 Y33.6550
G01 X9.6446 Y33.6581
G01 X9.6463 Y33.6607
G01 X9.6489 Y33.6624
G01 X9.6520 Y33.6630
G01 X9.6551 Y33.6624
G01 X9.6577 Y33.6607
G01 X9.6594 Y33.6581
G01 X9.6600 Y33.6550
G00 X9.6600 Y33.6550
G01 F100.00
G01 Z-1.7000
G01 F400.00
G01 X9.6594 Y33.6519
G01 X9.6577 Y33.6493
G01 X9.6551 Y33.6476
G01 X9.6520 Y33.6470
G01 X9.6489 Y33.6476
G01 X9.6463 Y33.6493
G01 X9.6446 Y33.6519
G01 X9.6440 Y33.6550
G01 X9.6446 Y33.6581
G01 X9.6463 Y33.6607
G01 X9.6489 Y33.6624
G01 X9.6520 Y33.6630
G01 X9.6551 Y33.6624
G01 X9.6577 Y33.6607
G01 X9.6594 Y33.6581
G01 X9.6600 Y33.6550
G00 Z3.0000
G00 X9.6600 Y37.4650
G01 F100.00
G01 Z-0.2500
G01 F400.00
G01 X9.6594 Y37.4619
G01 X9.6577 Y37.4593
G01 X9.6551 Y37.4576
G01 X9.6520 Y37.4570
G01 X9.6489 Y37.4576
G01 X9.6463 Y37.4593
G01 X9.6446 Y37.4619
G01 X9.6440 Y37.4650
G01 X9.6446 Y37.4681
G01 X9.6463 Y37.4707
G01 X9.6489 Y37.4724
G01 X9.6520 Y37.4730
G01 X9.6551 Y37.4724
G01 X9.6577 Y37.4707
G01 X9.6594 Y37.4681
G01 X9.6600 Y37.4650
G00 X9.6600 Y37.4650
G01 F100.00
G01 Z-0.5000
G01 F400.00
G01 X9.6594 Y37.4619
G01 X9.6577 Y37.4593
G01 X9.6551 Y37.4576
G01 X9.6520 Y37.4570
G01 X9.6489 Y37.4576
G01 X9.6463 Y37.4593
G01 X9.6446 Y37.4619
G01 X9.6440 Y37.4650
G01 X9.6446 Y37.4681
G01 X9.6463 Y37.4707
G01 X9.6489 Y37.4724
G01 X9.6520 Y37.4730
G01 X9.6551 Y37.4724
G01 X9.6577 Y37.4707
G01 X9.6594 Y37.4681
G01 X9.6600 Y37.4650
G00 X9.6600 Y37.4650
G01 F100.00
G01 Z-0.7500
G01 F400.00
G01 X9.6594 Y37.4619
G01 X9.6577 Y37.4593
G01 X9.6551 Y37.4576
G01 X9.6520 Y37.4570
G01 X9.6489 Y37.4576
G01 X9.6463 Y37.4593
G01 X9.6446 Y37.4619
G01 X9.6440 Y37.4650
G01 X9.6446 Y37.4681
G01 X9.6463 Y37.4707
G01 X9.6489 Y37.4724
G01 X9.6520 Y37.4730
G01 X9.6551 Y37.4724
G01 X9.6577 Y37.4707
G01 X9.6594 Y37.4681
G01 X9.6600 Y37.4650
G00 X9.6600 Y37.4650
G01 F100.00
G01 Z-1.0000
G01 F400.00
G01 X9.6594 Y37.4619
G01 X9.6577 Y37.4593
G01 X9.6551 Y37.4576
G01 X9.6520 Y37.4570
G01 X9.6489 Y37.4576
G01 X9.6463 Y37.4593
G01 X9.6446 Y37.4619
G01 X9.6440 Y37.4650
G01 X9.6446 Y37.4681
G01 X9.6463 Y37.4707
G01 X9.6489 Y37.4724
G01 X9.6520 Y37.4730
G01 X9.6551 Y37.4724
G01 X9.6577 Y37.4707
G01 X9.6594 Y37.4681
G01 X9.6600 Y37.4650
G00 X9.6600 Y37.4650
G01 F100.00
G01 Z-1.2500
G01 F400.00
G01 X9.6594 Y37.4619
G01 X9.6577 Y37.4593
G01 X9.6551 Y37.4576
G01 X9.6520 Y37.4570
G01 X9.6489 Y37.4576
G01 X9.6463 Y37.4593
G01 X9.6446 Y37.4619
G01 X9.6440 Y37.4650
G01 X9.6446 Y37.4681
G01 X9.6463 Y37.4707
G01 X9.6489 Y37.4724
G01 X9.6520 Y37.4730
G01 X9.6551 Y37.4724
G01 X9.6577 Y37.4707
G01 X9.6594 Y37.4681
G01 X9.6600 Y37.4650
G00 X9.6600 Y37.4650
G01 F100.00
G01 Z-1.5000
G01 F400.00
G01 X9.6594 Y37.4619
G01 X9.6577 Y37.4593
G01 X9.6551 Y37.4576
G01 X9.6520 Y37.4570
G01 X9.6489 Y37.4576
G01 X9.6463 Y37.4593
G01 X9.6446 Y37.4619
G01 X9.6440 Y37.4650
G01 X9.6446 Y37.4681
G01 X9.6463 Y37.4707
G01 X9.6489 Y37.4724
G01 X9.6520 Y37.4730
G01 X9.6551 Y37.4724
G01 X9.6577 Y37.4707
G01 X9.6594 Y37.4681
G01 X9.6600 Y37.4650
G00 X9.6600 Y37.4650
G01 F100.00
G01 Z-1.7000
G01 F400.00
G01 X9.6594 Y37.4619
G01 X9.6577 Y37.4593
G01 X9.6551 Y37.4576
G01 X9.6520 Y37.4570
G01 X9.6489 Y37.4576
G01 X9.6463 Y37.4593
G01 X9.6446 Y37.4619
G01 X9.6440 Y37.4650
G01 X9.6446 Y37.4681
G01 X9.6463 Y37.4707
G01 X9.6489 Y37.4724
G01 X9.6520 Y37.4730
G01 X9.6551 Y37.4724
G01 X9.6577 Y37.4707
G01 X9.6594 Y37.4681
G01 X9.6600 Y37.4650
G00 Z3.0000
G00 X8.3900 Y42.5450
G01 F100.00
G01 Z-0.2500
G01 F400.00
G01 X8.3894 Y42.5419
G01 X8.3877 Y42.5393
G01 X8.3851 Y42.5376
G01 X8.3820 Y42.5370
G01 X8.3789 Y42.5376
G01 X8.3763 Y42.5393
G01 X8.3746 Y42.5419
G01 X8.3740 Y42.5450
G01 X8.3746 Y42.5481
G01 X8.3763 Y42.5507
G01 X8.3789 Y42.5524
G01 X8.3820 Y42.5530
G01 X8.3851 Y42.5524
G01 X8.3877 Y42.5507
G01 X8.3894 Y42.5481
G01 X8.3900 Y42.5450
G00 X8.3900 Y42.5450
G01 F100.00
G01 Z-0.5000
G01 F400.00
G01 X8.3894 Y42.5419
G01 X8.3877 Y42.5393
G01 X8.3851 Y42.5376
G01 X8.3820 Y42.5370
G01 X8.3789 Y42.5376
G01 X8.3763 Y42.5393
G01 X8.3746 Y42.5419
G01 X8.3740 Y42.5450
G01 X8.3746 Y42.5481
G01 X8.3763 Y42.5507
G01 X8.3789 Y42.5524
G01 X8.3820 Y42.5530
G01 X8.3851 Y42.5524
G01 X8.3877 Y42.5507
G01 X8.3894 Y42.5481
G01 X8.3900 Y42.5450
G00 X8.3900 Y42.5450
G01 F100.00
G01 Z-0.7500
G01 F400.00
G01 X8.3894 Y42.5419
G01 X8.3877 Y42.5393
G01 X8.3851 Y42.5376
G01 X8.3820 Y42.5370
G01 X8.3789 Y42.5376
G01 X8.3763 Y42.5393
G01 X8.3746 Y42.5419
G01 X8.3740 Y42.5450
G01 X8.3746 Y42.5481
G01 X8.3763 Y42.5507
G01 X8.3789 Y42.5524
G01 X8.3820 Y42.5530
G01 X8.3851 Y42.5524
G01 X8.3877 Y42.5507
G01 X8.3894 Y42.5481
G01 X8.3900 Y42.5450
G00 X8.3900 Y42.5450
G01 F100.00
G01 Z-1.0000
G01 F400.00
G01 X8.3894 Y42.5419
G01 X8.3877 Y42.5393
G01 X8.3851 Y42.5376
G01 X8.3820 Y42.5370
G01 X8.3789 Y42.5376
G01 X8.3763 Y42.5393
G01 X8.3746 Y42.5419
G01 X8.3740 Y42.5450
G01 X8.3746 Y42.5481
G01 X8.3763 Y42.5507
G01 X8.3789 Y42.5524
G01 X8.3820 Y42.5530
G01 X8.3851 Y42.5524
G01 X8.3877 Y42.5507
G01 X8.3894 Y42.5481
G01 X8.3900 Y42.5450
G00 X8.3900 Y42.5450
G01 F100.00
G01 Z-1.2500
G01 F400.00
G01 X8.3894 Y42.5419
G01 X8.3877 Y42.5393
G01 X8.3851 Y42.5376
G01 X8.3820 Y42.5370
G01 X8.3789 Y42.5376
G01 X8.3763 Y42.5393
G01 X8.3746 Y42.5419
G01 X8.3740 Y42.5450
G01 X8.3746 Y42.5481
G01 X8.3763 Y42.5507
G01 X8.3789 Y42.5524
G01 X8.3820 Y42.5530
G01 X8.3851 Y42.5524
G01 X8.3877 Y42.5507
G01 X8.3894 Y42.5481
G01 X8.3900 Y42.5450
G00 X8.3900 Y42.5450
G01 F100.00
G01 Z-1.5000
G01 F400.00
G01 X8.3894 Y42.5419
G01 X8.3877 Y42.5393
G01 X8.3851 Y42.5376
G01 X8.3820 Y42.5370
G01 X8.3789 Y42.5376
G01 X8.3763 Y42.5393
G01 X8.3746 Y42.5419
G01 X8.3740 Y42.5450
G01 X8.3746 Y42.5481
G01 X8.3763 Y42.5507
G01 X8.3789 Y42.5524
G01 X8.3820 Y42.5530
G01 X8.3851 Y42.5524
G01 X8.3877 Y42.5507
G01 X8.3894 Y42.5481
G01 X8.3900 Y42.5450
G00 X8.3900 Y42.5450
G01 F100.00
G01 Z-1.7000
G01 F400.00
G01 X8.3894 Y42.5419
G01 X8.3877 Y42.5393
G01 X8.3851 Y42.5376
G01 X8.3820 Y42.5370
G01 X8.3789 Y42.5376
G01 X8.3763 Y42.5393
G01 X8.3746 Y42.5419
G01 X8.3740 Y42.5450
G01 X8.3746 Y42.5481
G01 X8.3763 Y42.5507
G01 X8.3789 Y42.5524
G01 X8.3820 Y42.5530
G01 X8.3851 Y42.5524
G01 X8.3877 Y42.5507
G01 X8.3894 Y42.5481
G01 X8.3900 Y42.5450
G00 Z3.0000
G00 X8.3900 Y46.3550
G01 F100.00
G01 Z-0.2500
G01 F400.00
G01 X8.3894 Y46.3519
G01 X8.3877 Y46.3493
G01 X8.3851 Y46.3476
G01 X8.3820 Y46.3470
G01 X8.3789 Y46.3476
G01 X8.3763 Y46.3493
G01 X8.3746 Y46.3519
G01 X8.3740 Y46.3550
G01 X8.3746 Y46.3581
G01 X8.3763 Y46.3607
G01 X8.3789 Y46.3624
G01 X8.3820 Y46.3630
G01 X8.3851 Y46.3624
G01 X8.3877 Y46.3607
G01 X8.3894 Y46.3581
G01 X8.3900 Y46.3550
G00 X8.3900 Y46.3550
G01 F100.00
G01 Z-0.5000
G01 F400.00
G01 X8.3894 Y46.3519
G01 X8.3877 Y46.3493
G01 X8.3851 Y46.3476
G01 X8.3820 Y46.3470
G01 X8.3789 Y46.3476
G01 X8.3763 Y46.3493
G01 X8.3746 Y46.3519
G01 X8.3740 Y46.3550
G01 X8.3746 Y46.3581
G01 X8.3763 Y46.3607
G01 X8.3789 Y46.3624
G01 X8.3820 Y46.3630
G01 X8.3851 Y46.3624
G01 X8.3877 Y46.3607
G01 X8.3894 Y46.3581
G01 X8.3900 Y46.3550
G00 X8.3900 Y46.3550
G01 F100.00
G01 Z-0.7500
G01 F400.00
G01 X8.3894 Y46.3519
G01 X8.3877 Y46.3493
G01 X8.3851 Y46.3476
G01 X8.3820 Y46.3470
G01 X8.3789 Y46.3476
G01 X8.3763 Y46.3493
G01 X8.3746 Y46.3519
G01 X8.3740 Y46.3550
G01 X8.3746 Y46.3581
G01 X8.3763 Y46.3607
G01 X8.3789 Y46.3624
G01 X8.3820 Y46.3630
G01 X8.3851 Y46.3624
G01 X8.3877 Y46.3607
G01 X8.3894 Y46.3581
G01 X8.3900 Y46.3550
G00 X8.3900 Y46.3550
G01 F100.00
G01 Z-1.0000
G01 F400.00
G01 X8.3894 Y46.3519
G01 X8.3877 Y46.3493
G01 X8.3851 Y46.3476
G01 X8.3820 Y46.3470
G01 X8.3789 Y46.3476
G01 X8.3763 Y46.3493
G01 X8.3746 Y46.3519
G01 X8.3740 Y46.3550
G01 X8.3746 Y46.3581
G01 X8.3763 Y46.3607
G01 X8.3789 Y46.3624
G01 X8.3820 Y46.3630
G01 X8.3851 Y46.3624
G01 X8.3877 Y46.3607
G01 X8.3894 Y46.3581
G01 X8.3900 Y46.3550
G00 X8.3900 Y46.3550
G01 F100.00
G01 Z-1.2500
G01 F400.00
G01 X8.3894 Y46.3519
G01 X8.3877 Y46.3493
G01 X8.3851 Y46.3476
G01 X8.3820 Y46.3470
G01 X8.3789 Y46.3476
G01 X8.3763 Y46.3493
G01 X8.3746 Y46.3519
G01 X8.3740 Y46.3550
G01 X8.3746 Y46.3581
G01 X8.3763 Y46.3607
G01 X8.3789 Y46.3624
G01 X8.3820 Y46.3630
G01 X8.3851 Y46.3624
G01 X8.3877 Y46.3607
G01 X8.3894 Y46.3581
G01 X8.3900 Y46.3550
G00 X8.3900 Y46.3550
G01 F100.00
G01 Z-1.5000
G01 F400.00
G01 X8.3894 Y46.3519
G01 X8.3877 Y46.3493
G01 X8.3851 Y46.3476
G01 X8.3820 Y46.3470
G01 X8.3789 Y46.3476
G01 X8.3763 Y46.3493
G01 X8.3746 Y46.3519
G01 X8.3740 Y46.3550
G01 X8.3746 Y46.3581
G01 X8.3763 Y46.3607
G01 X8.3789 Y46.3624
G01 X8.3820 Y46.3630
G01 X8.3851 Y46.3624
G01 X8.3877 Y46.3607
G01 X8.3894 Y46.3581
G01 X8.3900 Y46.3550
G00 X8.3900 Y46.3550
G01 F100.00
G01 Z-1.7000
G01 F400.00
G01 X8.3894 Y46.3519
G01 X8.3877 Y46.3493
G01 X8.3851 Y46.3476
G01 X8.3820 Y46.3470
G01 X8.3789 Y46.3476
G01 X8.3763 Y46.3493
G01 X8.3746 Y46.3519
G01 X8.3740 Y46.3550
G01 X8.3746 Y46.3581
G01 X8.3763 Y46.3607
G01 X8.3789 Y46.3624
G01 X8.3820 Y46.3630
G01 X8.3851 Y46.3624
G01 X8.3877 Y46.3607
G01 X8.3894 Y46.3581
G01 X8.3900 Y46.3550
G00 Z3.0000
G00 X16.0100 Y46.3550
G01 F100.00
G01 Z-0.2500
G01 F400.00
G01 X16.0094 Y46.3519
G01 X16.0077 Y46.3493
G01 X16.0051 Y46.3476
G01 X16.0020 Y46.3470
G01 X15.9989 Y46.3476
G01 X15.9963 Y46.3493
G01 X15.9946 Y46.3519
G01 X15.9940 Y46.3550
G01 X15.9946 Y46.3581
G01 X15.9963 Y46.3607
G01 X15.9989 Y46.3624
G01 X16.0020 Y46.3630
G01 X16.0051 Y46.3624
G01 X16.0077 Y46.3607
G01 X16.0094 Y46.3581
G01 X16.0100 Y46.3550
G00 X16.0100 Y46.3550
G01 F100.00
G01 Z-0.5000
G01 F400.00
G01 X16.0094 Y46.3519
G01 X16.0077 Y46.3493
G01 X16.0051 Y46.3476
G01 X16.0020 Y46.3470
G01 X15.9989 Y46.3476
G01 X15.9963 Y46.3493
G01 X15.9946 Y46.3519
G01 X15.9940 Y46.3550
G01 X15.9946 Y46.3581
G01 X15.9963 Y46.3607
G01 X15.9989 Y46.3624
G01 X16.0020 Y46.3630
G01 X16.0051 Y46.3624
G01 X16.0077 Y46.3607
G01 X16.0094 Y46.3581
G01 X16.0100 Y46.3550
G00 X16.0100 Y46.3550
G01 F100.00
G01 Z-0.7500
G01 F400.00
G01 X16.0094 Y46.3519
G01 X16.0077 Y46.3493
G01 X16.0051 Y46.3476
G01 X16.0020 Y46.3470
G01 X15.9989 Y46.3476
G01 X15.9963 Y46.3493
G01 X15.9946 Y46.3519
G01 X15.9940 Y46.3550
G01 X15.9946 Y46.3581
G01 X15.9963 Y46.3607
G01 X15.9989 Y46.3624
G01 X16.0020 Y46.3630
G01 X16.0051 Y46.3624
G01 X16.0077 Y46.3607
G01 X16.0094 Y46.3581
G01 X16.0100 Y46.3550
G00 X16.0100 Y46.3550
G01 F100.00
G01 Z-1.0000
G01 F400.00
G01 X16.0094 Y46.3519
G01 X16.0077 Y46.3493
G01 X16.0051 Y46.3476
G01 X16.0020 Y46.3470
G01 X15.9989 Y46.3476
G01 X15.9963 Y46.3493
G01 X15.9946 Y46.3519
G01 X15.9940 Y46.3550
G01 X15.9946 Y46.3581
G01 X15.9963 Y46.3607
G01 X15.9989 Y46.3624
G01 X16.0020 Y46.3630
G01 X16.0051 Y46.3624
G01 X16.0077 Y46.3607
G01 X16.0094 Y46.3581
G01 X16.0100 Y46.3550
G00 X16.0100 Y46.3550
G01 F100.00
G01 Z-1.2500
G01 F400.00
G01 X16.0094 Y46.3519
G01 X16.0077 Y46.3493
G01 X16.0051 Y46.3476
G01 X16.0020 Y46.3470
G01 X15.9989 Y46.3476
G01 X15.9963 Y46.3493
G01 X15.9946 Y46.3519
G01 X15.9940 Y46.3550
G01 X15.9946 Y46.3581
G01 X15.9963 Y46.3607
G01 X15.9989 Y46.3624
G01 X16.0020 Y46.3630
G01 X16.0051 Y46.3624
G01 X16.0077 Y46.3607
G01 X16.0094 Y46.3581
G01 X16.0100 Y46.3550
G00 X16.0100 Y46.3550
G01 F100.00
G01 Z-1.5000
G01 F400.00
G01 X16.0094 Y46.3519
G01 X16.0077 Y46.3493
G01 X16.0051 Y46.3476
G01 X16.0020 Y46.3470
G01 X15.9989 Y46.3476
G01 X15.9963 Y46.3493
G01 X15.9946 Y46.3519
G01 X15.9940 Y46.3550
G01 X15.9946 Y46.3581
G01 X15.9963 Y46.3607
G01 X15.9989 Y46.3624
G01 X16.0020 Y46.3630
G01 X16.0051 Y46.3624
G01 X16.0077 Y46.3607
G01 X16.0094 Y46.3581
G01 X16.0100 Y46.3550
G00 X16.0100 Y46.3550
G01 F100.00
G01 Z-1.7000
G01 F400.00
G01 X16.0094 Y46.3519
G01 X16.0077 Y46.3493
G01 X16.0051 Y46.3476
G01 X16.0020 Y46.3470
G01 X15.9989 Y46.3476
G01 X15.9963 Y46.3493
G01 X15.9946 Y46.3519
G01 X15.9940 Y46.3550
G01 X15.9946 Y46.3581
G01 X15.9963 Y46.3607
G01 X15.9989 Y46.3624
G01 X16.0020 Y46.3630
G01 X16.0051 Y46.3624
G01 X16.0077 Y46.3607
G01 X16.0094 Y46.3581
G01 X16.0100 Y46.3550
G00 Z3.0000
G00 X16.0100 Y42.5450
G01 F100.00
G01 Z-0.2500
G01 F400.00
G01 X16.0094 Y42.5419
G01 X16.0077 Y42.5393
G01 X16.0051 Y42.5376
G01 X16.0020 Y42.5370
G01 X15.9989 Y42.5376
G01 X15.9963 Y42.5393
G01 X15.9946 Y42.5419
G01 X15.9940 Y42.5450
G01 X15.9946 Y42.5481
G01 X15.9963 Y42.5507
G01 X15.9989 Y42.5524
G01 X16.0020 Y42.5530
G01 X16.0051 Y42.5524
G01 X16.0077 Y42.5507
G01 X16.0094 Y42.5481
G01 X16.0100 Y42.5450
G00 X16.0100 Y42.5450
G01 F100.00
G01 Z-0.5000
G01 F400.00
G01 X16.0094 Y42.5419
G01 X16.0077 Y42.5393
G01 X16.0051 Y42.5376
G01 X16.0020 Y42.5370
G01 X15.9989 Y42.5376
G01 X15.9963 Y42.5393
G01 X15.9946 Y42.5419
G01 X15.9940 Y42.5450
G01 X15.9946 Y42.5481
G01 X15.9963 Y42.5507
G01 X15.9989 Y42.5524
G01 X16.0020 Y42.5530
G01 X16.0051 Y42.5524
G01 X16.0077 Y42.5507
G01 X16.0094 Y42.5481
G01 X16.0100 Y42.5450
G00 X16.0100 Y42.5450
G01 F100.00
G01 Z-0.7500
G01 F400.00
G01 X16.0094 Y42.5419
G01 X16.0077 Y42.5393
G01 X16.0051 Y42.5376
G01 X16.0020 Y42.5370
G01 X15.9989 Y42.5376
G01 X15.9963 Y42.5393
G01 X15.9946 Y42.5419
G01 X15.9940 Y42.5450
G01 X15.9946 Y42.5481
G01 X15.9963 Y42.5507
G01 X15.9989 Y42.5524
G01 X16.0020 Y42.5530
G01 X16.0051 Y42.5524
G01 X16.0077 Y42.5507
G01 X16.0094 Y42.5481
G01 X16.0100 Y42.5450
G00 X16.0100 Y42.5450
G01 F100.00
G01 Z-1.0000
G01 F400.00
G01 X16.0094 Y42.5419
G01 X16.0077 Y42.5393
G01 X16.0051 Y42.5376
G01 X16.0020 Y42.5370
G01 X15.9989 Y42.5376
G01 X15.9963 Y42.5393
G01 X15.9946 Y42.5419
G01 X15.9940 Y42.5450
G01 X15.9946 Y42.5481
G01 X15.9963 Y42.5507
G01 X15.9989 Y42.5524
G01 X16.0020 Y42.5530
G01 X16.0051 Y42.5524
G01 X16.0077 Y42.5507
G01 X16.0094 Y42.5481
G01 X16.0100 Y42.5450
G00 X16.0100 Y42.5450
G01 F100.00
G01 Z-1.2500
G01 F400.00
G01 X16.0094 Y42.5419
G01 X16.0077 Y42.5393
G01 X16.0051 Y42.5376
G01 X16.0020 Y42.5370
G01 X15.9989 Y42.5376
G01 X15.9963 Y42.5393
G01 X15.9946 Y42.5419
G01 X15.9940 Y42.5450
G01 X15.9946 Y42.5481
G01 X15.9963 Y42.5507
G01 X15.9989 Y42.5524
G01 X16.0020 Y42.5530
G01 X16.0051 Y42.5524
G01 X16.0077 Y42.5507
G01 X16.0094 Y42.5481
G01 X16.0100 Y42.5450
G00 X16.0100 Y42.5450
G01 F100.00
G01 Z-1.5000
G01 F400.00
G01 X16.0094 Y42.5419
G01 X16.0077 Y42.5393
G01 X16.0051 Y42.5376
G01 X16.0020 Y42.5370
G01 X15.9989 Y42.5376
G01 X15.9963 Y42.5393
G01 X15.9946 Y42.5419
G01 X15.9940 Y42.5450
G01 X15.9946 Y42.5481
G01 X15.9963 Y42.5507
G01 X15.9989 Y42.5524
G01 X16.0020 Y42.5530
G01 X16.0051 Y42.5524
G01 X16.0077 Y42.5507
G01 X16.0094 Y42.5481
G01 X16.0100 Y42.5450
G00 X16.0100 Y42.5450
G01 F100.00
G01 Z-1.7000
G01 F400.00
G01 X16.0094 Y42.5419
G01 X16.0077 Y42.5393
G01 X16.0051 Y42.5376
G01 X16.0020 Y42.5370
G01 X15.9989 Y42.5376
G01 X15.9963 Y42.5393
G01 X15.9946 Y42.5419
G01 X15.9940 Y42.5450
G01 X15.9946 Y42.5481
G01 X15.9963 Y42.5507
G01 X15.9989 Y42.5524
G01 X16.0020 Y42.5530
G01 X16.0051 Y42.5524
G01 X16.0077 Y42.5507
G01 X16.0094 Y42.5481
G01 X16.0100 Y42.5450
G00 Z3.0000
G00 X17.2800 Y37.4650
G01 F100.00
G01 Z-0.2500
G01 F400.00
G01 X17.2794 Y37.4619
G01 X17.2777 Y37.4593
G01 X17.2751 Y37.4576
G01 X17.2720 Y37.4570
G01 X17.2689 Y37.4576
G01 X17.2663 Y37.4593
G01 X17.2646 Y37.4619
G01 X17.2640 Y37.4650
G01 X17.2646 Y37.4681
G01 X17.2663 Y37.4707
G01 X17.2689 Y37.4724
G01 X17.2720 Y37.4730
G01 X17.2751 Y37.4724
G01 X17.2777 Y37.4707
G01 X17.2794 Y37.4681
G01 X17.2800 Y37.4650
G00 X17.2800 Y37.4650
G01 F100.00
G01 Z-0.5000
G01 F400.00
G01 X17.2794 Y37.4619
G01 X17.2777 Y37.4593
G01 X17.2751 Y37.4576
G01 X17.2720 Y37.4570
G01 X17.2689 Y37.4576
G01 X17.2663 Y37.4593
G01 X17.2646 Y37.4619
G01 X17.2640 Y37.4650
G01 X17.2646 Y37.4681
G01 X17.2663 Y37.4707
G01 X17.2689 Y37.4724
G01 X17.2720 Y37.4730
G01 X17.2751 Y37.4724
G01 X17.2777 Y37.4707
G01 X17.2794 Y37.4681
G01 X17.2800 Y37.4650
G00 X17.2800 Y37.4650
G01 F100.00
G01 Z-0.7500
G01 F400.00
G01 X17.2794 Y37.4619
G01 X17.2777 Y37.4593
G01 X17.2751 Y37.4576
G01 X17.2720 Y37.4570
G01 X17.2689 Y37.4576
G01 X17.2663 Y37.4593
G01 X17.2646 Y37.4619
G01 X17.2640 Y37.4650
G01 X17.2646 Y37.4681
G01 X17.2663 Y37.4707
G01 X17.2689 Y37.4724
G01 X17.2720 Y37.4730
G01 X17.2751 Y37.4724
G01 X17.2777 Y37.4707
G01 X17.2794 Y37.4681
G01 X17.2800 Y37.4650
G00 X17.2800 Y37.4650
G01 F100.00
G01 Z-1.0000
G01 F400.00
G01 X17.2794 Y37.4619
G01 X17.2777 Y37.4593
G01 X17.2751 Y37.4576
G01 X17.2720 Y37.4570
G01 X17.2689 Y37.4576
G01 X17.2663 Y37.4593
G01 X17.2646 Y37.4619
G01 X17.2640 Y37.4650
G01 X17.2646 Y37.4681
G01 X17.2663 Y37.4707
G01 X17.2689 Y37.4724
G01 X17.2720 Y37.4730
G01 X17.2751 Y37.4724
G01 X17.2777 Y37.4707
G01 X17.2794 Y37.4681
G01 X17.2800 Y37.4650
G00 X17.2800 Y37.4650
G01 F100.00
G01 Z-1.2500
G01 F400.00
G01 X17.2794 Y37.4619
G01 X17.2777 Y37.4593
G01 X17.2751 Y37.4576
G01 X17.2720 Y37.4570
G01 X17.2689 Y37.4576
G01 X17.2663 Y37.4593
G01 X17.2646 Y37.4619
G01 X17.2640 Y37.4650
G01 X17.2646 Y37.4681
G01 X17.2663 Y37.4707
G01 X17.2689 Y37.4724
G01 X17.2720 Y37.4730
G01 X17.2751 Y37.4724
G01 X17.2777 Y37.4707
G01 X17.2794 Y37.4681
G01 X17.2800 Y37.4650
G00 X17.2800 Y37.4650
G01 F100.00
G01 Z-1.5000
G01 F400.00
G01 X17.2794 Y37.4619
G01 X17.2777 Y37.4593
G01 X17.2751 Y37.4576
G01 X17.2720 Y37.4570
G01 X17.2689 Y37.4576
G01 X17.2663 Y37.4593
G01 X17.2646 Y37.4619
G01 X17.2640 Y37.4650
G01 X17.2646 Y37.4681
G01 X17.2663 Y37.4707
G01 X17.2689 Y37.4724
G01 X17.2720 Y37.4730
G01 X17.2751 Y37.4724
G01 X17.2777 Y37.4707
G01 X17.2794 Y37.4681
G01 X17.2800 Y37.4650
G00 X17.2800 Y37.4650
G01 F100.00
G01 Z-1.7000
G01 F400.00
G01 X17.2794 Y37.4619
G01 X17.2777 Y37.4593
G01 X17.2751 Y37.4576
G01 X17.2720 Y37.4570
G01 X17.2689 Y37.4576
G01 X17.2663 Y37.4593
G01 X17.2646 Y37.4619
G01 X17.2640 Y37.4650
G01 X17.2646 Y37.4681
G01 X17.2663 Y37.4707
G01 X17.2689 Y37.4724
G01 X17.2720 Y37.4730
G01 X17.2751 Y37.4724
G01 X17.2777 Y37.4707
G01 X17.2794 Y37.4681
G01 X17.2800 Y37.4650
G00 Z3.0000
G00 X17.2800 Y33.6550
G01 F100.00
G01 Z-0.2500
G01 F400.00
G01 X17.2794 Y33.6519
G01 X17.2777 Y33.6493
G01 X17.2751 Y33.6476
G01 X17.2720 Y33.6470
G01 X17.2689 Y33.6476
G01 X17.2663 Y33.6493
G01 X17.2646 Y33.6519
G01 X17.2640 Y33.6550
G01 X17.2646 Y33.6581
G01 X17.2663 Y33.6607
G01 X17.2689 Y33.6624
G01 X17.2720 Y33.6630
G01 X17.2751 Y33.6624
G01 X17.2777 Y33.6607
G01 X17.2794 Y33.6581
G01 X17.2800 Y33.6550
G00 X17.2800 Y33.6550
G01 F100.00
G01 Z-0.5000
G01 F400.00
G01 X17.2794 Y33.6519
G01 X17.2777 Y33.6493
G01 X17.2751 Y33.6476
G01 X17.2720 Y33.6470
G01 X17.2689 Y33.6476
G01 X17.2663 Y33.6493
G01 X17.2646 Y33.6519
G01 X17.2640 Y33.6550
G01 X17.2646 Y33.6581
G01 X17.2663 Y33.6607
G01 X17.2689 Y33.6624
G01 X17.2720 Y33.6630
G01 X17.2751 Y33.6624
G01 X17.2777 Y33.6607
G01 X17.2794 Y33.6581
G01 X17.2800 Y33.6550
G00 X17.2800 Y33.6550
G01 F100.00
G01 Z-0.7500
G01 F400.00
G01 X17.2794 Y33.6519
G01 X17.2777 Y33.6493
G01 X17.2751 Y33.6476
G01 X17.2720 Y33.6470
G01 X17.2689 Y33.6476
G01 X17.2663 Y33.6493
G01 X17.2646 Y33.6519
G01 X17.2640 Y33.6550
G01 X17.2646 Y33.6581
G01 X17.2663 Y33.6607
G01 X17.2689 Y33.6624
G01 X17.2720 Y33.6630
G01 X17.2751 Y33.6624
G01 X17.2777 Y33.6607
G01 X17.2794 Y33.6581
G01 X17.2800 Y33.6550
G00 X17.2800 Y33.6550
G01 F100.00
G01 Z-1.0000
G01 F400.00
G01 X17.2794 Y33.6519
G01 X17.2777 Y33.6493
G01 X17.2751 Y33.6476
G01 X17.2720 Y33.6470
G01 X17.2689 Y33.6476
G01 X17.2663 Y33.6493
G01 X17.2646 Y33.6519
G01 X17.2640 Y33.6550
G01 X17.2646 Y33.6581
G01 X17.2663 Y33.6607
G01 X17.2689 Y33.6624
G01 X17.2720 Y33.6630
G01 X17.2751 Y33.6624
G01 X17.2777 Y33.6607
G01 X17.2794 Y33.6581
G01 X17.2800 Y33.6550
G00 X17.2800 Y33.6550
G01 F100.00
G01 Z-1.2500
G01 F400.00
G01 X17.2794 Y33.6519
G01 X17.2777 Y33.6493
G01 X17.2751 Y33.6476
G01 X17.2720 Y33.6470
G01 X17.2689 Y33.6476
G01 X17.2663 Y33.6493
G01 X17.2646 Y33.6519
G01 X17.2640 Y33.6550
G01 X17.2646 Y33.6581
G01 X17.2663 Y33.6607
G01 X17.2689 Y33.6624
G01 X17.2720 Y33.6630
G01 X17.2751 Y33.6624
G01 X17.2777 Y33.6607
G01 X17.2794 Y33.6581
G01 X17.2800 Y33.6550
G00 X17.2800 Y33.6550
G01 F100.00
G01 Z-1.5000
G01 F400.00
G01 X17.2794 Y33.6519
G01 X17.2777 Y33.6493
G01 X17.2751 Y33.6476
G01 X17.2720 Y33.6470
G01 X17.2689 Y33.6476
G01 X17.2663 Y33.6493
G01 X17.2646 Y33.6519
G01 X17.2640 Y33.6550
G01 X17.2646 Y33.6581
G01 X17.2663 Y33.6607
G01 X17.2689 Y33.6624
G01 X17.2720 Y33.6630
G01 X17.2751 Y33.6624
G01 X17.2777 Y33.6607
G01 X17.2794 Y33.6581
G01 X17.2800 Y33.6550
G00 X17.2800 Y33.6550
G01 F100.00
G01 Z-1.7000
G01 F400.00
G01 X17.2794 Y33.6519
G01 X17.2777 Y33.6493
G01 X17.2751 Y33.6476
G01 X17.2720 Y33.6470
G01 X17.2689 Y33.6476
G01 X17.2663 Y33.6493
G01 X17.2646 Y33.6519
G01 X17.2640 Y33.6550
G01 X17.2646 Y33.6581
G01 X17.2663 Y33.6607
G01 X17.2689 Y33.6624
G01 X17.2720 Y33.6630
G01 X17.2751 Y33.6624
G01 X17.2777 Y33.6607
G01 X17.2794 Y33.6581
G01 X17.2800 Y33.6550
G00 Z3.0000
G00 X16.0100 Y53.9750
G01 F100.00
G01 Z-0.2500
G01 F400.00
G01 X16.0094 Y53.9719
G01 X16.0077 Y53.9693
G01 X16.0051 Y53.9676
G01 X16.0020 Y53.9670
G01 X15.9989 Y53.9676
G01 X15.9963 Y53.9693
G01 X15.9946 Y53.9719
G01 X15.9940 Y53.9750
G01 X15.9946 Y53.9781
G01 X15.9963 Y53.9807
G01 X15.9989 Y53.9824
G01 X16.0020 Y53.9830
G01 X16.0051 Y53.9824
G01 X16.0077 Y53.9807
G01 X16.0094 Y53.9781
G01 X16.0100 Y53.9750
G00 X16.0100 Y53.9750
G01 F100.00
G01 Z-0.5000
G01 F400.00
G01 X16.0094 Y53.9719
G01 X16.0077 Y53.9693
G01 X16.0051 Y53.9676
G01 X16.0020 Y53.9670
G01 X15.9989 Y53.9676
G01 X15.9963 Y53.9693
G01 X15.9946 Y53.9719
G01 X15.9940 Y53.9750
G01 X15.9946 Y53.9781
G01 X15.9963 Y53.9807
G01 X15.9989 Y53.9824
G01 X16.0020 Y53.9830
G01 X16.0051 Y53.9824
G01 X16.0077 Y53.9807
G01 X16.0094 Y53.9781
G01 X16.0100 Y53.9750
G00 X16.0100 Y53.9750
G01 F100.00
G01 Z-0.7500
G01 F400.00
G01 X16.0094 Y53.9719
G01 X16.0077 Y53.9693
G01 X16.0051 Y53.9676
G01 X16.0020 Y53.9670
G01 X15.9989 Y53.9676
G01 X15.9963 Y53.9693
G01 X15.9946 Y53.9719
G01 X15.9940 Y53.9750
G01 X15.9946 Y53.9781
G01 X15.9963 Y53.9807
G01 X15.9989 Y53.9824
G01 X16.0020 Y53.9830
G01 X16.0051 Y53.9824
G01 X16.0077 Y53.9807
G01 X16.0094 Y53.9781
G01 X16.0100 Y53.9750
G00 X16.0100 Y53.9750
G01 F100.00
G01 Z-1.0000
G01 F400.00
G01 X16.0094 Y53.9719
G01 X16.0077 Y53.9693
G01 X16.0051 Y53.9676
G01 X16.0020 Y53.9670
G01 X15.9989 Y53.9676
G01 X15.9963 Y53.9693
G01 X15.9946 Y53.9719
G01 X15.9940 Y53.9750
G01 X15.9946 Y53.9781
G01 X15.9963 Y53.9807
G01 X15.9989 Y53.9824
G01 X16.0020 Y53.9830
G01 X16.0051 Y53.9824
G01 X16.0077 Y53.9807
G01 X16.0094 Y53.9781
G01 X16.0100 Y53.9750
G00 X16.0100 Y53.9750
G01 F100.00
G01 Z-1.2500
G01 F400.00
G01 X16.0094 Y53.9719
G01 X16.0077 Y53.9693
G01 X16.0051 Y53.9676
G01 X16.0020 Y53.9670
G01 X15.9989 Y53.9676
G01 X15.9963 Y53.9693
G01 X15.9946 Y53.9719
G01 X15.9940 Y53.9750
G01 X15.9946 Y53.9781
G01 X15.9963 Y53.9807
G01 X15.9989 Y53.9824
G01 X16.0020 Y53.9830
G01 X16.0051 Y53.9824
G01 X16.0077 Y53.9807
G01 X16.0094 Y53.9781
G01 X16.0100 Y53.9750
G00 X16.0100 Y53.9750
G01 F100.00
G01 Z-1.5000
G01 F400.00
G01 X16.0094 Y53.9719
G01 X16.0077 Y53.9693
G01 X16.0051 Y53.9676
G01 X16.0020 Y53.9670
G01 X15.9989 Y53.9676
G01 X15.9963 Y53.9693
G01 X15.9946 Y53.9719
G01 X15.9940 Y53.9750
G01 X15.9946 Y53.9781
G01 X15.9963 Y53.9807
G01 X15.9989 Y53.9824
G01 X16.0020 Y53.9830
G01 X16.0051 Y53.9824
G01 X16.0077 Y53.9807
G01 X16.0094 Y53.9781
G01 X16.0100 Y53.9750
G00 X16.0100 Y53.9750
G01 F100.00
G01 Z-1.7000
G01 F400.00
G01 X16.0094 Y53.9719
G01 X16.0077 Y53.9693
G01 X16.0051 Y53.9676
G01 X16.0020 Y53.9670
G01 X15.9989 Y53.9676
G01 X15.9963 Y53.9693
G01 X15.9946 Y53.9719
G01 X15.9940 Y53.9750
G01 X15.9946 Y53.9781
G01 X15.9963 Y53.9807
G01 X15.9989 Y53.9824
G01 X16.0020 Y53.9830
G01 X16.0051 Y53.9824
G01 X16.0077 Y53.9807
G01 X16.0094 Y53.9781
G01 X16.0100 Y53.9750
G00 Z3.0000
G00 X20.4550 Y53.9750
G01 F100.00
G01 Z-0.2500
G01 F400.00
G01 X20.4519 Y53.9120
G01 X20.4426 Y53.8496
G01 X20.4273 Y53.7883
G01 X20.4061 Y53.7289
G01 X20.3791 Y53.6719
G01 X20.3466 Y53.6178
G01 X20.3090 Y53.5671
G01 X20.2667 Y53.5203
G01 X20.2199 Y53.4780
G01 X20.1692 Y53.4404
G01 X20.1151 Y53.4079
G01 X20.0581 Y53.3809
G01 X19.9987 Y53.3597
G01 X19.9374 Y53.3444
G01 X19.8750 Y53.3351
G01 X19.8120 Y53.3320
G01 X19.7490 Y53.3351
G01 X19.6866 Y53.3444
G01 X19.6253 Y53.3597
G01 X19.5659 Y53.3809
G01 X19.5089 Y53.4079
G01 X19.4548 Y53.4404
G01 X19.4041 Y53.4780
G01 X19.3573 Y53.5203
G01 X19.3150 Y53.5671
G01 X19.2774 Y53.6178
G01 X19.2449 Y53.6719
G01 X19.2179 Y53.7289
G01 X19.1967 Y53.7883
G01 X19.1814 Y53.8496
G01 X19.1721 Y53.9120
G01 X19.1690 Y53.9750
G01 X19.1721 Y54.0380
G01 X19.1814 Y54.1004
G01 X19.1967 Y54.1617
G01 X19.2179 Y54.2211
G01 X19.2449 Y54.2781
G01 X19.2774 Y54.3322
G01 X19.3150 Y54.3829
G01 X19.3573 Y54.4297
G01 X19.4041 Y54.4720
G01 X19.4548 Y54.5096
G01 X19.5089 Y54.5421
G01 X19.5659 Y54.5691
G01 X19.6253 Y54.5903
G01 X19.6866 Y54.6056
G01 X19.7490 Y54.6149
G01 X19.8120 Y54.6180
G01 X19.8750 Y54.6149
G01 X19.9374 Y54.6056
G01 X19.9987 Y54.5903
G01 X20.0581 Y54.5691
G01 X20.1151 Y54.5421
G01 X20.1692 Y54.5096
G01 X20.2199 Y54.4720
G01 X20.2667 Y54.4297
G01 X20.3090 Y54.3829
G01 X20.3466 Y54.3322
G01 X20.3791 Y54.2781
G01 X20.4061 Y54.2211
G01 X20.4273 Y54.1617
G01 X20.4426 Y54.1004
G01 X20.4519 Y54.0380
G01 X20.4550 Y53.9750
G00 X20.4550 Y53.9750
G01 F100.00
G01 Z-0.5000
G01 F400.00
G01 X20.4519 Y53.9120
G01 X20.4426 Y53.8496
G01 X20.4273 Y53.7883
G01 X20.4061 Y53.7289
G01 X20.3791 Y53.6719
G01 X20.3466 Y53.6178
G01 X20.3090 Y53.5671
G01 X20.2667 Y53.5203
G01 X20.2199 Y53.4780
G01 X20.1692 Y53.4404
G01 X20.1151 Y53.4079
G01 X20.0581 Y53.3809
G01 X19.9987 Y53.3597
G01 X19.9374 Y53.3444
G01 X19.8750 Y53.3351
G01 X19.8120 Y53.3320
G01 X19.7490 Y53.3351
G01 X19.6866 Y53.3444
G01 X19.6253 Y53.3597
G01 X19.5659 Y53.3809
G01 X19.5089 Y53.4079
G01 X19.4548 Y53.4404
G01 X19.4041 Y53.4780
G01 X19.3573 Y53.5203
G01 X19.3150 Y53.5671
G01 X19.2774 Y53.6178
G01 X19.2449 Y53.6719
G01 X19.2179 Y53.7289
G01 X19.1967 Y53.7883
G01 X19.1814 Y53.8496
G01 X19.1721 Y53.9120
G01 X19.1690 Y53.9750
G01 X19.1721 Y54.0380
G01 X19.1814 Y54.1004
G01 X19.1967 Y54.1617
G01 X19.2179 Y54.2211
G01 X19.2449 Y54.2781
G01 X19.2774 Y54.3322
G01 X19.3150 Y54.3829
G01 X19.3573 Y54.4297
G01 X19.4041 Y54.4720
G01 X19.4548 Y54.5096
G01 X19.5089 Y54.5421
G01 X19.5659 Y54.5691
G01 X19.6253 Y54.5903
G01 X19.6866 Y54.6056
G01 X19.7490 Y54.6149
G01 X19.8120 Y54.6180
G01 X19.8750 Y54.6149
G01 X19.9374 Y54.6056
G01 X19.9987 Y54.5903
G01 X20.0581 Y54.5691
G01 X20.1151 Y54.5421
G01 X20.1692 Y54.5096
G01 X20.2199 Y54.4720
G01 X20.2667 Y54.4297
G01 X20.3090 Y54.3829
G01 X20.3466 Y54.3322
G01 X20.3791 Y54.2781
G01 X20.4061 Y54.2211
G01 X20.4273 Y54.1617
G01 X20.4426 Y54.1004
G01 X20.4519 Y54.0380
G01 X20.4550 Y53.9750
G00 X20.4550 Y53.9750
G01 F100.00
G01 Z-0.7500
G01 F400.00
G01 X20.4519 Y53.9120
G01 X20.4426 Y53.8496
G01 X20.4273 Y53.7883
G01 X20.4061 Y53.7289
G01 X20.3791 Y53.6719
G01 X20.3466 Y53.6178
G01 X20.3090 Y53.5671
G01 X20.2667 Y53.5203
G01 X20.2199 Y53.4780
G01 X20.1692 Y53.4404
G01 X20.1151 Y53.4079
G01 X20.0581 Y53.3809
G01 X19.9987 Y53.3597
G01 X19.9374 Y53.3444
G01 X19.8750 Y53.3351
G01 X19.8120 Y53.3320
G01 X19.7490 Y53.3351
G01 X19.6866 Y53.3444
G01 X19.6253 Y53.3597
G01 X19.5659 Y53.3809
G01 X19.5089 Y53.4079
G01 X19.4548 Y53.4404
G01 X19.4041 Y53.4780
G01 X19.3573 Y53.5203
G01 X19.3150 Y53.5671
G01 X19.2774 Y53.6178
G01 X19.2449 Y53.6719
G01 X19.2179 Y53.7289
G01 X19.1967 Y53.7883
G01 X19.1814 Y53.8496
G01 X19.1721 Y53.9120
G01 X19.1690 Y53.9750
G01 X19.1721 Y54.0380
G01 X19.1814 Y54.1004
G01 X19.1967 Y54.1617
G01 X19.2179 Y54.2211
G01 X19.2449 Y54.2781
G01 X19.2774 Y54.3322
G01 X19.3150 Y54.3829
G01 X19.3573 Y54.4297
G01 X19.4041 Y54.4720
G01 X19.4548 Y54.5096
G01 X19.5089 Y54.5421
G01 X19.5659 Y54.5691
G01 X19.6253 Y54.5903
G01 X19.6866 Y54.6056
G01 X19.7490 Y54.6149
G01 X19.8120 Y54.6180
G01 X19.8750 Y54.6149
G01 X19.9374 Y54.6056
G01 X19.9987 Y54.5903
G01 X20.0581 Y54.5691
G01 X20.1151 Y54.5421
G01 X20.1692 Y54.5096
G01 X20.2199 Y54.4720
G01 X20.2667 Y54.4297
G01 X20.3090 Y54.3829
G01 X20.3466 Y54.3322
G01 X20.3791 Y54.2781
G01 X20.4061 Y54.2211
G01 X20.4273 Y54.1617
G01 X20.4426 Y54.1004
G01 X20.4519 Y54.0380
G01 X20.4550 Y53.9750
G00 X20.4550 Y53.9750
G01 F100.00
G01 Z-1.0000
G01 F400.00
G01 X20.4519 Y53.9120
G01 X20.4426 Y53.8496
G01 X20.4273 Y53.7883
G01 X20.4061 Y53.7289
G01 X20.3791 Y53.6719
G01 X20.3466 Y53.6178
G01 X20.3090 Y53.5671
G01 X20.2667 Y53.5203
G01 X20.2199 Y53.4780
G01 X20.1692 Y53.4404
G01 X20.1151 Y53.4079
G01 X20.0581 Y53.3809
G01 X19.9987 Y53.3597
G01 X19.9374 Y53.3444
G01 X19.8750 Y53.3351
G01 X19.8120 Y53.3320
G01 X19.7490 Y53.3351
G01 X19.6866 Y53.3444
G01 X19.6253 Y53.3597
G01 X19.5659 Y53.3809
G01 X19.5089 Y53.4079
G01 X19.4548 Y53.4404
G01 X19.4041 Y53.4780
G01 X19.3573 Y53.5203
G01 X19.3150 Y53.5671
G01 X19.2774 Y53.6178
G01 X19.2449 Y53.6719
G01 X19.2179 Y53.7289
G01 X19.1967 Y53.7883
G01 X19.1814 Y53.8496
G01 X19.1721 Y53.9120
G01 X19.1690 Y53.9750
G01 X19.1721 Y54.0380
G01 X19.1814 Y54.1004
G01 X19.1967 Y54.1617
G01 X19.2179 Y54.2211
G01 X19.2449 Y54.2781
G01 X19.2774 Y54.3322
G01 X19.3150 Y54.3829
G01 X19.3573 Y54.4297
G01 X19.4041 Y54.4720
G01 X19.4548 Y54.5096
G01 X19.5089 Y54.5421
G01 X19.5659 Y54.5691
G01 X19.6253 Y54.5903
G01 X19.6866 Y54.6056
G01 X19.7490 Y54.6149
G01 X19.8120 Y54.6180
G01 X19.8750 Y54.6149
G01 X19.9374 Y54.6056
G01 X19.9987 Y54.5903
G01 X20.0581 Y54.5691
G01 X20.1151 Y54.5421
G01 X20.1692 Y54.5096
G01 X20.2199 Y54.4720
G01 X20.2667 Y54.4297
G01 X20.3090 Y54.3829
G01 X20.3466 Y54.3322
G01 X20.3791 Y54.2781
G01 X20.4061 Y54.2211
G01 X20.4273 Y54.1617
G01 X20.4426 Y54.1004
G01 X20.4519 Y54.0380
G01 X20.4550 Y53.9750
G00 X20.4550 Y53.9750
G01 F100.00
G01 Z-1.2500
G01 F400.00
G01 X20.4519 Y53.9120
G01 X20.4426 Y53.8496
G01 X20.4273 Y53.7883
G01 X20.4061 Y53.7289
G01 X20.3791 Y53.6719
G01 X20.3466 Y53.6178
G01 X20.3090 Y53.5671
G01 X20.2667 Y53.5203
G01 X20.2199 Y53.4780
G01 X20.1692 Y53.4404
G01 X20.1151 Y53.4079
G01 X20.0581 Y53.3809
G01 X19.9987 Y53.3597
G01 X19.9374 Y53.3444
G01 X19.8750 Y53.3351
G01 X19.8120 Y53.3320
G01 X19.7490 Y53.3351
G01 X19.6866 Y53.3444
G01 X19.6253 Y53.3597
G01 X19.5659 Y53.3809
G01 X19.5089 Y53.4079
G01 X19.4548 Y53.4404
G01 X19.4041 Y53.4780
G01 X19.3573 Y53.5203
G01 X19.3150 Y53.5671
G01 X19.2774 Y53.6178
G01 X19.2449 Y53.6719
G01 X19.2179 Y53.7289
G01 X19.1967 Y53.7883
G01 X19.1814 Y53.8496
G01 X19.1721 Y53.9120
G01 X19.1690 Y53.9750
G01 X19.1721 Y54.0380
G01 X19.1814 Y54.1004
G01 X19.1967 Y54.1617
G01 X19.2179 Y54.2211
G01 X19.2449 Y54.2781
G01 X19.2774 Y54.3322
G01 X19.3150 Y54.3829
G01 X19.3573 Y54.4297
G01 X19.4041 Y54.4720
G01 X19.4548 Y54.5096
G01 X19.5089 Y54.5421
G01 X19.5659 Y54.5691
G01 X19.6253 Y54.5903
G01 X19.6866 Y54.6056
G01 X19.7490 Y54.6149
G01 X19.8120 Y54.6180
G01 X19.8750 Y54.6149
G01 X19.9374 Y54.6056
G01 X19.9987 Y54.5903
G01 X20.0581 Y54.5691
G01 X20.1151 Y54.5421
G01 X20.1692 Y54.5096
G01 X20.2199 Y54.4720
G01 X20.2667 Y54.4297
G01 X20.3090 Y54.3829
G01 X20.3466 Y54.3322
G01 X20.3791 Y54.2781
G01 X20.4061 Y54.2211
G01 X20.4273 Y54.1617
G01 X20.4426 Y54.1004
G01 X20.4519 Y54.0380
G01 X20.4550 Y53.9750
G00 X20.4550 Y53.9750
G01 F100.00
G01 Z-1.5000
G01 F400.00
G01 X20.4519 Y53.9120
G01 X20.4426 Y53.8496
G01 X20.4273 Y53.7883
G01 X20.4061 Y53.7289
G01 X20.3791 Y53.6719
G01 X20.3466 Y53.6178
G01 X20.3090 Y53.5671
G01 X20.2667 Y53.5203
G01 X20.2199 Y53.4780
G01 X20.1692 Y53.4404
G01 X20.1151 Y53.4079
G01 X20.0581 Y53.3809
G01 X19.9987 Y53.3597
G01 X19.9374 Y53.3444
G01 X19.8750 Y53.3351
G01 X19.8120 Y53.3320
G01 X19.7490 Y53.3351
G01 X19.6866 Y53.3444
G01 X19.6253 Y53.3597
G01 X19.5659 Y53.3809
G01 X19.5089 Y53.4079
G01 X19.4548 Y53.4404
G01 X19.4041 Y53.4780
G01 X19.3573 Y53.5203
G01 X19.3150 Y53.5671
G01 X19.2774 Y53.6178
G01 X19.2449 Y53.6719
G01 X19.2179 Y53.7289
G01 X19.1967 Y53.7883
G01 X19.1814 Y53.8496
G01 X19.1721 Y53.9120
G01 X19.1690 Y53.9750
G01 X19.1721 Y54.0380
G01 X19.1814 Y54.1004
G01 X19.1967 Y54.1617
G01 X19.2179 Y54.2211
G01 X19.2449 Y54.2781
G01 X19.2774 Y54.3322
G01 X19.3150 Y54.3829
G01 X19.3573 Y54.4297
G01 X19.4041 Y54.4720
G01 X19.4548 Y54.5096
G01 X19.5089 Y54.5421
G01 X19.5659 Y54.5691
G01 X19.6253 Y54.5903
G01 X19.6866 Y54.6056
G01 X19.7490 Y54.6149
G01 X19.8120 Y54.6180
G01 X19.8750 Y54.6149
G01 X19.9374 Y54.6056
G01 X19.9987 Y54.5903
G01 X20.0581 Y54.5691
G01 X20.1151 Y54.5421
G01 X20.1692 Y54.5096
G01 X20.2199 Y54.4720
G01 X20.2667 Y54.4297
G01 X20.3090 Y54.3829
G01 X20.3466 Y54.3322
G01 X20.3791 Y54.2781
G01 X20.4061 Y54.2211
G01 X20.4273 Y54.1617
G01 X20.4426 Y54.1004
G01 X20.4519 Y54.0380
G01 X20.4550 Y53.9750
G00 X20.4550 Y53.9750
G01 F100.00
G01 Z-1.7000
G01 F400.00
G01 X20.4519 Y53.9120
G01 X20.4426 Y53.8496
G01 X20.4273 Y53.7883
G01 X20.4061 Y53.7289
G01 X20.3791 Y53.6719
G01 X20.3466 Y53.6178
G01 X20.3090 Y53.5671
G01 X20.2667 Y53.5203
G01 X20.2199 Y53.4780
G01 X20.1692 Y53.4404
G01 X20.1151 Y53.4079
G01 X20.0581 Y53.3809
G01 X19.9987 Y53.3597
G01 X19.9374 Y53.3444
G01 X19.8750 Y53.3351
G01 X19.8120 Y53.3320
G01 X19.7490 Y53.3351
G01 X19.6866 Y53.3444
G01 X19.6253 Y53.3597
G01 X19.5659 Y53.3809
G01 X19.5089 Y53.4079
G01 X19.4548 Y53.4404
G01 X19.4041 Y53.4780
G01 X19.3573 Y53.5203
G01 X19.3150 Y53.5671
G01 X19.2774 Y53.6178
G01 X19.2449 Y53.6719
G01 X19.2179 Y53.7289
G01 X19.1967 Y53.7883
G01 X19.1814 Y53.8496
G01 X19.1721 Y53.9120
G01 X19.1690 Y53.9750
G01 X19.1721 Y54.0380
G01 X19.1814 Y54.1004
G01 X19.1967 Y54.1617
G01 X19.2179 Y54.2211
G01 X19.2449 Y54.2781
G01 X19.2774 Y54.3322
G01 X19.3150 Y54.3829
G01 X19.3573 Y54.4297
G01 X19.4041 Y54.4720
G01 X19.4548 Y54.5096
G01 X19.5089 Y54.5421
G01 X19.5659 Y54.5691
G01 X19.6253 Y54.5903
G01 X19.6866 Y54.6056
G01 X19.7490 Y54.6149
G01 X19.8120 Y54.6180
G01 X19.8750 Y54.6149
G01 X19.9374 Y54.6056
G01 X19.9987 Y54.5903
G01 X20.0581 Y54.5691
G01 X20.1151 Y54.5421
G01 X20.1692 Y54.5096
G01 X20.2199 Y54.4720
G01 X20.2667 Y54.4297
G01 X20.3090 Y54.3829
G01 X20.3466 Y54.3322
G01 X20.3791 Y54.2781
G01 X20.4061 Y54.2211
G01 X20.4273 Y54.1617
G01 X20.4426 Y54.1004
G01 X20.4519 Y54.0380
G01 X20.4550 Y53.9750
G00 Z3.0000
G00 X8.3900 Y53.9750
G01 F100.00
G01 Z-0.2500
G01 F400.00
G01 X8.3894 Y53.9719
G01 X8.3877 Y53.9693
G01 X8.3851 Y53.9676
G01 X8.3820 Y53.9670
G01 X8.3789 Y53.9676
G01 X8.3763 Y53.9693
G01 X8.3746 Y53.9719
G01 X8.3740 Y53.9750
G01 X8.3746 Y53.9781
G01 X8.3763 Y53.9807
G01 X8.3789 Y53.9824
G01 X8.3820 Y53.9830
G01 X8.3851 Y53.9824
G01 X8.3877 Y53.9807
G01 X8.3894 Y53.9781
G01 X8.3900 Y53.9750
G00 X8.3900 Y53.9750
G01 F100.00
G01 Z-0.5000
G01 F400.00
G01 X8.3894 Y53.9719
G01 X8.3877 Y53.9693
G01 X8.3851 Y53.9676
G01 X8.3820 Y53.9670
G01 X8.3789 Y53.9676
G01 X8.3763 Y53.9693
G01 X8.3746 Y53.9719
G01 X8.3740 Y53.9750
G01 X8.3746 Y53.9781
G01 X8.3763 Y53.9807
G01 X8.3789 Y53.9824
G01 X8.3820 Y53.9830
G01 X8.3851 Y53.9824
G01 X8.3877 Y53.9807
G01 X8.3894 Y53.9781
G01 X8.3900 Y53.9750
G00 X8.3900 Y53.9750
G01 F100.00
G01 Z-0.7500
G01 F400.00
G01 X8.3894 Y53.9719
G01 X8.3877 Y53.9693
G01 X8.3851 Y53.9676
G01 X8.3820 Y53.9670
G01 X8.3789 Y53.9676
G01 X8.3763 Y53.9693
G01 X8.3746 Y53.9719
G01 X8.3740 Y53.9750
G01 X8.3746 Y53.9781
G01 X8.3763 Y53.9807
G01 X8.3789 Y53.9824
G01 X8.3820 Y53.9830
G01 X8.3851 Y53.9824
G01 X8.3877 Y53.9807
G01 X8.3894 Y53.9781
G01 X8.3900 Y53.9750
G00 X8.3900 Y53.9750
G01 F100.00
G01 Z-1.0000
G01 F400.00
G01 X8.3894 Y53.9719
G01 X8.3877 Y53.9693
G01 X8.3851 Y53.9676
G01 X8.3820 Y53.9670
G01 X8.3789 Y53.9676
G01 X8.3763 Y53.9693
G01 X8.3746 Y53.9719
G01 X8.3740 Y53.9750
G01 X8.3746 Y53.9781
G01 X8.3763 Y53.9807
G01 X8.3789 Y53.9824
G01 X8.3820 Y53.9830
G01 X8.3851 Y53.9824
G01 X8.3877 Y53.9807
G01 X8.3894 Y53.9781
G01 X8.3900 Y53.9750
G00 X8.3900 Y53.9750
G01 F100.00
G01 Z-1.2500
G01 F400.00
G01 X8.3894 Y53.9719
G01 X8.3877 Y53.9693
G01 X8.3851 Y53.9676
G01 X8.3820 Y53.9670
G01 X8.3789 Y53.9676
G01 X8.3763 Y53.9693
G01 X8.3746 Y53.9719
G01 X8.3740 Y53.9750
G01 X8.3746 Y53.9781
G01 X8.3763 Y53.9807
G01 X8.3789 Y53.9824
G01 X8.3820 Y53.9830
G01 X8.3851 Y53.9824
G01 X8.3877 Y53.9807
G01 X8.3894 Y53.9781
G01 X8.3900 Y53.9750
G00 X8.3900 Y53.9750
G01 F100.00
G01 Z-1.5000
G01 F400.00
G01 X8.3894 Y53.9719
G01 X8.3877 Y53.9693
G01 X8.3851 Y53.9676
G01 X8.3820 Y53.9670
G01 X8.3789 Y53.9676
G01 X8.3763 Y53.9693
G01 X8.3746 Y53.9719
G01 X8.3740 Y53.9750
G01 X8.3746 Y53.9781
G01 X8.3763 Y53.9807
G01 X8.3789 Y53.9824
G01 X8.3820 Y53.9830
G01 X8.3851 Y53.9824
G01 X8.3877 Y53.9807
G01 X8.3894 Y53.9781
G01 X8.3900 Y53.9750
G00 X8.3900 Y53.9750
G01 F100.00
G01 Z-1.7000
G01 F400.00
G01 X8.3894 Y53.9719
G01 X8.3877 Y53.9693
G01 X8.3851 Y53.9676
G01 X8.3820 Y53.9670
G01 X8.3789 Y53.9676
G01 X8.3763 Y53.9693
G01 X8.3746 Y53.9719
G01 X8.3740 Y53.9750
G01 X8.3746 Y53.9781
G01 X8.3763 Y53.9807
G01 X8.3789 Y53.9824
G01 X8.3820 Y53.9830
G01 X8.3851 Y53.9824
G01 X8.3877 Y53.9807
G01 X8.3894 Y53.9781
G01 X8.3900 Y53.9750
G00 Z3.0000
G00 X5.2150 Y53.9750
G01 F100.00
G01 Z-0.2500
G01 F400.00
G01 X5.2119 Y53.9120
G01 X5.2026 Y53.8496
G01 X5.1873 Y53.7883
G01 X5.1661 Y53.7289
G01 X5.1391 Y53.6719
G01 X5.1066 Y53.6178
G01 X5.0690 Y53.5671
G01 X5.0267 Y53.5203
G01 X4.9799 Y53.4780
G01 X4.9292 Y53.4404
G01 X4.8751 Y53.4079
G01 X4.8181 Y53.3809
G01 X4.7587 Y53.3597
G01 X4.6974 Y53.3444
G01 X4.6350 Y53.3351
G01 X4.5720 Y53.3320
G01 X4.5090 Y53.3351
G01 X4.4466 Y53.3444
G01 X4.3853 Y53.3597
G01 X4.3259 Y53.3809
G01 X4.2689 Y53.4079
G01 X4.2148 Y53.4404
G01 X4.1641 Y53.4780
G01 X4.1173 Y53.5203
G01 X4.0750 Y53.5671
G01 X4.0374 Y53.6178
G01 X4.0049 Y53.6719
G01 X3.9779 Y53.7289
G01 X3.9567 Y53.7883
G01 X3.9414 Y53.8496
G01 X3.9321 Y53.9120
G01 X3.9290 Y53.9750
G01 X3.9321 Y54.0380
G01 X3.9414 Y54.1004
G01 X3.9567 Y54.1617
G01 X3.9779 Y54.2211
G01 X4.0049 Y54.2781
G01 X4.0374 Y54.3322
G01 X4.0750 Y54.3829
G01 X4.1173 Y54.4297
G01 X4.1641 Y54.4720
G01 X4.2148 Y54.5096
G01 X4.2689 Y54.5421
G01 X4.3259 Y54.5691
G01 X4.3853 Y54.5903
G01 X4.4466 Y54.6056
G01 X4.5090 Y54.6149
G01 X4.5720 Y54.6180
G01 X4.6350 Y54.6149
G01 X4.6974 Y54.6056
G01 X4.7587 Y54.5903
G01 X4.8181 Y54.5691
G01 X4.8751 Y54.5421
G01 X4.9292 Y54.5096
G01 X4.9799 Y54.4720
G01 X5.0267 Y54.4297
G01 X5.0690 Y54.3829
G01 X5.1066 Y54.3322
G01 X5.1391 Y54.2781
G01 X5.1661 Y54.2211
G01 X5.1873 Y54.1617
G01 X5.2026 Y54.1004
G01 X5.2119 Y54.0380
G01 X5.2150 Y53.9750
G00 X5.2150 Y53.9750
G01 F100.00
G01 Z-0.5000
G01 F400.00
G01 X5.2119 Y53.9120
G01 X5.2026 Y53.8496
G01 X5.1873 Y53.7883
G01 X5.1661 Y53.7289
G01 X5.1391 Y53.6719
G01 X5.1066 Y53.6178
G01 X5.0690 Y53.5671
G01 X5.0267 Y53.5203
G01 X4.9799 Y53.4780
G01 X4.9292 Y53.4404
G01 X4.8751 Y53.4079
G01 X4.8181 Y53.3809
G01 X4.7587 Y53.3597
G01 X4.6974 Y53.3444
G01 X4.6350 Y53.3351
G01 X4.5720 Y53.3320
G01 X4.5090 Y53.3351
G01 X4.4466 Y53.3444
G01 X4.3853 Y53.3597
G01 X4.3259 Y53.3809
G01 X4.2689 Y53.4079
G01 X4.2148 Y53.4404
G01 X4.1641 Y53.4780
G01 X4.1173 Y53.5203
G01 X4.0750 Y53.5671
G01 X4.0374 Y53.6178
G01 X4.0049 Y53.6719
G01 X3.9779 Y53.7289
G01 X3.9567 Y53.7883
G01 X3.9414 Y53.8496
G01 X3.9321 Y53.9120
G01 X3.9290 Y53.9750
G01 X3.9321 Y54.0380
G01 X3.9414 Y54.1004
G01 X3.9567 Y54.1617
G01 X3.9779 Y54.2211
G01 X4.0049 Y54.2781
G01 X4.0374 Y54.3322
G01 X4.0750 Y54.3829
G01 X4.1173 Y54.4297
G01 X4.1641 Y54.4720
G01 X4.2148 Y54.5096
G01 X4.2689 Y54.5421
G01 X4.3259 Y54.5691
G01 X4.3853 Y54.5903
G01 X4.4466 Y54.6056
G01 X4.5090 Y54.6149
G01 X4.5720 Y54.6180
G01 X4.6350 Y54.6149
G01 X4.6974 Y54.6056
G01 X4.7587 Y54.5903
G01 X4.8181 Y54.5691
G01 X4.8751 Y54.5421
G01 X4.9292 Y54.5096
G01 X4.9799 Y54.4720
G01 X5.0267 Y54.4297
G01 X5.0690 Y54.3829
G01 X5.1066 Y54.3322
G01 X5.1391 Y54.2781
G01 X5.1661 Y54.2211
G01 X5.1873 Y54.1617
G01 X5.2026 Y54.1004
G01 X5.2119 Y54.0380
G01 X5.2150 Y53.9750
G00 X5.2150 Y53.9750
G01 F100.00
G01 Z-0.7500
G01 F400.00
G01 X5.2119 Y53.9120
G01 X5.2026 Y53.8496
G01 X5.1873 Y53.7883
G01 X5.1661 Y53.7289
G01 X5.1391 Y53.6719
G01 X5.1066 Y53.6178
G01 X5.0690 Y53.5671
G01 X5.0267 Y53.5203
G01 X4.9799 Y53.4780
G01 X4.9292 Y53.4404
G01 X4.8751 Y53.4079
G01 X4.8181 Y53.3809
G01 X4.7587 Y53.3597
G01 X4.6974 Y53.3444
G01 X4.6350 Y53.3351
G01 X4.5720 Y53.3320
G01 X4.5090 Y53.3351
G01 X4.4466 Y53.3444
G01 X4.3853 Y53.3597
G01 X4.3259 Y53.3809
G01 X4.2689 Y53.4079
G01 X4.2148 Y53.4404
G01 X4.1641 Y53.4780
G01 X4.1173 Y53.5203
G01 X4.0750 Y53.5671
G01 X4.0374 Y53.6178
G01 X4.0049 Y53.6719
G01 X3.9779 Y53.7289
G01 X3.9567 Y53.7883
G01 X3.9414 Y53.8496
G01 X3.9321 Y53.9120
G01 X3.9290 Y53.9750
G01 X3.9321 Y54.0380
G01 X3.9414 Y54.1004
G01 X3.9567 Y54.1617
G01 X3.9779 Y54.2211
G01 X4.0049 Y54.2781
G01 X4.0374 Y54.3322
G01 X4.0750 Y54.3829
G01 X4.1173 Y54.4297
G01 X4.1641 Y54.4720
G01 X4.2148 Y54.5096
G01 X4.2689 Y54.5421
G01 X4.3259 Y54.5691
G01 X4.3853 Y54.5903
G01 X4.4466 Y54.6056
G01 X4.5090 Y54.6149
G01 X4.5720 Y54.6180
G01 X4.6350 Y54.6149
G01 X4.6974 Y54.6056
G01 X4.7587 Y54.5903
G01 X4.8181 Y54.5691
G01 X4.8751 Y54.5421
G01 X4.9292 Y54.5096
G01 X4.9799 Y54.4720
G01 X5.0267 Y54.4297
G01 X5.0690 Y54.3829
G01 X5.1066 Y54.3322
G01 X5.1391 Y54.2781
G01 X5.1661 Y54.2211
G01 X5.1873 Y54.1617
G01 X5.2026 Y54.1004
G01 X5.2119 Y54.0380
G01 X5.2150 Y53.9750
G00 X5.2150 Y53.9750
G01 F100.00
G01 Z-1.0000
G01 F400.00
G01 X5.2119 Y53.9120
G01 X5.2026 Y53.8496
G01 X5.1873 Y53.7883
G01 X5.1661 Y53.7289
G01 X5.1391 Y53.6719
G01 X5.1066 Y53.6178
G01 X5.0690 Y53.5671
G01 X5.0267 Y53.5203
G01 X4.9799 Y53.4780
G01 X4.9292 Y53.4404
G01 X4.8751 Y53.4079
G01 X4.8181 Y53.3809
G01 X4.7587 Y53.3597
G01 X4.6974 Y53.3444
G01 X4.6350 Y53.3351
G01 X4.5720 Y53.3320
G01 X4.5090 Y53.3351
G01 X4.4466 Y53.3444
G01 X4.3853 Y53.3597
G01 X4.3259 Y53.3809
G01 X4.2689 Y53.4079
G01 X4.2148 Y53.4404
G01 X4.1641 Y53.4780
G01 X4.1173 Y53.5203
G01 X4.0750 Y53.5671
G01 X4.0374 Y53.6178
G01 X4.0049 Y53.6719
G01 X3.9779 Y53.7289
G01 X3.9567 Y53.7883
G01 X3.9414 Y53.8496
G01 X3.9321 Y53.9120
G01 X3.9290 Y53.9750
G01 X3.9321 Y54.0380
G01 X3.9414 Y54.1004
G01 X3.9567 Y54.1617
G01 X3.9779 Y54.2211
G01 X4.0049 Y54.2781
G01 X4.0374 Y54.3322
G01 X4.0750 Y54.3829
G01 X4.1173 Y54.4297
G01 X4.1641 Y54.4720
G01 X4.2148 Y54.5096
G01 X4.2689 Y54.5421
G01 X4.3259 Y54.5691
G01 X4.3853 Y54.5903
G01 X4.4466 Y54.6056
G01 X4.5090 Y54.6149
G01 X4.5720 Y54.6180
G01 X4.6350 Y54.6149
G01 X4.6974 Y54.6056
G01 X4.7587 Y54.5903
G01 X4.8181 Y54.5691
G01 X4.8751 Y54.5421
G01 X4.9292 Y54.5096
G01 X4.9799 Y54.4720
G01 X5.0267 Y54.4297
G01 X5.0690 Y54.3829
G01 X5.1066 Y54.3322
G01 X5.1391 Y54.2781
G01 X5.1661 Y54.2211
G01 X5.1873 Y54.1617
G01 X5.2026 Y54.1004
G01 X5.2119 Y54.0380
G01 X5.2150 Y53.9750
G00 X5.2150 Y53.9750
G01 F100.00
G01 Z-1.2500
G01 F400.00
G01 X5.2119 Y53.9120
G01 X5.2026 Y53.8496
G01 X5.1873 Y53.7883
G01 X5.1661 Y53.7289
G01 X5.1391 Y53.6719
G01 X5.1066 Y53.6178
G01 X5.0690 Y53.5671
G01 X5.0267 Y53.5203
G01 X4.9799 Y53.4780
G01 X4.9292 Y53.4404
G01 X4.8751 Y53.4079
G01 X4.8181 Y53.3809
G01 X4.7587 Y53.3597
G01 X4.6974 Y53.3444
G01 X4.6350 Y53.3351
G01 X4.5720 Y53.3320
G01 X4.5090 Y53.3351
G01 X4.4466 Y53.3444
G01 X4.3853 Y53.3597
G01 X4.3259 Y53.3809
G01 X4.2689 Y53.4079
G01 X4.2148 Y53.4404
G01 X4.1641 Y53.4780
G01 X4.1173 Y53.5203
G01 X4.0750 Y53.5671
G01 X4.0374 Y53.6178
G01 X4.0049 Y53.6719
G01 X3.9779 Y53.7289
G01 X3.9567 Y53.7883
G01 X3.9414 Y53.8496
G01 X3.9321 Y53.9120
G01 X3.9290 Y53.9750
G01 X3.9321 Y54.0380
G01 X3.9414 Y54.1004
G01 X3.9567 Y54.1617
G01 X3.9779 Y54.2211
G01 X4.0049 Y54.2781
G01 X4.0374 Y54.3322
G01 X4.0750 Y54.3829
G01 X4.1173 Y54.4297
G01 X4.1641 Y54.4720
G01 X4.2148 Y54.5096
G01 X4.2689 Y54.5421
G01 X4.3259 Y54.5691
G01 X4.3853 Y54.5903
G01 X4.4466 Y54.6056
G01 X4.5090 Y54.6149
G01 X4.5720 Y54.6180
G01 X4.6350 Y54.6149
G01 X4.6974 Y54.6056
G01 X4.7587 Y54.5903
G01 X4.8181 Y54.5691
G01 X4.8751 Y54.5421
G01 X4.9292 Y54.5096
G01 X4.9799 Y54.4720
G01 X5.0267 Y54.4297
G01 X5.0690 Y54.3829
G01 X5.1066 Y54.3322
G01 X5.1391 Y54.2781
G01 X5.1661 Y54.2211
G01 X5.1873 Y54.1617
G01 X5.2026 Y54.1004
G01 X5.2119 Y54.0380
G01 X5.2150 Y53.9750
G00 X5.2150 Y53.9750
G01 F100.00
G01 Z-1.5000
G01 F400.00
G01 X5.2119 Y53.9120
G01 X5.2026 Y53.8496
G01 X5.1873 Y53.7883
G01 X5.1661 Y53.7289
G01 X5.1391 Y53.6719
G01 X5.1066 Y53.6178
G01 X5.0690 Y53.5671
G01 X5.0267 Y53.5203
G01 X4.9799 Y53.4780
G01 X4.9292 Y53.4404
G01 X4.8751 Y53.4079
G01 X4.8181 Y53.3809
G01 X4.7587 Y53.3597
G01 X4.6974 Y53.3444
G01 X4.6350 Y53.3351
G01 X4.5720 Y53.3320
G01 X4.5090 Y53.3351
G01 X4.4466 Y53.3444
G01 X4.3853 Y53.3597
G01 X4.3259 Y53.3809
G01 X4.2689 Y53.4079
G01 X4.2148 Y53.4404
G01 X4.1641 Y53.4780
G01 X4.1173 Y53.5203
G01 X4.0750 Y53.5671
G01 X4.0374 Y53.6178
G01 X4.0049 Y53.6719
G01 X3.9779 Y53.7289
G01 X3.9567 Y53.7883
G01 X3.9414 Y53.8496
G01 X3.9321 Y53.9120
G01 X3.9290 Y53.9750
G01 X3.9321 Y54.0380
G01 X3.9414 Y54.1004
G01 X3.9567 Y54.1617
G01 X3.9779 Y54.2211
G01 X4.0049 Y54.2781
G01 X4.0374 Y54.3322
G01 X4.0750 Y54.3829
G01 X4.1173 Y54.4297
G01 X4.1641 Y54.4720
G01 X4.2148 Y54.5096
G01 X4.2689 Y54.5421
G01 X4.3259 Y54.5691
G01 X4.3853 Y54.5903
G01 X4.4466 Y54.6056
G01 X4.5090 Y54.6149
G01 X4.5720 Y54.6180
G01 X4.6350 Y54.6149
G01 X4.6974 Y54.6056
G01 X4.7587 Y54.5903
G01 X4.8181 Y54.5691
G01 X4.8751 Y54.5421
G01 X4.9292 Y54.5096
G01 X4.9799 Y54.4720
G01 X5.0267 Y54.4297
G01 X5.0690 Y54.3829
G01 X5.1066 Y54.3322
G01 X5.1391 Y54.2781
G01 X5.1661 Y54.2211
G01 X5.1873 Y54.1617
G01 X5.2026 Y54.1004
G01 X5.2119 Y54.0380
G01 X5.2150 Y53.9750
G00 X5.2150 Y53.9750
G01 F100.00
G01 Z-1.7000
G01 F400.00
G01 X5.2119 Y53.9120
G01 X5.2026 Y53.8496
G01 X5.1873 Y53.7883
G01 X5.1661 Y53.7289
G01 X5.1391 Y53.6719
G01 X5.1066 Y53.6178
G01 X5.0690 Y53.5671
G01 X5.0267 Y53.5203
G01 X4.9799 Y53.4780
G01 X4.9292 Y53.4404
G01 X4.8751 Y53.4079
G01 X4.8181 Y53.3809
G01 X4.7587 Y53.3597
G01 X4.6974 Y53.3444
G01 X4.6350 Y53.3351
G01 X4.5720 Y53.3320
G01 X4.5090 Y53.3351
G01 X4.4466 Y53.3444
G01 X4.3853 Y53.3597
G01 X4.3259 Y53.3809
G01 X4.2689 Y53.4079
G01 X4.2148 Y53.4404
G01 X4.1641 Y53.4780
G01 X4.1173 Y53.5203
G01 X4.0750 Y53.5671
G01 X4.0374 Y53.6178
G01 X4.0049 Y53.6719
G01 X3.9779 Y53.7289
G01 X3.9567 Y53.7883
G01 X3.9414 Y53.8496
G01 X3.9321 Y53.9120
G01 X3.9290 Y53.9750
G01 X3.9321 Y54.0380
G01 X3.9414 Y54.1004
G01 X3.9567 Y54.1617
G01 X3.9779 Y54.2211
G01 X4.0049 Y54.2781
G01 X4.0374 Y54.3322
G01 X4.0750 Y54.3829
G01 X4.1173 Y54.4297
G01 X4.1641 Y54.4720
G01 X4.2148 Y54.5096
G01 X4.2689 Y54.5421
G01 X4.3259 Y54.5691
G01 X4.3853 Y54.5903
G01 X4.4466 Y54.6056
G01 X4.5090 Y54.6149
G01 X4.5720 Y54.6180
G01 X4.6350 Y54.6149
G01 X4.6974 Y54.6056
G01 X4.7587 Y54.5903
G01 X4.8181 Y54.5691
G01 X4.8751 Y54.5421
G01 X4.9292 Y54.5096
G01 X4.9799 Y54.4720
G01 X5.0267 Y54.4297
G01 X5.0690 Y54.3829
G01 X5.1066 Y54.3322
G01 X5.1391 Y54.2781
G01 X5.1661 Y54.2211
G01 X5.1873 Y54.1617
G01 X5.2026 Y54.1004
G01 X5.2119 Y54.0380
G01 X5.2150 Y53.9750
G00 Z3.0000
M05
G00 Z3.0000
G00 Z15.00


