(G-CODE GENERATED BY FLATCAM v8.994 - www.flatcam.org - Version Date: 2020/11/7)

(Name: copper_top.gbr_iso_combined_cnc)
(Type: G-code from Geometry)
(Units: MM)

(Created on Saturday, 02 April 2022 at 15:42)


G01 F350.00

M5
G00 Z15.0000
G00 X0.0000 Y0.0000
T1
M6    
(MSG, Change to Tool Dia = 0.5080)
M0
G00 Z15.0000

M03 S29000.0
G01 F350.00
G00 X7.8865 Y7.5581
G01 F100.00
G01 Z-0.2500
G01 F350.00
G01 X7.8538 Y7.5036
G01 X7.8375 Y7.4756
G01 X7.8219 Y7.4472
G01 X7.8069 Y7.4185
G01 X7.7927 Y7.3893
G01 X7.7611 Y7.3224
G01 X7.7476 Y7.2929
G01 X7.7348 Y7.2631
G01 X7.7227 Y7.2330
G01 X7.7115 Y7.2027
G01 X7.6865 Y7.1329
G01 X7.6760 Y7.1023
G01 X7.6662 Y7.0714
G01 X7.6572 Y7.0403
G01 X7.6489 Y7.0089
G01 X7.6309 Y6.9371
G01 X7.6234 Y6.9056
G01 X7.6167 Y6.8738
G01 X7.6108 Y6.8420
G01 X7.6056 Y6.8100
G01 X7.5948 Y6.7367
G01 X7.5904 Y6.7046
G01 X7.5868 Y6.6724
G01 X7.5840 Y6.6401
G01 X7.5820 Y6.6078
G01 X7.5784 Y6.5338
G01 X7.5772 Y6.5014
G01 X7.5768 Y6.4690
G01 X7.5768 Y4.9610
G01 X7.5772 Y4.9286
G01 X7.5784 Y4.8962
G01 X7.5820 Y4.8222
G01 X7.5840 Y4.7899
G01 X7.5868 Y4.7576
G01 X7.5904 Y4.7254
G01 X7.5948 Y4.6933
G01 X7.6056 Y4.6200
G01 X7.6108 Y4.5880
G01 X7.6167 Y4.5562
G01 X7.6234 Y4.5244
G01 X7.6309 Y4.4929
G01 X7.6489 Y4.4211
G01 X7.6572 Y4.3897
G01 X7.6662 Y4.3586
G01 X7.6760 Y4.3277
G01 X7.6865 Y4.2971
G01 X7.7115 Y4.2273
G01 X7.7227 Y4.1970
G01 X7.7348 Y4.1669
G01 X7.7476 Y4.1371
G01 X7.7611 Y4.1076
G01 X7.7927 Y4.0407
G01 X7.8069 Y4.0115
G01 X7.8219 Y3.9828
G01 X7.8375 Y3.9544
G01 X7.8538 Y3.9264
G01 X7.8919 Y3.8629
G01 X7.9089 Y3.8353
G01 X7.9266 Y3.8081
G01 X7.9449 Y3.7814
G01 X7.9639 Y3.7551
G01 X8.0080 Y3.6956
G01 X8.0276 Y3.6698
G01 X8.0479 Y3.6445
G01 X8.0687 Y3.6197
G01 X8.0902 Y3.5954
G01 X8.1399 Y3.5406
G01 X8.1620 Y3.5168
G01 X8.1846 Y3.4936
G01 X8.2078 Y3.4710
G01 X8.2316 Y3.4489
G01 X8.2864 Y3.3992
G01 X8.3107 Y3.3777
G01 X8.3355 Y3.3569
G01 X8.3608 Y3.3366
G01 X8.3866 Y3.3170
G01 X8.4461 Y3.2729
G01 X8.4724 Y3.2539
G01 X8.4991 Y3.2356
G01 X8.5263 Y3.2179
G01 X8.5539 Y3.2009
G01 X8.6174 Y3.1628
G01 X8.6454 Y3.1465
G01 X8.6738 Y3.1309
G01 X8.7025 Y3.1159
G01 X8.7317 Y3.1017
G01 X8.7986 Y3.0701
G01 X8.8281 Y3.0566
G01 X8.8579 Y3.0438
G01 X8.8880 Y3.0317
G01 X8.9183 Y3.0205
G01 X8.9881 Y2.9955
G01 X9.0187 Y2.9850
G01 X9.0496 Y2.9752
G01 X9.0807 Y2.9662
G01 X9.1121 Y2.9579
G01 X9.1839 Y2.9399
G01 X9.2154 Y2.9324
G01 X9.2472 Y2.9257
G01 X9.2790 Y2.9198
G01 X9.3110 Y2.9146
G01 X9.3843 Y2.9038
G01 X9.4164 Y2.8994
G01 X9.4486 Y2.8958
G01 X9.4809 Y2.8930
G01 X9.5132 Y2.8910
G01 X9.5872 Y2.8874
G01 X9.6196 Y2.8862
G01 X9.6520 Y2.8858
G01 X9.6844 Y2.8862
G01 X9.7168 Y2.8874
G01 X9.7908 Y2.8910
G01 X9.8231 Y2.8930
G01 X9.8554 Y2.8958
G01 X9.8876 Y2.8994
G01 X9.9197 Y2.9038
G01 X9.9930 Y2.9146
G01 X10.0250 Y2.9198
G01 X10.0568 Y2.9257
G01 X10.0886 Y2.9324
G01 X10.1201 Y2.9399
G01 X10.1919 Y2.9579
G01 X10.2233 Y2.9662
G01 X10.2544 Y2.9752
G01 X10.2853 Y2.9850
G01 X10.3159 Y2.9955
G01 X10.3857 Y3.0205
G01 X10.4160 Y3.0317
G01 X10.4320 Y3.0381
G01 X10.4350 Y3.0019
G01 X10.4386 Y2.9697
G01 X10.4493 Y2.8944
G01 X10.4545 Y2.8624
G01 X10.4604 Y2.8306
G01 X10.4671 Y2.7989
G01 X10.4746 Y2.7673
G01 X10.4935 Y2.6936
G01 X10.5025 Y2.6625
G01 X10.5123 Y2.6316
G01 X10.5375 Y2.5598
G01 X10.5488 Y2.5295
G01 X10.5609 Y2.4994
G01 X10.5736 Y2.4696
G01 X10.5871 Y2.4401
G01 X10.6200 Y2.3715
G01 X10.6349 Y2.3427
G01 X10.6506 Y2.3143
G01 X10.6669 Y2.2863
G01 X10.7063 Y2.2213
G01 X10.7240 Y2.1941
G01 X10.7424 Y2.1674
G01 X10.7873 Y2.1061
G01 X10.8070 Y2.0803
G01 X10.8272 Y2.0550
G01 X10.8481 Y2.0302
G01 X10.8989 Y1.9735
G01 X10.9209 Y1.9498
G01 X10.9436 Y1.9266
G01 X12.2136 Y0.6566
G01 X12.2368 Y0.6339
G01 X12.2929 Y0.5826
G01 X12.3172 Y0.5611
G01 X12.3420 Y0.5402
G01 X12.3673 Y0.5200
G01 X12.3931 Y0.5003
G01 X12.4544 Y0.4554
G01 X12.4811 Y0.4370
G01 X12.5083 Y0.4193
G01 X12.5635 Y0.3858
G01 X12.6013 Y0.3636
G01 X12.6297 Y0.3479
G01 X12.6585 Y0.3330
G01 X12.7018 Y0.3121
G01 X12.7566 Y0.2866
G01 X12.7864 Y0.2739
G01 X12.8165 Y0.2618
G01 X12.8468 Y0.2505
G01 X12.9186 Y0.2253
G01 X12.9495 Y0.2155
G01 X12.9806 Y0.2065
G01 X13.0543 Y0.1876
G01 X13.0859 Y0.1801
G01 X13.1176 Y0.1734
G01 X13.1494 Y0.1675
G01 X13.1814 Y0.1623
G01 X13.2567 Y0.1516
G01 X13.2889 Y0.1480
G01 X13.3212 Y0.1452
G01 X13.3972 Y0.1411
G01 X13.4296 Y0.1399
G01 X13.4620 Y0.1395
G01 X16.0020 Y0.1395
G01 X16.0344 Y0.1399
G01 X16.0668 Y0.1411
G01 X16.1428 Y0.1452
G01 X16.1751 Y0.1480
G01 X16.2073 Y0.1516
G01 X16.2394 Y0.1559
G01 X16.3146 Y0.1675
G01 X16.3464 Y0.1734
G01 X16.3781 Y0.1801
G01 X16.4097 Y0.1876
G01 X16.4834 Y0.2065
G01 X16.5145 Y0.2155
G01 X16.5454 Y0.2253
G01 X16.5761 Y0.2358
G01 X16.6475 Y0.2618
G01 X16.6776 Y0.2739
G01 X16.7074 Y0.2866
G01 X16.7369 Y0.3001
G01 X16.8055 Y0.3330
G01 X16.8343 Y0.3479
G01 X16.8627 Y0.3636
G01 X16.9281 Y0.4023
G01 X16.9557 Y0.4193
G01 X16.9829 Y0.4370
G01 X17.0096 Y0.4554
G01 X17.0709 Y0.5003
G01 X17.0967 Y0.5200
G01 X17.1220 Y0.5402
G01 X17.1468 Y0.5611
G01 X17.2035 Y0.6119
G01 X17.2272 Y0.6339
G01 X17.2504 Y0.6566
G01 X18.5204 Y1.9266
G01 X18.5431 Y1.9498
G01 X18.5651 Y1.9735
G01 X18.6159 Y2.0302
G01 X18.6368 Y2.0550
G01 X18.6570 Y2.0803
G01 X18.6767 Y2.1061
G01 X18.7216 Y2.1674
G01 X18.7400 Y2.1941
G01 X18.7577 Y2.2213
G01 X18.7971 Y2.2863
G01 X18.8134 Y2.3143
G01 X18.8291 Y2.3427
G01 X18.8440 Y2.3715
G01 X18.8582 Y2.4006
G01 X18.8904 Y2.4696
G01 X18.9031 Y2.4994
G01 X18.9152 Y2.5295
G01 X18.9412 Y2.6009
G01 X18.9517 Y2.6316
G01 X18.9615 Y2.6625
G01 X18.9705 Y2.6936
G01 X18.9788 Y2.7250
G01 X18.9969 Y2.7989
G01 X19.0036 Y2.8306
G01 X19.0095 Y2.8624
G01 X19.0211 Y2.9376
G01 X19.0254 Y2.9697
G01 X19.0290 Y3.0019
G01 X19.0318 Y3.0342
G01 X19.0338 Y3.0666
G01 X19.0371 Y3.1426
G01 X19.0375 Y3.1750
G01 X19.0375 Y9.2652
G01 X19.0575 Y9.2877
G01 X19.0784 Y9.3125
G01 X19.0986 Y9.3379
G01 X19.1183 Y9.3637
G01 X19.1776 Y9.4437
G01 X19.1966 Y9.4700
G01 X19.2150 Y9.4967
G01 X19.2327 Y9.5239
G01 X19.2497 Y9.5515
G01 X19.3009 Y9.6370
G01 X19.3172 Y9.6650
G01 X19.3329 Y9.6934
G01 X19.3478 Y9.7222
G01 X19.3620 Y9.7513
G01 X19.4047 Y9.8415
G01 X19.4181 Y9.8710
G01 X19.4309 Y9.9007
G01 X19.4430 Y9.9308
G01 X19.4543 Y9.9612
G01 X19.4878 Y10.0551
G01 X19.4984 Y10.0858
G01 X19.5082 Y10.1167
G01 X19.5172 Y10.1478
G01 X19.5255 Y10.1791
G01 X19.5497 Y10.2759
G01 X19.5572 Y10.3074
G01 X19.5639 Y10.3391
G01 X19.5698 Y10.3710
G01 X19.5750 Y10.4030
G01 X19.5896 Y10.5016
G01 X19.5940 Y10.5337
G01 X19.5975 Y10.5660
G01 X19.6003 Y10.5983
G01 X19.6023 Y10.6306
G01 X19.6072 Y10.7302
G01 X19.6084 Y10.7626
G01 X19.6088 Y10.7950
G01 X19.6084 Y10.8274
G01 X19.6072 Y10.8598
G01 X19.6023 Y10.9594
G01 X19.6003 Y10.9917
G01 X19.5975 Y11.0240
G01 X19.5940 Y11.0563
G01 X19.5896 Y11.0884
G01 X19.5750 Y11.1870
G01 X19.5698 Y11.2190
G01 X19.5639 Y11.2509
G01 X19.5572 Y11.2826
G01 X19.5497 Y11.3141
G01 X19.5255 Y11.4109
G01 X19.5172 Y11.4422
G01 X19.5082 Y11.4733
G01 X19.4984 Y11.5042
G01 X19.4878 Y11.5349
G01 X19.4543 Y11.6288
G01 X19.4430 Y11.6592
G01 X19.4309 Y11.6893
G01 X19.4181 Y11.7190
G01 X19.4047 Y11.7485
G01 X19.3620 Y11.8387
G01 X19.3478 Y11.8678
G01 X19.3329 Y11.8966
G01 X19.3172 Y11.9250
G01 X19.3009 Y11.9530
G01 X19.2497 Y12.0385
G01 X19.2327 Y12.0661
G01 X19.2150 Y12.0933
G01 X19.1966 Y12.1200
G01 X19.1776 Y12.1463
G01 X19.1183 Y12.2263
G01 X19.0986 Y12.2521
G01 X19.0784 Y12.2775
G01 X19.0575 Y12.3023
G01 X19.0375 Y12.3248
G01 X19.0375 Y17.0815
G01 X19.0579 Y17.1082
G01 X19.0769 Y17.1345
G01 X19.0952 Y17.1612
G01 X19.1129 Y17.1884
G01 X19.1299 Y17.2160
G01 X19.1462 Y17.2440
G01 X19.1618 Y17.2724
G01 X19.1768 Y17.3012
G01 X19.1910 Y17.3303
G01 X19.2045 Y17.3598
G01 X19.2173 Y17.3896
G01 X19.2293 Y17.4197
G01 X19.2406 Y17.4500
G01 X19.2511 Y17.4807
G01 X19.2609 Y17.5116
G01 X19.2700 Y17.5427
G01 X19.2782 Y17.5741
G01 X19.2857 Y17.6056
G01 X19.2924 Y17.6373
G01 X19.2984 Y17.6692
G01 X19.3035 Y17.7012
G01 X19.3079 Y17.7333
G01 X19.3114 Y17.7655
G01 X19.3142 Y17.7978
G01 X19.3162 Y17.8302
G01 X19.3174 Y17.8626
G01 X19.3178 Y17.8950
G01 X19.3178 Y19.9950
G01 X19.3174 Y20.0274
G01 X19.3162 Y20.0598
G01 X19.3142 Y20.0922
G01 X19.3114 Y20.1245
G01 X19.3079 Y20.1567
G01 X19.3035 Y20.1888
G01 X19.2984 Y20.2208
G01 X19.2924 Y20.2527
G01 X19.2857 Y20.2844
G01 X19.2782 Y20.3159
G01 X19.2700 Y20.3473
G01 X19.2609 Y20.3784
G01 X19.2511 Y20.4093
G01 X19.2406 Y20.4400
G01 X19.2293 Y20.4703
G01 X19.2173 Y20.5004
G01 X19.2045 Y20.5302
G01 X19.1910 Y20.5597
G01 X19.1768 Y20.5888
G01 X19.1618 Y20.6176
G01 X19.1462 Y20.6460
G01 X19.1299 Y20.6740
G01 X19.1129 Y20.7016
G01 X19.0952 Y20.7288
G01 X19.0769 Y20.7555
G01 X19.0579 Y20.7818
G01 X19.0382 Y20.8076
G01 X19.0180 Y20.8329
G01 X18.9971 Y20.8577
G01 X18.9756 Y20.8820
G01 X18.9536 Y20.9057
G01 X18.9309 Y20.9289
G01 X18.9077 Y20.9516
G01 X18.8840 Y20.9736
G01 X18.8597 Y20.9951
G01 X18.8349 Y21.0160
G01 X18.8096 Y21.0362
G01 X18.7838 Y21.0559
G01 X18.7575 Y21.0749
G01 X18.7308 Y21.0932
G01 X18.7036 Y21.1109
G01 X18.6760 Y21.1279
G01 X18.6480 Y21.1442
G01 X18.6196 Y21.1598
G01 X18.5908 Y21.1748
G01 X18.5617 Y21.1890
G01 X18.5322 Y21.2025
G01 X18.5024 Y21.2153
G01 X18.4723 Y21.2273
G01 X18.4420 Y21.2386
G01 X18.4113 Y21.2491
G01 X18.3804 Y21.2589
G01 X18.3493 Y21.2680
G01 X18.3179 Y21.2762
G01 X18.2864 Y21.2837
G01 X18.2547 Y21.2904
G01 X18.2228 Y21.2964
G01 X18.1908 Y21.3015
G01 X18.1587 Y21.3059
G01 X18.1265 Y21.3094
G01 X18.0942 Y21.3122
G01 X18.0618 Y21.3142
G01 X18.0294 Y21.3154
G01 X17.9970 Y21.3158
G01 X16.5470 Y21.3158
G01 X16.5146 Y21.3154
G01 X16.4822 Y21.3142
G01 X16.4498 Y21.3122
G01 X16.4175 Y21.3094
G01 X16.3853 Y21.3059
G01 X16.3532 Y21.3015
G01 X16.3212 Y21.2964
G01 X16.2893 Y21.2904
G01 X16.2576 Y21.2837
G01 X16.2261 Y21.2762
G01 X16.1947 Y21.2680
G01 X16.1636 Y21.2589
G01 X16.1327 Y21.2491
G01 X16.1020 Y21.2386
G01 X16.0717 Y21.2273
G01 X16.0416 Y21.2153
G01 X16.0020 Y21.1980
G01 X15.9624 Y21.2153
G01 X15.9323 Y21.2273
G01 X15.9020 Y21.2386
G01 X15.8713 Y21.2491
G01 X15.8404 Y21.2589
G01 X15.8093 Y21.2680
G01 X15.7779 Y21.2762
G01 X15.7464 Y21.2837
G01 X15.7147 Y21.2904
G01 X15.6828 Y21.2964
G01 X15.6508 Y21.3015
G01 X15.6187 Y21.3059
G01 X15.5865 Y21.3094
G01 X15.5542 Y21.3122
G01 X15.5218 Y21.3142
G01 X15.4894 Y21.3154
G01 X15.4570 Y21.3158
G01 X14.0070 Y21.3158
G01 X13.9746 Y21.3154
G01 X13.9422 Y21.3142
G01 X13.9098 Y21.3122
G01 X13.8775 Y21.3094
G01 X13.8453 Y21.3059
G01 X13.8132 Y21.3015
G01 X13.7812 Y21.2964
G01 X13.7493 Y21.2904
G01 X13.7176 Y21.2837
G01 X13.6861 Y21.2762
G01 X13.6547 Y21.2680
G01 X13.6236 Y21.2589
G01 X13.5927 Y21.2491
G01 X13.5620 Y21.2386
G01 X13.5317 Y21.2273
G01 X13.5016 Y21.2153
G01 X13.4620 Y21.1980
G01 X13.4224 Y21.2153
G01 X13.3923 Y21.2273
G01 X13.3620 Y21.2386
G01 X13.3313 Y21.2491
G01 X13.3004 Y21.2589
G01 X13.2693 Y21.2680
G01 X13.2379 Y21.2762
G01 X13.2064 Y21.2837
G01 X13.1747 Y21.2904
G01 X13.1428 Y21.2964
G01 X13.1108 Y21.3015
G01 X13.0787 Y21.3059
G01 X13.0465 Y21.3094
G01 X13.0142 Y21.3122
G01 X12.9818 Y21.3142
G01 X12.9494 Y21.3154
G01 X12.9170 Y21.3158
G01 X11.4670 Y21.3158
G01 X11.4346 Y21.3154
G01 X11.4022 Y21.3142
G01 X11.3698 Y21.3122
G01 X11.3375 Y21.3094
G01 X11.3053 Y21.3059
G01 X11.2732 Y21.3015
G01 X11.2412 Y21.2964
G01 X11.2093 Y21.2904
G01 X11.1776 Y21.2837
G01 X11.1461 Y21.2762
G01 X11.1147 Y21.2680
G01 X11.0836 Y21.2589
G01 X11.0527 Y21.2491
G01 X11.0220 Y21.2386
G01 X10.9917 Y21.2273
G01 X10.9616 Y21.2153
G01 X10.9220 Y21.1980
G01 X10.8824 Y21.2153
G01 X10.8523 Y21.2273
G01 X10.8220 Y21.2386
G01 X10.7913 Y21.2491
G01 X10.7604 Y21.2589
G01 X10.7293 Y21.2680
G01 X10.6979 Y21.2762
G01 X10.6664 Y21.2837
G01 X10.6347 Y21.2904
G01 X10.6028 Y21.2964
G01 X10.5708 Y21.3015
G01 X10.5387 Y21.3059
G01 X10.5065 Y21.3094
G01 X10.4742 Y21.3122
G01 X10.4418 Y21.3142
G01 X10.4094 Y21.3154
G01 X10.3770 Y21.3158
G01 X8.9270 Y21.3158
G01 X8.8946 Y21.3154
G01 X8.8622 Y21.3142
G01 X8.8298 Y21.3122
G01 X8.7975 Y21.3094
G01 X8.7653 Y21.3059
G01 X8.7332 Y21.3015
G01 X8.7012 Y21.2964
G01 X8.6693 Y21.2904
G01 X8.6376 Y21.2837
G01 X8.6061 Y21.2762
G01 X8.5747 Y21.2680
G01 X8.5436 Y21.2589
G01 X8.5127 Y21.2491
G01 X8.4820 Y21.2386
G01 X8.4517 Y21.2273
G01 X8.4216 Y21.2153
G01 X8.3918 Y21.2025
G01 X8.3623 Y21.1890
G01 X8.3332 Y21.1748
G01 X8.3044 Y21.1598
G01 X8.2760 Y21.1442
G01 X8.2480 Y21.1279
G01 X8.2204 Y21.1109
G01 X8.1932 Y21.0932
G01 X8.1665 Y21.0749
G01 X8.1402 Y21.0559
G01 X8.1144 Y21.0362
G01 X8.0891 Y21.0160
G01 X8.0643 Y20.9951
G01 X8.0400 Y20.9736
G01 X8.0163 Y20.9516
G01 X7.9931 Y20.9289
G01 X7.9704 Y20.9057
G01 X7.9484 Y20.8820
G01 X7.9269 Y20.8577
G01 X7.9060 Y20.8329
G01 X7.8858 Y20.8076
G01 X7.8661 Y20.7818
G01 X7.8471 Y20.7555
G01 X7.8288 Y20.7288
G01 X7.8111 Y20.7016
G01 X7.7941 Y20.6740
G01 X7.7778 Y20.6460
G01 X7.7622 Y20.6176
G01 X7.7472 Y20.5888
G01 X7.7330 Y20.5597
G01 X7.7195 Y20.5302
G01 X7.7067 Y20.5004
G01 X7.6947 Y20.4703
G01 X7.6834 Y20.4400
G01 X7.6729 Y20.4093
G01 X7.6631 Y20.3784
G01 X7.6540 Y20.3473
G01 X7.6458 Y20.3159
G01 X7.6383 Y20.2844
G01 X7.6316 Y20.2527
G01 X7.6256 Y20.2208
G01 X7.6205 Y20.1888
G01 X7.6161 Y20.1567
G01 X7.6126 Y20.1245
G01 X7.6098 Y20.0922
G01 X7.6078 Y20.0598
G01 X7.6066 Y20.0274
G01 X7.6063 Y20.0005
G01 X7.5785 Y19.9870
G01 X7.5497 Y19.9721
G01 X7.5213 Y19.9564
G01 X7.4933 Y19.9401
G01 X7.4283 Y19.9007
G01 X7.4011 Y19.8830
G01 X7.3744 Y19.8646
G01 X7.3131 Y19.8197
G01 X7.2873 Y19.8000
G01 X7.2620 Y19.7798
G01 X7.2372 Y19.7589
G01 X7.2129 Y19.7374
G01 X7.1568 Y19.6861
G01 X7.1336 Y19.6634
G01 X5.8636 Y18.3934
G01 X5.8409 Y18.3702
G01 X5.8189 Y18.3465
G01 X5.7681 Y18.2898
G01 X5.7472 Y18.2650
G01 X5.7270 Y18.2397
G01 X5.6814 Y18.1789
G01 X5.6624 Y18.1526
G01 X5.6440 Y18.1259
G01 X5.6263 Y18.0987
G01 X5.5869 Y18.0337
G01 X5.5706 Y18.0057
G01 X5.5549 Y17.9773
G01 X5.5400 Y17.9485
G01 X5.5258 Y17.9194
G01 X5.4936 Y17.8504
G01 X5.4809 Y17.8206
G01 X5.4688 Y17.7905
G01 X5.4575 Y17.7602
G01 X5.4323 Y17.6884
G01 X5.4225 Y17.6575
G01 X5.4135 Y17.6264
G01 X5.4052 Y17.5950
G01 X5.3871 Y17.5211
G01 X5.3804 Y17.4894
G01 X5.3745 Y17.4576
G01 X5.3693 Y17.4256
G01 X5.3586 Y17.3503
G01 X5.3550 Y17.3181
G01 X5.3522 Y17.2858
G01 X5.3502 Y17.2534
G01 X5.3469 Y17.1774
G01 X5.3465 Y17.1450
G01 X5.3465 Y16.1348
G01 X5.3265 Y16.1123
G01 X5.3056 Y16.0875
G01 X5.2854 Y16.0621
G01 X5.2657 Y16.0363
G01 X5.2064 Y15.9563
G01 X5.1874 Y15.9300
G01 X5.1690 Y15.9033
G01 X5.1513 Y15.8761
G01 X5.1343 Y15.8485
G01 X5.0831 Y15.7630
G01 X5.0668 Y15.7350
G01 X5.0511 Y15.7066
G01 X5.0362 Y15.6778
G01 X5.0220 Y15.6487
G01 X4.9793 Y15.5585
G01 X4.9659 Y15.5290
G01 X4.9531 Y15.4993
G01 X4.9410 Y15.4692
G01 X4.9297 Y15.4388
G01 X4.8962 Y15.3449
G01 X4.8856 Y15.3142
G01 X4.8758 Y15.2833
G01 X4.8668 Y15.2522
G01 X4.8585 Y15.2209
G01 X4.8343 Y15.1241
G01 X4.8268 Y15.0926
G01 X4.8201 Y15.0609
G01 X4.8142 Y15.0290
G01 X4.8090 Y14.9970
G01 X4.7944 Y14.8984
G01 X4.7900 Y14.8663
G01 X4.7865 Y14.8340
G01 X4.7837 Y14.8017
G01 X4.7817 Y14.7694
G01 X4.7768 Y14.6698
G01 X4.7756 Y14.6374
G01 X4.7752 Y14.6050
G01 X4.7756 Y14.5726
G01 X4.7768 Y14.5402
G01 X4.7817 Y14.4406
G01 X4.7837 Y14.4083
G01 X4.7865 Y14.3760
G01 X4.7900 Y14.3437
G01 X4.7944 Y14.3116
G01 X4.8090 Y14.2130
G01 X4.8142 Y14.1810
G01 X4.8201 Y14.1491
G01 X4.8268 Y14.1174
G01 X4.8343 Y14.0859
G01 X4.8585 Y13.9891
G01 X4.8668 Y13.9578
G01 X4.8758 Y13.9267
G01 X4.8856 Y13.8958
G01 X4.8962 Y13.8651
G01 X4.9297 Y13.7712
G01 X4.9410 Y13.7408
G01 X4.9531 Y13.7107
G01 X4.9659 Y13.6810
G01 X4.9793 Y13.6515
G01 X5.0220 Y13.5613
G01 X5.0362 Y13.5322
G01 X5.0511 Y13.5034
G01 X5.0668 Y13.4750
G01 X5.0831 Y13.4470
G01 X5.1343 Y13.3615
G01 X5.1513 Y13.3339
G01 X5.1690 Y13.3067
G01 X5.1874 Y13.2800
G01 X5.2064 Y13.2537
G01 X5.2657 Y13.1737
G01 X5.2854 Y13.1479
G01 X5.3056 Y13.1225
G01 X5.3265 Y13.0977
G01 X5.3480 Y13.0735
G01 X5.4149 Y12.9996
G01 X5.4370 Y12.9758
G01 X5.4596 Y12.9526
G01 X5.4828 Y12.9300
G01 X5.5066 Y12.9079
G01 X5.5805 Y12.8410
G01 X5.6047 Y12.8195
G01 X5.6295 Y12.7986
G01 X5.6549 Y12.7784
G01 X5.6807 Y12.7587
G01 X5.7607 Y12.6994
G01 X5.7870 Y12.6804
G01 X5.8137 Y12.6620
G01 X5.8409 Y12.6443
G01 X5.8685 Y12.6273
G01 X5.9540 Y12.5761
G01 X5.9820 Y12.5598
G01 X6.0104 Y12.5441
G01 X6.0392 Y12.5292
G01 X6.0683 Y12.5150
G01 X6.1585 Y12.4723
G01 X6.1880 Y12.4589
G01 X6.2177 Y12.4461
G01 X6.2478 Y12.4340
G01 X6.2782 Y12.4227
G01 X6.3721 Y12.3892
G01 X6.4028 Y12.3786
G01 X6.4337 Y12.3688
G01 X6.4648 Y12.3598
G01 X6.4961 Y12.3515
G01 X6.5929 Y12.3273
G01 X6.6244 Y12.3198
G01 X6.6561 Y12.3131
G01 X6.6880 Y12.3072
G01 X6.7200 Y12.3020
G01 X6.8186 Y12.2874
G01 X6.8507 Y12.2830
G01 X6.8830 Y12.2795
G01 X6.9153 Y12.2767
G01 X6.9476 Y12.2747
G01 X7.0472 Y12.2698
G01 X7.0796 Y12.2686
G01 X7.1120 Y12.2682
G01 X7.1444 Y12.2686
G01 X7.1768 Y12.2698
G01 X7.2764 Y12.2747
G01 X7.3087 Y12.2767
G01 X7.3410 Y12.2795
G01 X7.3733 Y12.2830
G01 X7.4054 Y12.2874
G01 X7.5040 Y12.3020
G01 X7.5360 Y12.3072
G01 X7.5679 Y12.3131
G01 X7.5996 Y12.3198
G01 X7.6311 Y12.3273
G01 X7.7279 Y12.3515
G01 X7.7592 Y12.3598
G01 X7.7903 Y12.3688
G01 X7.8212 Y12.3786
G01 X7.8519 Y12.3892
G01 X7.9458 Y12.4227
G01 X7.9762 Y12.4340
G01 X7.9933 Y12.4409
G01 X7.9770 Y12.4242
G01 X7.9549 Y12.4004
G01 X7.8880 Y12.3265
G01 X7.8665 Y12.3023
G01 X7.8456 Y12.2775
G01 X7.8254 Y12.2521
G01 X7.8057 Y12.2263
G01 X7.7464 Y12.1463
G01 X7.7274 Y12.1200
G01 X7.7090 Y12.0933
G01 X7.6913 Y12.0661
G01 X7.6743 Y12.0385
G01 X7.6231 Y11.9530
G01 X7.6068 Y11.9250
G01 X7.5911 Y11.8966
G01 X7.5762 Y11.8678
G01 X7.5620 Y11.8387
G01 X7.5193 Y11.7485
G01 X7.5059 Y11.7190
G01 X7.4931 Y11.6893
G01 X7.4810 Y11.6592
G01 X7.4697 Y11.6288
G01 X7.4362 Y11.5349
G01 X7.4256 Y11.5042
G01 X7.4158 Y11.4733
G01 X7.4068 Y11.4422
G01 X7.3985 Y11.4109
G01 X7.3743 Y11.3141
G01 X7.3668 Y11.2826
G01 X7.3601 Y11.2509
G01 X7.3542 Y11.2190
G01 X7.3490 Y11.1870
G01 X7.3344 Y11.0884
G01 X7.3300 Y11.0563
G01 X7.3265 Y11.0240
G01 X7.3237 Y10.9917
G01 X7.3217 Y10.9594
G01 X7.3168 Y10.8598
G01 X7.3156 Y10.8274
G01 X7.3152 Y10.7950
G01 X7.3156 Y10.7626
G01 X7.3168 Y10.7302
G01 X7.3217 Y10.6306
G01 X7.3237 Y10.5983
G01 X7.3265 Y10.5660
G01 X7.3300 Y10.5337
G01 X7.3344 Y10.5016
G01 X7.3490 Y10.4030
G01 X7.3542 Y10.3710
G01 X7.3601 Y10.3391
G01 X7.3668 Y10.3074
G01 X7.3743 Y10.2759
G01 X7.3985 Y10.1791
G01 X7.4068 Y10.1478
G01 X7.4158 Y10.1167
G01 X7.4256 Y10.0858
G01 X7.4362 Y10.0551
G01 X7.4697 Y9.9612
G01 X7.4810 Y9.9308
G01 X7.4931 Y9.9007
G01 X7.5059 Y9.8710
G01 X7.5193 Y9.8415
G01 X7.5620 Y9.7513
G01 X7.5762 Y9.7222
G01 X7.5911 Y9.6934
G01 X7.6068 Y9.6650
G01 X7.6231 Y9.6370
G01 X7.6743 Y9.5515
G01 X7.6913 Y9.5239
G01 X7.7090 Y9.4967
G01 X7.7274 Y9.4700
G01 X7.7464 Y9.4437
G01 X7.8057 Y9.3637
G01 X7.8254 Y9.3379
G01 X7.8456 Y9.3125
G01 X7.8665 Y9.2877
G01 X7.8865 Y9.2652
G01 X7.8865 Y7.5581
G00 Z5.0000
G00 X8.2421 Y7.4528
G01 F100.00
G01 Z-0.2500
G01 F350.00
G01 X8.2222 Y7.4243
G01 X8.2093 Y7.4045
G01 X8.1588 Y7.3208
G01 X8.1469 Y7.3004
G01 X8.1355 Y7.2796
G01 X8.1246 Y7.2586
G01 X8.1142 Y7.2373
G01 X8.0825 Y7.1704
G01 X8.0727 Y7.1488
G01 X8.0633 Y7.1271
G01 X8.0545 Y7.1051
G01 X8.0463 Y7.0829
G01 X8.0213 Y7.0132
G01 X8.0136 Y6.9907
G01 X8.0065 Y6.9682
G01 X7.9999 Y6.9454
G01 X7.9938 Y6.9225
G01 X7.9758 Y6.8507
G01 X7.9704 Y6.8276
G01 X7.9655 Y6.8045
G01 X7.9611 Y6.7812
G01 X7.9574 Y6.7578
G01 X7.9465 Y6.6846
G01 X7.9433 Y6.6611
G01 X7.9407 Y6.6375
G01 X7.9387 Y6.6139
G01 X7.9336 Y6.5164
G01 X7.9327 Y6.4927
G01 X7.9324 Y6.4690
G01 X7.9324 Y4.9610
G01 X7.9327 Y4.9373
G01 X7.9336 Y4.9136
G01 X7.9372 Y4.8397
G01 X7.9387 Y4.8161
G01 X7.9407 Y4.7925
G01 X7.9433 Y4.7689
G01 X7.9465 Y4.7454
G01 X7.9611 Y4.6488
G01 X7.9655 Y4.6255
G01 X7.9704 Y4.6024
G01 X7.9758 Y4.5793
G01 X7.9938 Y4.5075
G01 X7.9999 Y4.4846
G01 X8.0065 Y4.4618
G01 X8.0136 Y4.4393
G01 X8.0213 Y4.4168
G01 X8.0463 Y4.3471
G01 X8.0545 Y4.3249
G01 X8.0633 Y4.3029
G01 X8.0727 Y4.2812
G01 X8.1142 Y4.1927
G01 X8.1246 Y4.1714
G01 X8.1355 Y4.1504
G01 X8.1469 Y4.1296
G01 X8.1588 Y4.1092
G01 X8.1969 Y4.0457
G01 X8.2093 Y4.0255
G01 X8.2222 Y4.0057
G01 X8.2356 Y3.9861
G01 X8.2495 Y3.9669
G01 X8.2936 Y3.9075
G01 X8.3079 Y3.8886
G01 X8.3227 Y3.8701
G01 X8.3380 Y3.8520
G01 X8.3537 Y3.8342
G01 X8.4034 Y3.7794
G01 X8.4195 Y3.7620
G01 X8.4361 Y3.7451
G01 X8.4530 Y3.7285
G01 X8.5252 Y3.6627
G01 X8.5430 Y3.6470
G01 X8.5611 Y3.6317
G01 X8.5796 Y3.6169
G01 X8.5985 Y3.6026
G01 X8.6771 Y3.5446
G01 X8.6967 Y3.5312
G01 X8.7165 Y3.5183
G01 X8.7367 Y3.5059
G01 X8.8002 Y3.4678
G01 X8.8206 Y3.4559
G01 X8.8414 Y3.4445
G01 X8.8624 Y3.4336
G01 X8.8837 Y3.4232
G01 X8.9506 Y3.3915
G01 X8.9722 Y3.3817
G01 X8.9939 Y3.3723
G01 X9.0159 Y3.3635
G01 X9.1078 Y3.3303
G01 X9.1303 Y3.3226
G01 X9.1528 Y3.3155
G01 X9.1756 Y3.3089
G01 X9.1985 Y3.3028
G01 X9.2934 Y3.2794
G01 X9.3165 Y3.2745
G01 X9.3398 Y3.2701
G01 X9.3632 Y3.2664
G01 X9.4599 Y3.2523
G01 X9.4835 Y3.2497
G01 X9.5071 Y3.2477
G01 X9.5307 Y3.2462
G01 X9.6046 Y3.2426
G01 X9.6283 Y3.2417
G01 X9.6520 Y3.2414
G01 X9.6757 Y3.2417
G01 X9.6994 Y3.2426
G01 X9.7733 Y3.2462
G01 X9.7969 Y3.2477
G01 X9.8205 Y3.2497
G01 X9.8441 Y3.2523
G01 X9.8676 Y3.2555
G01 X9.9408 Y3.2664
G01 X9.9642 Y3.2701
G01 X9.9875 Y3.2745
G01 X10.0106 Y3.2794
G01 X10.0337 Y3.2848
G01 X10.1055 Y3.3028
G01 X10.1284 Y3.3089
G01 X10.1512 Y3.3155
G01 X10.1737 Y3.3226
G01 X10.1962 Y3.3303
G01 X10.2659 Y3.3553
G01 X10.2881 Y3.3635
G01 X10.3101 Y3.3723
G01 X10.3318 Y3.3817
G01 X10.3534 Y3.3915
G01 X10.4203 Y3.4232
G01 X10.4416 Y3.4336
G01 X10.4626 Y3.4445
G01 X10.4834 Y3.4559
G01 X10.5673 Y3.5059
G01 X10.5875 Y3.5183
G01 X10.6073 Y3.5312
G01 X10.6269 Y3.5446
G01 X10.6461 Y3.5585
G01 X10.7244 Y3.6169
G01 X10.7429 Y3.6317
G01 X10.7610 Y3.6470
G01 X10.7821 Y3.6657
G01 X10.7821 Y3.1750
G01 X10.7824 Y3.1513
G01 X10.7854 Y3.0840
G01 X10.7868 Y3.0604
G01 X10.7889 Y3.0368
G01 X10.7915 Y3.0133
G01 X10.7947 Y2.9898
G01 X10.8048 Y2.9232
G01 X10.8092 Y2.8999
G01 X10.8141 Y2.8768
G01 X10.8302 Y2.8114
G01 X10.8362 Y2.7885
G01 X10.8428 Y2.7657
G01 X10.8499 Y2.7431
G01 X10.8576 Y2.7207
G01 X10.8806 Y2.6574
G01 X10.8894 Y2.6354
G01 X10.8987 Y2.6137
G01 X10.9273 Y2.5527
G01 X10.9376 Y2.5314
G01 X10.9486 Y2.5104
G01 X10.9600 Y2.4896
G01 X10.9719 Y2.4691
G01 X11.0068 Y2.4115
G01 X11.0197 Y2.3917
G01 X11.0331 Y2.3722
G01 X11.0470 Y2.3530
G01 X11.0873 Y2.2990
G01 X11.1021 Y2.2806
G01 X11.1174 Y2.2624
G01 X11.1331 Y2.2447
G01 X11.1785 Y2.1950
G01 X11.1950 Y2.1780
G01 X12.4650 Y0.9080
G01 X12.4820 Y0.8915
G01 X12.5317 Y0.8461
G01 X12.5494 Y0.8304
G01 X12.5676 Y0.8151
G01 X12.5860 Y0.8003
G01 X12.6049 Y0.7860
G01 X12.6592 Y0.7461
G01 X12.6787 Y0.7327
G01 X12.6985 Y0.7198
G01 X12.7463 Y0.6908
G01 X12.7766 Y0.6730
G01 X12.7974 Y0.6616
G01 X12.8184 Y0.6506
G01 X12.8538 Y0.6336
G01 X12.9007 Y0.6117
G01 X12.9224 Y0.6024
G01 X12.9444 Y0.5936
G01 X12.9666 Y0.5854
G01 X13.0301 Y0.5629
G01 X13.0527 Y0.5558
G01 X13.0755 Y0.5492
G01 X13.1407 Y0.5325
G01 X13.1638 Y0.5271
G01 X13.1869 Y0.5222
G01 X13.2102 Y0.5178
G01 X13.2336 Y0.5141
G01 X13.3003 Y0.5045
G01 X13.3238 Y0.5019
G01 X13.3474 Y0.4998
G01 X13.4146 Y0.4962
G01 X13.4383 Y0.4954
G01 X13.4620 Y0.4951
G01 X16.0020 Y0.4951
G01 X16.0257 Y0.4954
G01 X16.0930 Y0.4984
G01 X16.1166 Y0.4998
G01 X16.1402 Y0.5019
G01 X16.1637 Y0.5045
G01 X16.2304 Y0.5141
G01 X16.2538 Y0.5178
G01 X16.2771 Y0.5222
G01 X16.3002 Y0.5271
G01 X16.3656 Y0.5432
G01 X16.3885 Y0.5492
G01 X16.4113 Y0.5558
G01 X16.4339 Y0.5629
G01 X16.4974 Y0.5854
G01 X16.5196 Y0.5936
G01 X16.5416 Y0.6024
G01 X16.5633 Y0.6117
G01 X16.6243 Y0.6403
G01 X16.6456 Y0.6506
G01 X16.6666 Y0.6616
G01 X16.6874 Y0.6730
G01 X16.7453 Y0.7073
G01 X16.7655 Y0.7198
G01 X16.7853 Y0.7327
G01 X16.8048 Y0.7461
G01 X16.8240 Y0.7600
G01 X16.8780 Y0.8003
G01 X16.8964 Y0.8151
G01 X16.9146 Y0.8304
G01 X16.9323 Y0.8461
G01 X16.9820 Y0.8915
G01 X16.9990 Y0.9080
G01 X18.2690 Y2.1780
G01 X18.2855 Y2.1950
G01 X18.3309 Y2.2447
G01 X18.3466 Y2.2624
G01 X18.3619 Y2.2806
G01 X18.3767 Y2.2990
G01 X18.4170 Y2.3530
G01 X18.4309 Y2.3722
G01 X18.4443 Y2.3917
G01 X18.4572 Y2.4115
G01 X18.4697 Y2.4317
G01 X18.5040 Y2.4896
G01 X18.5154 Y2.5104
G01 X18.5264 Y2.5314
G01 X18.5554 Y2.5921
G01 X18.5653 Y2.6137
G01 X18.5746 Y2.6354
G01 X18.5834 Y2.6574
G01 X18.5916 Y2.6796
G01 X18.6141 Y2.7431
G01 X18.6212 Y2.7657
G01 X18.6278 Y2.7885
G01 X18.6445 Y2.8537
G01 X18.6499 Y2.8768
G01 X18.6548 Y2.8999
G01 X18.6592 Y2.9232
G01 X18.6629 Y2.9466
G01 X18.6725 Y3.0133
G01 X18.6751 Y3.0368
G01 X18.6772 Y3.0604
G01 X18.6808 Y3.1276
G01 X18.6816 Y3.1513
G01 X18.6819 Y3.1750
G01 X18.6819 Y9.4033
G01 X18.7056 Y9.4284
G01 X18.7725 Y9.5023
G01 X18.7882 Y9.5200
G01 X18.8035 Y9.5381
G01 X18.8183 Y9.5566
G01 X18.8326 Y9.5755
G01 X18.8920 Y9.6556
G01 X18.9059 Y9.6748
G01 X18.9193 Y9.6943
G01 X18.9322 Y9.7142
G01 X18.9447 Y9.7343
G01 X18.9959 Y9.8198
G01 X19.0078 Y9.8403
G01 X19.0193 Y9.8611
G01 X19.0302 Y9.8821
G01 X19.0406 Y9.9034
G01 X19.0832 Y9.9935
G01 X19.0931 Y10.0151
G01 X19.1024 Y10.0368
G01 X19.1112 Y10.0588
G01 X19.1194 Y10.0810
G01 X19.1530 Y10.1749
G01 X19.1607 Y10.1973
G01 X19.1679 Y10.2199
G01 X19.1745 Y10.2426
G01 X19.1805 Y10.2655
G01 X19.2048 Y10.3623
G01 X19.2102 Y10.3853
G01 X19.2151 Y10.4085
G01 X19.2195 Y10.4318
G01 X19.2232 Y10.4552
G01 X19.2379 Y10.5538
G01 X19.2410 Y10.5773
G01 X19.2437 Y10.6008
G01 X19.2457 Y10.6244
G01 X19.2471 Y10.6481
G01 X19.2520 Y10.7476
G01 X19.2529 Y10.7713
G01 X19.2532 Y10.7950
G01 X19.2529 Y10.8187
G01 X19.2520 Y10.8424
G01 X19.2471 Y10.9419
G01 X19.2457 Y10.9656
G01 X19.2437 Y10.9892
G01 X19.2410 Y11.0127
G01 X19.2379 Y11.0362
G01 X19.2232 Y11.1348
G01 X19.2195 Y11.1582
G01 X19.2151 Y11.1815
G01 X19.2102 Y11.2047
G01 X19.2048 Y11.2277
G01 X19.1805 Y11.3245
G01 X19.1745 Y11.3474
G01 X19.1679 Y11.3701
G01 X19.1607 Y11.3927
G01 X19.1530 Y11.4151
G01 X19.1194 Y11.5090
G01 X19.1112 Y11.5312
G01 X19.1024 Y11.5532
G01 X19.0931 Y11.5749
G01 X19.0832 Y11.5965
G01 X19.0406 Y11.6866
G01 X19.0302 Y11.7079
G01 X19.0193 Y11.7289
G01 X19.0078 Y11.7497
G01 X18.9959 Y11.7702
G01 X18.9447 Y11.8557
G01 X18.9322 Y11.8758
G01 X18.9193 Y11.8957
G01 X18.9059 Y11.9152
G01 X18.8920 Y11.9344
G01 X18.8326 Y12.0145
G01 X18.8183 Y12.0334
G01 X18.8035 Y12.0519
G01 X18.7882 Y12.0700
G01 X18.7725 Y12.0877
G01 X18.7056 Y12.1616
G01 X18.6819 Y12.1867
G01 X18.6819 Y17.2150
G01 X18.6960 Y17.2295
G01 X18.7122 Y17.2468
G01 X18.7279 Y17.2646
G01 X18.7431 Y17.2827
G01 X18.7579 Y17.3012
G01 X18.7723 Y17.3200
G01 X18.7861 Y17.3392
G01 X18.7995 Y17.3588
G01 X18.8125 Y17.3786
G01 X18.8249 Y17.3988
G01 X18.8368 Y17.4193
G01 X18.8482 Y17.4400
G01 X18.8591 Y17.4610
G01 X18.8695 Y17.4823
G01 X18.8794 Y17.5039
G01 X18.8887 Y17.5256
G01 X18.8975 Y17.5476
G01 X18.9058 Y17.5698
G01 X18.9135 Y17.5922
G01 X18.9206 Y17.6148
G01 X18.9272 Y17.6376
G01 X18.9333 Y17.6605
G01 X18.9387 Y17.6835
G01 X18.9437 Y17.7067
G01 X18.9480 Y17.7300
G01 X18.9518 Y17.7534
G01 X18.9549 Y17.7768
G01 X18.9576 Y17.8004
G01 X18.9596 Y17.8240
G01 X18.9610 Y17.8476
G01 X18.9619 Y17.8713
G01 X18.9622 Y17.8950
G01 X18.9622 Y19.9950
G01 X18.9619 Y20.0187
G01 X18.9610 Y20.0424
G01 X18.9596 Y20.0660
G01 X18.9576 Y20.0896
G01 X18.9549 Y20.1132
G01 X18.9518 Y20.1366
G01 X18.9480 Y20.1600
G01 X18.9437 Y20.1833
G01 X18.9387 Y20.2065
G01 X18.9333 Y20.2295
G01 X18.9272 Y20.2524
G01 X18.9206 Y20.2752
G01 X18.9135 Y20.2978
G01 X18.9058 Y20.3202
G01 X18.8975 Y20.3424
G01 X18.8887 Y20.3644
G01 X18.8794 Y20.3861
G01 X18.8695 Y20.4077
G01 X18.8591 Y20.4290
G01 X18.8482 Y20.4500
G01 X18.8368 Y20.4707
G01 X18.8249 Y20.4912
G01 X18.8125 Y20.5114
G01 X18.7995 Y20.5312
G01 X18.7861 Y20.5508
G01 X18.7723 Y20.5700
G01 X18.7579 Y20.5888
G01 X18.7431 Y20.6073
G01 X18.7279 Y20.6254
G01 X18.7122 Y20.6432
G01 X18.6960 Y20.6605
G01 X18.6795 Y20.6775
G01 X18.6625 Y20.6940
G01 X18.6452 Y20.7102
G01 X18.6274 Y20.7259
G01 X18.6093 Y20.7411
G01 X18.5908 Y20.7559
G01 X18.5720 Y20.7703
G01 X18.5528 Y20.7841
G01 X18.5332 Y20.7975
G01 X18.5134 Y20.8105
G01 X18.4932 Y20.8229
G01 X18.4727 Y20.8348
G01 X18.4520 Y20.8462
G01 X18.4310 Y20.8571
G01 X18.4097 Y20.8675
G01 X18.3881 Y20.8774
G01 X18.3664 Y20.8867
G01 X18.3444 Y20.8955
G01 X18.3222 Y20.9038
G01 X18.2998 Y20.9115
G01 X18.2772 Y20.9186
G01 X18.2544 Y20.9252
G01 X18.2315 Y20.9313
G01 X18.2085 Y20.9367
G01 X18.1853 Y20.9417
G01 X18.1620 Y20.9460
G01 X18.1386 Y20.9498
G01 X18.1152 Y20.9529
G01 X18.0916 Y20.9556
G01 X18.0680 Y20.9576
G01 X18.0444 Y20.9590
G01 X18.0207 Y20.9599
G01 X17.9970 Y20.9602
G01 X16.5470 Y20.9602
G01 X16.5233 Y20.9599
G01 X16.4996 Y20.9590
G01 X16.4760 Y20.9576
G01 X16.4524 Y20.9556
G01 X16.4288 Y20.9529
G01 X16.4054 Y20.9498
G01 X16.3820 Y20.9460
G01 X16.3587 Y20.9417
G01 X16.3355 Y20.9367
G01 X16.3125 Y20.9313
G01 X16.2896 Y20.9252
G01 X16.2668 Y20.9186
G01 X16.2442 Y20.9115
G01 X16.2218 Y20.9038
G01 X16.1996 Y20.8955
G01 X16.1776 Y20.8867
G01 X16.1559 Y20.8774
G01 X16.1343 Y20.8675
G01 X16.1130 Y20.8571
G01 X16.0920 Y20.8462
G01 X16.0713 Y20.8348
G01 X16.0508 Y20.8229
G01 X16.0306 Y20.8105
G01 X16.0020 Y20.7915
G01 X15.9734 Y20.8105
G01 X15.9532 Y20.8229
G01 X15.9327 Y20.8348
G01 X15.9120 Y20.8462
G01 X15.8910 Y20.8571
G01 X15.8697 Y20.8675
G01 X15.8481 Y20.8774
G01 X15.8264 Y20.8867
G01 X15.8044 Y20.8955
G01 X15.7822 Y20.9038
G01 X15.7598 Y20.9115
G01 X15.7372 Y20.9186
G01 X15.7144 Y20.9252
G01 X15.6915 Y20.9313
G01 X15.6685 Y20.9367
G01 X15.6453 Y20.9417
G01 X15.6220 Y20.9460
G01 X15.5986 Y20.9498
G01 X15.5752 Y20.9529
G01 X15.5516 Y20.9556
G01 X15.5280 Y20.9576
G01 X15.5044 Y20.9590
G01 X15.4807 Y20.9599
G01 X15.4570 Y20.9602
G01 X14.0070 Y20.9602
G01 X13.9833 Y20.9599
G01 X13.9596 Y20.9590
G01 X13.9360 Y20.9576
G01 X13.9124 Y20.9556
G01 X13.8888 Y20.9529
G01 X13.8654 Y20.9498
G01 X13.8420 Y20.9460
G01 X13.8187 Y20.9417
G01 X13.7955 Y20.9367
G01 X13.7725 Y20.9313
G01 X13.7496 Y20.9252
G01 X13.7268 Y20.9186
G01 X13.7042 Y20.9115
G01 X13.6818 Y20.9038
G01 X13.6596 Y20.8955
G01 X13.6376 Y20.8867
G01 X13.6159 Y20.8774
G01 X13.5943 Y20.8675
G01 X13.5730 Y20.8571
G01 X13.5520 Y20.8462
G01 X13.5313 Y20.8348
G01 X13.5108 Y20.8229
G01 X13.4906 Y20.8105
G01 X13.4620 Y20.7915
G01 X13.4334 Y20.8105
G01 X13.4132 Y20.8229
G01 X13.3927 Y20.8348
G01 X13.3720 Y20.8462
G01 X13.3510 Y20.8571
G01 X13.3297 Y20.8675
G01 X13.3081 Y20.8774
G01 X13.2864 Y20.8867
G01 X13.2644 Y20.8955
G01 X13.2422 Y20.9038
G01 X13.2198 Y20.9115
G01 X13.1972 Y20.9186
G01 X13.1744 Y20.9252
G01 X13.1515 Y20.9313
G01 X13.1285 Y20.9367
G01 X13.1053 Y20.9417
G01 X13.0820 Y20.9460
G01 X13.0586 Y20.9498
G01 X13.0352 Y20.9529
G01 X13.0116 Y20.9556
G01 X12.9880 Y20.9576
G01 X12.9644 Y20.9590
G01 X12.9407 Y20.9599
G01 X12.9170 Y20.9602
G01 X11.4670 Y20.9602
G01 X11.4433 Y20.9599
G01 X11.4196 Y20.9590
G01 X11.3960 Y20.9576
G01 X11.3724 Y20.9556
G01 X11.3488 Y20.9529
G01 X11.3254 Y20.9498
G01 X11.3020 Y20.9460
G01 X11.2787 Y20.9417
G01 X11.2555 Y20.9367
G01 X11.2325 Y20.9313
G01 X11.2096 Y20.9252
G01 X11.1868 Y20.9186
G01 X11.1642 Y20.9115
G01 X11.1418 Y20.9038
G01 X11.1196 Y20.8955
G01 X11.0976 Y20.8867
G01 X11.0759 Y20.8774
G01 X11.0543 Y20.8675
G01 X11.0330 Y20.8571
G01 X11.0120 Y20.8462
G01 X10.9913 Y20.8348
G01 X10.9708 Y20.8229
G01 X10.9506 Y20.8105
G01 X10.9220 Y20.7915
G01 X10.8934 Y20.8105
G01 X10.8732 Y20.8229
G01 X10.8527 Y20.8348
G01 X10.8320 Y20.8462
G01 X10.8110 Y20.8571
G01 X10.7897 Y20.8675
G01 X10.7681 Y20.8774
G01 X10.7464 Y20.8867
G01 X10.7244 Y20.8955
G01 X10.7022 Y20.9038
G01 X10.6798 Y20.9115
G01 X10.6572 Y20.9186
G01 X10.6344 Y20.9252
G01 X10.6115 Y20.9313
G01 X10.5885 Y20.9367
G01 X10.5653 Y20.9417
G01 X10.5420 Y20.9460
G01 X10.5186 Y20.9498
G01 X10.4952 Y20.9529
G01 X10.4716 Y20.9556
G01 X10.4480 Y20.9576
G01 X10.4244 Y20.9590
G01 X10.4007 Y20.9599
G01 X10.3770 Y20.9602
G01 X8.9270 Y20.9602
G01 X8.9033 Y20.9599
G01 X8.8796 Y20.9590
G01 X8.8560 Y20.9576
G01 X8.8324 Y20.9556
G01 X8.8088 Y20.9529
G01 X8.7854 Y20.9498
G01 X8.7620 Y20.9460
G01 X8.7387 Y20.9417
G01 X8.7155 Y20.9367
G01 X8.6925 Y20.9313
G01 X8.6696 Y20.9252
G01 X8.6468 Y20.9186
G01 X8.6242 Y20.9115
G01 X8.6018 Y20.9038
G01 X8.5796 Y20.8955
G01 X8.5576 Y20.8867
G01 X8.5359 Y20.8774
G01 X8.5143 Y20.8675
G01 X8.4930 Y20.8571
G01 X8.4720 Y20.8462
G01 X8.4513 Y20.8348
G01 X8.4308 Y20.8229
G01 X8.4106 Y20.8105
G01 X8.3908 Y20.7975
G01 X8.3712 Y20.7841
G01 X8.3520 Y20.7703
G01 X8.3332 Y20.7559
G01 X8.3147 Y20.7411
G01 X8.2966 Y20.7259
G01 X8.2788 Y20.7102
G01 X8.2615 Y20.6940
G01 X8.2445 Y20.6775
G01 X8.2280 Y20.6605
G01 X8.2118 Y20.6432
G01 X8.1961 Y20.6254
G01 X8.1809 Y20.6073
G01 X8.1661 Y20.5888
G01 X8.1517 Y20.5700
G01 X8.1379 Y20.5508
G01 X8.1245 Y20.5312
G01 X8.1115 Y20.5114
G01 X8.0991 Y20.4912
G01 X8.0872 Y20.4707
G01 X8.0758 Y20.4500
G01 X8.0649 Y20.4290
G01 X8.0545 Y20.4077
G01 X8.0446 Y20.3861
G01 X8.0353 Y20.3644
G01 X8.0265 Y20.3424
G01 X8.0182 Y20.3202
G01 X8.0105 Y20.2978
G01 X8.0034 Y20.2752
G01 X7.9968 Y20.2524
G01 X7.9907 Y20.2295
G01 X7.9853 Y20.2065
G01 X7.9803 Y20.1833
G01 X7.9760 Y20.1600
G01 X7.9722 Y20.1366
G01 X7.9691 Y20.1132
G01 X7.9664 Y20.0896
G01 X7.9644 Y20.0660
G01 X7.9630 Y20.0424
G01 X7.9621 Y20.0187
G01 X7.9618 Y19.9950
G01 X7.9618 Y19.7608
G01 X7.9277 Y19.7494
G01 X7.8644 Y19.7264
G01 X7.8424 Y19.7176
G01 X7.8207 Y19.7083
G01 X7.7991 Y19.6984
G01 X7.7384 Y19.6694
G01 X7.7174 Y19.6584
G01 X7.6966 Y19.6470
G01 X7.6761 Y19.6351
G01 X7.6185 Y19.6002
G01 X7.5987 Y19.5873
G01 X7.5792 Y19.5739
G01 X7.5600 Y19.5600
G01 X7.5060 Y19.5197
G01 X7.4876 Y19.5049
G01 X7.4694 Y19.4896
G01 X7.4517 Y19.4739
G01 X7.4020 Y19.4285
G01 X7.3850 Y19.4120
G01 X6.1150 Y18.1420
G01 X6.0985 Y18.1250
G01 X6.0531 Y18.0753
G01 X6.0374 Y18.0576
G01 X6.0221 Y18.0394
G01 X6.0073 Y18.0210
G01 X5.9670 Y17.9670
G01 X5.9531 Y17.9478
G01 X5.9397 Y17.9283
G01 X5.9268 Y17.9085
G01 X5.8919 Y17.8509
G01 X5.8800 Y17.8304
G01 X5.8686 Y17.8096
G01 X5.8576 Y17.7886
G01 X5.8286 Y17.7279
G01 X5.8187 Y17.7063
G01 X5.8094 Y17.6846
G01 X5.8006 Y17.6626
G01 X5.7924 Y17.6404
G01 X5.7699 Y17.5769
G01 X5.7628 Y17.5543
G01 X5.7562 Y17.5315
G01 X5.7502 Y17.5086
G01 X5.7341 Y17.4432
G01 X5.7292 Y17.4201
G01 X5.7248 Y17.3968
G01 X5.7211 Y17.3734
G01 X5.7115 Y17.3067
G01 X5.7089 Y17.2832
G01 X5.7068 Y17.2596
G01 X5.7054 Y17.2360
G01 X5.7024 Y17.1687
G01 X5.7021 Y17.1450
G01 X5.7021 Y15.9967
G01 X5.6784 Y15.9716
G01 X5.6115 Y15.8977
G01 X5.5958 Y15.8800
G01 X5.5805 Y15.8619
G01 X5.5657 Y15.8434
G01 X5.5514 Y15.8245
G01 X5.4781 Y15.7252
G01 X5.4647 Y15.7057
G01 X5.4518 Y15.6858
G01 X5.4393 Y15.6657
G01 X5.3881 Y15.5802
G01 X5.3762 Y15.5597
G01 X5.3647 Y15.5389
G01 X5.3538 Y15.5179
G01 X5.3434 Y15.4966
G01 X5.3008 Y15.4065
G01 X5.2909 Y15.3849
G01 X5.2816 Y15.3632
G01 X5.2728 Y15.3412
G01 X5.2310 Y15.2251
G01 X5.2233 Y15.2027
G01 X5.2161 Y15.1801
G01 X5.2095 Y15.1574
G01 X5.2035 Y15.1345
G01 X5.1738 Y15.0147
G01 X5.1689 Y14.9915
G01 X5.1645 Y14.9682
G01 X5.1608 Y14.9448
G01 X5.1461 Y14.8462
G01 X5.1430 Y14.8227
G01 X5.1403 Y14.7992
G01 X5.1383 Y14.7756
G01 X5.1369 Y14.7519
G01 X5.1320 Y14.6524
G01 X5.1311 Y14.6287
G01 X5.1308 Y14.6050
G01 X5.1311 Y14.5813
G01 X5.1320 Y14.5576
G01 X5.1369 Y14.4581
G01 X5.1383 Y14.4344
G01 X5.1403 Y14.4108
G01 X5.1430 Y14.3873
G01 X5.1608 Y14.2652
G01 X5.1645 Y14.2418
G01 X5.1689 Y14.2185
G01 X5.1738 Y14.1953
G01 X5.1792 Y14.1723
G01 X5.2095 Y14.0526
G01 X5.2161 Y14.0299
G01 X5.2233 Y14.0073
G01 X5.2646 Y13.8910
G01 X5.2728 Y13.8688
G01 X5.2816 Y13.8468
G01 X5.2909 Y13.8251
G01 X5.3008 Y13.8035
G01 X5.3434 Y13.7134
G01 X5.3538 Y13.6921
G01 X5.3647 Y13.6711
G01 X5.3762 Y13.6503
G01 X5.3881 Y13.6298
G01 X5.4393 Y13.5443
G01 X5.4518 Y13.5242
G01 X5.4647 Y13.5043
G01 X5.4781 Y13.4848
G01 X5.4920 Y13.4656
G01 X5.5514 Y13.3855
G01 X5.5657 Y13.3666
G01 X5.5805 Y13.3481
G01 X5.5958 Y13.3300
G01 X5.6115 Y13.3123
G01 X5.6784 Y13.2384
G01 X5.6945 Y13.2210
G01 X5.7111 Y13.2041
G01 X5.7280 Y13.1875
G01 X5.7454 Y13.1714
G01 X5.8370 Y13.0888
G01 X5.8551 Y13.0735
G01 X5.8736 Y13.0587
G01 X5.9726 Y12.9850
G01 X5.9918 Y12.9711
G01 X6.0113 Y12.9577
G01 X6.0312 Y12.9448
G01 X6.0513 Y12.9323
G01 X6.1573 Y12.8692
G01 X6.1781 Y12.8577
G01 X6.1991 Y12.8468
G01 X6.3105 Y12.7938
G01 X6.3321 Y12.7839
G01 X6.3538 Y12.7746
G01 X6.3758 Y12.7658
G01 X6.3980 Y12.7576
G01 X6.4919 Y12.7240
G01 X6.5143 Y12.7163
G01 X6.5369 Y12.7091
G01 X6.5596 Y12.7025
G01 X6.5825 Y12.6965
G01 X6.6793 Y12.6722
G01 X6.7023 Y12.6668
G01 X6.7255 Y12.6619
G01 X6.7488 Y12.6575
G01 X6.7722 Y12.6538
G01 X6.8708 Y12.6391
G01 X6.8943 Y12.6360
G01 X6.9178 Y12.6333
G01 X6.9414 Y12.6313
G01 X6.9651 Y12.6299
G01 X7.0883 Y12.6241
G01 X7.1120 Y12.6238
G01 X7.1357 Y12.6241
G01 X7.2589 Y12.6299
G01 X7.2826 Y12.6313
G01 X7.3062 Y12.6333
G01 X7.3297 Y12.6360
G01 X7.3532 Y12.6391
G01 X7.4518 Y12.6538
G01 X7.4752 Y12.6575
G01 X7.4985 Y12.6619
G01 X7.5217 Y12.6668
G01 X7.5447 Y12.6722
G01 X7.6415 Y12.6965
G01 X7.6644 Y12.7025
G01 X7.6871 Y12.7091
G01 X7.7097 Y12.7163
G01 X7.7321 Y12.7240
G01 X7.8260 Y12.7576
G01 X7.8482 Y12.7658
G01 X7.8702 Y12.7746
G01 X7.8919 Y12.7839
G01 X7.9135 Y12.7938
G01 X8.0036 Y12.8364
G01 X8.0249 Y12.8468
G01 X8.0459 Y12.8577
G01 X8.0667 Y12.8692
G01 X8.0872 Y12.8811
G01 X8.1727 Y12.9323
G01 X8.1928 Y12.9448
G01 X8.2127 Y12.9577
G01 X8.2322 Y12.9711
G01 X8.2514 Y12.9850
G01 X8.3504 Y13.0587
G01 X8.3689 Y13.0735
G01 X8.3870 Y13.0888
G01 X8.4786 Y13.1714
G01 X8.4960 Y13.1875
G01 X8.5129 Y13.2041
G01 X8.5295 Y13.2210
G01 X8.5456 Y13.2384
G01 X8.6125 Y13.3123
G01 X8.6282 Y13.3300
G01 X8.6435 Y13.3481
G01 X8.6583 Y13.3666
G01 X8.6726 Y13.3855
G01 X8.7320 Y13.4656
G01 X8.7459 Y13.4848
G01 X8.7593 Y13.5043
G01 X8.7722 Y13.5242
G01 X8.7847 Y13.5443
G01 X8.8359 Y13.6298
G01 X8.8478 Y13.6503
G01 X8.8593 Y13.6711
G01 X8.8702 Y13.6921
G01 X8.8806 Y13.7134
G01 X8.9232 Y13.8035
G01 X8.9331 Y13.8251
G01 X8.9424 Y13.8468
G01 X8.9512 Y13.8688
G01 X8.9594 Y13.8910
G01 X9.0007 Y14.0073
G01 X9.0079 Y14.0299
G01 X9.0145 Y14.0526
G01 X9.0448 Y14.1723
G01 X9.0502 Y14.1953
G01 X9.0551 Y14.2185
G01 X9.0595 Y14.2418
G01 X9.0632 Y14.2652
G01 X9.0779 Y14.3638
G01 X9.0810 Y14.3873
G01 X9.0837 Y14.4108
G01 X9.0857 Y14.4344
G01 X9.0920 Y14.5576
G01 X9.0929 Y14.5813
G01 X9.0932 Y14.6050
G01 X9.0929 Y14.6287
G01 X9.0920 Y14.6524
G01 X9.0857 Y14.7756
G01 X9.0837 Y14.7992
G01 X9.0810 Y14.8227
G01 X9.0779 Y14.8462
G01 X9.0632 Y14.9448
G01 X9.0595 Y14.9682
G01 X9.0551 Y14.9915
G01 X9.0502 Y15.0147
G01 X9.0448 Y15.0377
G01 X9.0205 Y15.1345
G01 X9.0145 Y15.1574
G01 X9.0079 Y15.1801
G01 X9.0007 Y15.2027
G01 X8.9930 Y15.2251
G01 X8.9594 Y15.3190
G01 X8.9512 Y15.3412
G01 X8.9424 Y15.3632
G01 X8.9331 Y15.3849
G01 X8.9232 Y15.4065
G01 X8.8806 Y15.4966
G01 X8.8702 Y15.5179
G01 X8.8593 Y15.5389
G01 X8.8478 Y15.5597
G01 X8.8359 Y15.5802
G01 X8.7722 Y15.6858
G01 X8.7593 Y15.7057
G01 X8.7459 Y15.7252
G01 X8.6726 Y15.8245
G01 X8.6583 Y15.8434
G01 X8.6435 Y15.8619
G01 X8.6282 Y15.8800
G01 X8.6125 Y15.8977
G01 X8.5456 Y15.9716
G01 X8.5219 Y15.9967
G01 X8.5219 Y16.5610
G01 X8.8915 Y16.9305
G01 X8.9270 Y16.9298
G01 X10.3770 Y16.9298
G01 X10.4007 Y16.9301
G01 X10.4244 Y16.9310
G01 X10.4480 Y16.9324
G01 X10.4716 Y16.9344
G01 X10.4952 Y16.9371
G01 X10.5186 Y16.9402
G01 X10.5420 Y16.9440
G01 X10.5653 Y16.9483
G01 X10.5885 Y16.9533
G01 X10.6115 Y16.9587
G01 X10.6344 Y16.9648
G01 X10.6572 Y16.9714
G01 X10.6798 Y16.9785
G01 X10.7022 Y16.9862
G01 X10.7244 Y16.9945
G01 X10.7464 Y17.0033
G01 X10.7821 Y17.0190
G01 X10.7821 Y12.4218
G01 X10.7527 Y12.4423
G01 X10.7328 Y12.4552
G01 X10.7127 Y12.4677
G01 X10.6272 Y12.5189
G01 X10.6067 Y12.5308
G01 X10.5859 Y12.5423
G01 X10.5649 Y12.5532
G01 X10.5436 Y12.5636
G01 X10.4535 Y12.6062
G01 X10.4319 Y12.6161
G01 X10.4102 Y12.6254
G01 X10.3882 Y12.6342
G01 X10.2721 Y12.6760
G01 X10.2497 Y12.6837
G01 X10.2271 Y12.6909
G01 X10.2044 Y12.6975
G01 X10.1815 Y12.7035
G01 X10.0847 Y12.7278
G01 X10.0617 Y12.7332
G01 X10.0385 Y12.7381
G01 X10.0152 Y12.7425
G01 X9.9918 Y12.7462
G01 X9.8932 Y12.7609
G01 X9.8697 Y12.7640
G01 X9.8462 Y12.7667
G01 X9.8226 Y12.7687
G01 X9.6994 Y12.7750
G01 X9.6757 Y12.7759
G01 X9.6520 Y12.7762
G01 X9.6283 Y12.7759
G01 X9.6046 Y12.7750
G01 X9.5051 Y12.7701
G01 X9.4814 Y12.7687
G01 X9.4578 Y12.7667
G01 X9.4343 Y12.7640
G01 X9.4108 Y12.7609
G01 X9.3122 Y12.7462
G01 X9.2888 Y12.7425
G01 X9.2655 Y12.7381
G01 X9.2423 Y12.7332
G01 X9.2193 Y12.7278
G01 X9.0996 Y12.6975
G01 X9.0769 Y12.6909
G01 X9.0543 Y12.6837
G01 X9.0319 Y12.6760
G01 X8.9380 Y12.6424
G01 X8.9158 Y12.6342
G01 X8.8938 Y12.6254
G01 X8.8721 Y12.6161
G01 X8.8505 Y12.6062
G01 X8.7604 Y12.5636
G01 X8.7391 Y12.5532
G01 X8.7181 Y12.5423
G01 X8.6973 Y12.5308
G01 X8.5913 Y12.4677
G01 X8.5712 Y12.4552
G01 X8.5513 Y12.4423
G01 X8.5318 Y12.4289
G01 X8.5126 Y12.4150
G01 X8.4325 Y12.3556
G01 X8.4136 Y12.3413
G01 X8.3951 Y12.3265
G01 X8.3770 Y12.3112
G01 X8.3593 Y12.2955
G01 X8.2854 Y12.2286
G01 X8.2680 Y12.2125
G01 X8.2511 Y12.1959
G01 X8.2345 Y12.1790
G01 X8.2184 Y12.1616
G01 X8.1358 Y12.0700
G01 X8.1205 Y12.0519
G01 X8.1057 Y12.0334
G01 X8.0914 Y12.0145
G01 X8.0320 Y11.9344
G01 X8.0181 Y11.9152
G01 X8.0047 Y11.8957
G01 X7.9918 Y11.8758
G01 X7.9793 Y11.8557
G01 X7.9281 Y11.7702
G01 X7.9162 Y11.7497
G01 X7.9047 Y11.7289
G01 X7.8938 Y11.7079
G01 X7.8408 Y11.5965
G01 X7.8309 Y11.5749
G01 X7.8216 Y11.5532
G01 X7.8128 Y11.5312
G01 X7.8046 Y11.5090
G01 X7.7710 Y11.4151
G01 X7.7633 Y11.3927
G01 X7.7561 Y11.3701
G01 X7.7495 Y11.3474
G01 X7.7192 Y11.2277
G01 X7.7138 Y11.2047
G01 X7.7089 Y11.1815
G01 X7.7045 Y11.1582
G01 X7.7008 Y11.1348
G01 X7.6861 Y11.0362
G01 X7.6830 Y11.0127
G01 X7.6803 Y10.9892
G01 X7.6783 Y10.9656
G01 X7.6720 Y10.8424
G01 X7.6711 Y10.8187
G01 X7.6708 Y10.7950
G01 X7.6711 Y10.7713
G01 X7.6720 Y10.7476
G01 X7.6783 Y10.6244
G01 X7.6803 Y10.6008
G01 X7.6830 Y10.5773
G01 X7.6861 Y10.5538
G01 X7.7008 Y10.4552
G01 X7.7045 Y10.4318
G01 X7.7089 Y10.4085
G01 X7.7138 Y10.3853
G01 X7.7192 Y10.3623
G01 X7.7435 Y10.2655
G01 X7.7495 Y10.2426
G01 X7.7561 Y10.2199
G01 X7.7633 Y10.1973
G01 X7.8046 Y10.0810
G01 X7.8128 Y10.0588
G01 X7.8216 Y10.0368
G01 X7.8309 Y10.0151
G01 X7.8408 Y9.9935
G01 X7.8834 Y9.9034
G01 X7.8938 Y9.8821
G01 X7.9047 Y9.8611
G01 X7.9162 Y9.8403
G01 X7.9793 Y9.7343
G01 X7.9918 Y9.7142
G01 X8.0047 Y9.6943
G01 X8.0181 Y9.6748
G01 X8.0320 Y9.6556
G01 X8.0914 Y9.5755
G01 X8.1057 Y9.5566
G01 X8.1205 Y9.5381
G01 X8.1358 Y9.5200
G01 X8.2184 Y9.4284
G01 X8.2421 Y9.4033
G01 X8.2421 Y7.4528
G00 Z5.0000
G00 X8.5977 Y7.3344
G01 F100.00
G01 Z-0.2500
G01 F350.00
G01 X8.5792 Y7.3107
G01 X8.5351 Y7.2512
G01 X8.5179 Y7.2268
G01 X8.5019 Y7.2015
G01 X8.4638 Y7.1380
G01 X8.4491 Y7.1120
G01 X8.4422 Y7.0987
G01 X8.4040 Y7.0183
G01 X8.3918 Y6.9910
G01 X8.3811 Y6.9631
G01 X8.3561 Y6.8934
G01 X8.3468 Y6.8649
G01 X8.3388 Y6.8361
G01 X8.3208 Y6.7643
G01 X8.3142 Y6.7351
G01 X8.3091 Y6.7056
G01 X8.2983 Y6.6324
G01 X8.2946 Y6.6027
G01 X8.2924 Y6.5729
G01 X8.2882 Y6.4840
G01 X8.2880 Y4.9610
G01 X8.2888 Y4.9311
G01 X8.2924 Y4.8571
G01 X8.2946 Y4.8273
G01 X8.2983 Y4.7976
G01 X8.3115 Y4.7096
G01 X8.3173 Y4.6803
G01 X8.3208 Y4.6657
G01 X8.3388 Y4.5939
G01 X8.3468 Y4.5651
G01 X8.3561 Y4.5366
G01 X8.3811 Y4.4669
G01 X8.3863 Y4.4529
G01 X8.3977 Y4.4253
G01 X8.4356 Y4.3448
G01 X8.4491 Y4.3180
G01 X8.4638 Y4.2920
G01 X8.5019 Y4.2285
G01 X8.5097 Y4.2158
G01 X8.5264 Y4.1909
G01 X8.5792 Y4.1193
G01 X8.5976 Y4.0957
G01 X8.6172 Y4.0730
G01 X8.6669 Y4.0182
G01 X8.6875 Y3.9965
G01 X8.6982 Y3.9861
G01 X8.7640 Y3.9262
G01 X8.7867 Y3.9066
G01 X8.8103 Y3.8882
G01 X8.8819 Y3.8354
G01 X8.8942 Y3.8269
G01 X8.9195 Y3.8109
G01 X8.9830 Y3.7728
G01 X9.0090 Y3.7581
G01 X9.0358 Y3.7446
G01 X9.1027 Y3.7130
G01 X9.1163 Y3.7067
G01 X9.1439 Y3.6953
G01 X9.2276 Y3.6651
G01 X9.2561 Y3.6558
G01 X9.2849 Y3.6478
G01 X9.3713 Y3.6263
G01 X9.3859 Y3.6232
G01 X9.4154 Y3.6181
G01 X9.4886 Y3.6073
G01 X9.5183 Y3.6036
G01 X9.5481 Y3.6014
G01 X9.6370 Y3.5972
G01 X9.6520 Y3.5970
G01 X9.6819 Y3.5978
G01 X9.7708 Y3.6023
G01 X9.8006 Y3.6052
G01 X9.8886 Y3.6181
G01 X9.9181 Y3.6232
G01 X9.9473 Y3.6298
G01 X10.0191 Y3.6478
G01 X10.0479 Y3.6558
G01 X10.0622 Y3.6603
G01 X10.1461 Y3.6901
G01 X10.1740 Y3.7008
G01 X10.2013 Y3.7130
G01 X10.2817 Y3.7512
G01 X10.3081 Y3.7653
G01 X10.3210 Y3.7728
G01 X10.3845 Y3.8109
G01 X10.4098 Y3.8269
G01 X10.4342 Y3.8441
G01 X10.5056 Y3.8973
G01 X10.5287 Y3.9163
G01 X10.5948 Y3.9759
G01 X10.6058 Y3.9861
G01 X10.6269 Y4.0072
G01 X10.6868 Y4.0730
G01 X10.7064 Y4.0957
G01 X10.7248 Y4.1193
G01 X10.7689 Y4.1788
G01 X10.7776 Y4.1909
G01 X10.7943 Y4.2158
G01 X10.8402 Y4.2920
G01 X10.8549 Y4.3180
G01 X10.8684 Y4.3448
G01 X10.9000 Y4.4117
G01 X10.9122 Y4.4390
G01 X10.9220 Y4.4645
G01 X10.9318 Y4.4390
G01 X10.9377 Y4.4253
G01 X10.9756 Y4.3448
G01 X10.9891 Y4.3180
G01 X11.0038 Y4.2920
G01 X11.0419 Y4.2285
G01 X11.0579 Y4.2032
G01 X11.0751 Y4.1788
G01 X11.1192 Y4.1193
G01 X11.1377 Y4.0956
G01 X11.1377 Y3.1750
G01 X11.1384 Y3.1451
G01 X11.1406 Y3.1015
G01 X11.1428 Y3.0717
G01 X11.1464 Y3.0420
G01 X11.1528 Y2.9988
G01 X11.1579 Y2.9693
G01 X11.1645 Y2.9401
G01 X11.1751 Y2.8978
G01 X11.1831 Y2.8689
G01 X11.1876 Y2.8547
G01 X11.2124 Y2.7854
G01 X11.2238 Y2.7578
G01 X11.2553 Y2.6913
G01 X11.2694 Y2.6649
G01 X11.2769 Y2.6520
G01 X11.2994 Y2.6145
G01 X11.3154 Y2.5892
G01 X11.3326 Y2.5648
G01 X11.3586 Y2.5297
G01 X11.3676 Y2.5178
G01 X11.3866 Y2.4947
G01 X11.4360 Y2.4402
G01 X12.7165 Y1.1595
G01 X12.7382 Y1.1389
G01 X12.7817 Y1.0996
G01 X12.8048 Y1.0806
G01 X12.8518 Y1.0456
G01 X12.8762 Y1.0284
G01 X12.9015 Y1.0124
G01 X12.9519 Y0.9824
G01 X12.9783 Y0.9683
G01 X13.0448 Y0.9368
G01 X13.0724 Y0.9254
G01 X13.0864 Y0.9202
G01 X13.1275 Y0.9055
G01 X13.1559 Y0.8961
G01 X13.1848 Y0.8881
G01 X13.2271 Y0.8775
G01 X13.2563 Y0.8709
G01 X13.2710 Y0.8682
G01 X13.3438 Y0.8574
G01 X13.3736 Y0.8545
G01 X13.4470 Y0.8509
G01 X16.0170 Y0.8509
G01 X16.0755 Y0.8536
G01 X16.1053 Y0.8558
G01 X16.1350 Y0.8594
G01 X16.1782 Y0.8658
G01 X16.2077 Y0.8709
G01 X16.2223 Y0.8740
G01 X16.2792 Y0.8881
G01 X16.3081 Y0.8961
G01 X16.3365 Y0.9055
G01 X16.3776 Y0.9202
G01 X16.4055 Y0.9309
G01 X16.4328 Y0.9431
G01 X16.4723 Y0.9617
G01 X16.4857 Y0.9683
G01 X16.5121 Y0.9824
G01 X16.5752 Y1.0202
G01 X16.6001 Y1.0368
G01 X16.6122 Y1.0456
G01 X16.6473 Y1.0716
G01 X16.6709 Y1.0900
G01 X16.6935 Y1.1095
G01 X16.7258 Y1.1389
G01 X16.7475 Y1.1595
G01 X18.0175 Y2.4295
G01 X18.0381 Y2.4512
G01 X18.0774 Y2.4947
G01 X18.0964 Y2.5178
G01 X18.1054 Y2.5297
G01 X18.1402 Y2.5769
G01 X18.1568 Y2.6018
G01 X18.1871 Y2.6520
G01 X18.2018 Y2.6780
G01 X18.2153 Y2.7047
G01 X18.2402 Y2.7578
G01 X18.2516 Y2.7854
G01 X18.2715 Y2.8405
G01 X18.2809 Y2.8689
G01 X18.2889 Y2.8978
G01 X18.3030 Y2.9547
G01 X18.3088 Y2.9840
G01 X18.3176 Y3.0420
G01 X18.3212 Y3.0717
G01 X18.3234 Y3.1015
G01 X18.3261 Y3.1600
G01 X18.3263 Y9.5583
G01 X18.3998 Y9.6249
G01 X18.4215 Y9.6455
G01 X18.4421 Y9.6672
G01 X18.5091 Y9.7411
G01 X18.5190 Y9.7523
G01 X18.5380 Y9.7754
G01 X18.6064 Y9.8674
G01 X18.6236 Y9.8919
G01 X18.6318 Y9.9044
G01 X18.6984 Y10.0156
G01 X18.7057 Y10.0287
G01 X18.7191 Y10.0554
G01 X18.7617 Y10.1456
G01 X18.7680 Y10.1592
G01 X18.7794 Y10.1868
G01 X18.8231 Y10.3089
G01 X18.8276 Y10.3231
G01 X18.8356 Y10.3520
G01 X18.8633 Y10.4632
G01 X18.8664 Y10.4779
G01 X18.8715 Y10.5073
G01 X18.8861 Y10.6060
G01 X18.8898 Y10.6357
G01 X18.8920 Y10.6655
G01 X18.8974 Y10.7800
G01 X18.8976 Y10.7950
G01 X18.8969 Y10.8249
G01 X18.8920 Y10.9245
G01 X18.8898 Y10.9543
G01 X18.8861 Y10.9840
G01 X18.8715 Y11.0827
G01 X18.8664 Y11.1121
G01 X18.8598 Y11.1413
G01 X18.8356 Y11.2380
G01 X18.8276 Y11.2669
G01 X18.8182 Y11.2953
G01 X18.7846 Y11.3892
G01 X18.7739 Y11.4171
G01 X18.7680 Y11.4308
G01 X18.7191 Y11.5346
G01 X18.7125 Y11.5480
G01 X18.6984 Y11.5744
G01 X18.6318 Y11.6856
G01 X18.6236 Y11.6981
G01 X18.6064 Y11.7226
G01 X18.5380 Y11.8146
G01 X18.5286 Y11.8263
G01 X18.5091 Y11.8489
G01 X18.4421 Y11.9228
G01 X18.4215 Y11.9445
G01 X18.3998 Y11.9651
G01 X18.3263 Y12.0317
G01 X18.3263 Y17.3821
G01 X18.3480 Y17.3966
G01 X18.3601 Y17.4054
G01 X18.3837 Y17.4238
G01 X18.3952 Y17.4334
G01 X18.4173 Y17.4535
G01 X18.4385 Y17.4747
G01 X18.4487 Y17.4856
G01 X18.4682 Y17.5083
G01 X18.4776 Y17.5200
G01 X18.4954 Y17.5440
G01 X18.5120 Y17.5689
G01 X18.5274 Y17.5945
G01 X18.5346 Y17.6076
G01 X18.5481 Y17.6344
G01 X18.5543 Y17.6480
G01 X18.5658 Y17.6756
G01 X18.5758 Y17.7038
G01 X18.5804 Y17.7180
G01 X18.5883 Y17.7469
G01 X18.5918 Y17.7614
G01 X18.5976 Y17.7908
G01 X18.6020 Y17.8204
G01 X18.6049 Y17.8502
G01 X18.6059 Y17.8651
G01 X18.6066 Y17.8950
G01 X18.6066 Y19.9950
G01 X18.6059 Y20.0249
G01 X18.6037 Y20.0548
G01 X18.6000 Y20.0844
G01 X18.5949 Y20.1139
G01 X18.5883 Y20.1431
G01 X18.5804 Y20.1720
G01 X18.5710 Y20.2004
G01 X18.5602 Y20.2283
G01 X18.5481 Y20.2556
G01 X18.5415 Y20.2691
G01 X18.5274 Y20.2955
G01 X18.5120 Y20.3211
G01 X18.4954 Y20.3460
G01 X18.4776 Y20.3700
G01 X18.4586 Y20.3932
G01 X18.4487 Y20.4044
G01 X18.4281 Y20.4261
G01 X18.4064 Y20.4467
G01 X18.3837 Y20.4662
G01 X18.3601 Y20.4846
G01 X18.3357 Y20.5019
G01 X18.3231 Y20.5100
G01 X18.3104 Y20.5179
G01 X18.2844 Y20.5326
G01 X18.2576 Y20.5461
G01 X18.2440 Y20.5523
G01 X18.2303 Y20.5582
G01 X18.2024 Y20.5690
G01 X18.1740 Y20.5784
G01 X18.1596 Y20.5825
G01 X18.1451 Y20.5863
G01 X18.1159 Y20.5929
G01 X18.0864 Y20.5980
G01 X18.0568 Y20.6017
G01 X18.0418 Y20.6029
G01 X18.0120 Y20.6044
G01 X17.9970 Y20.6046
G01 X16.5470 Y20.6046
G01 X16.5171 Y20.6039
G01 X16.4872 Y20.6017
G01 X16.4724 Y20.6000
G01 X16.4428 Y20.5956
G01 X16.4281 Y20.5929
G01 X16.3989 Y20.5863
G01 X16.3700 Y20.5784
G01 X16.3558 Y20.5738
G01 X16.3276 Y20.5638
G01 X16.3000 Y20.5523
G01 X16.2729 Y20.5395
G01 X16.2596 Y20.5326
G01 X16.2465 Y20.5254
G01 X16.2209 Y20.5100
G01 X16.1960 Y20.4934
G01 X16.1720 Y20.4756
G01 X16.1603 Y20.4662
G01 X16.1376 Y20.4467
G01 X16.1267 Y20.4365
G01 X16.1055 Y20.4153
G01 X16.0854 Y20.3932
G01 X16.0758 Y20.3817
G01 X16.0574 Y20.3581
G01 X16.0401 Y20.3337
G01 X16.0241 Y20.3084
G01 X16.0166 Y20.2955
G01 X16.0020 Y20.2681
G01 X15.9874 Y20.2955
G01 X15.9720 Y20.3211
G01 X15.9554 Y20.3460
G01 X15.9376 Y20.3700
G01 X15.9282 Y20.3817
G01 X15.9186 Y20.3932
G01 X15.8985 Y20.4153
G01 X15.8773 Y20.4365
G01 X15.8552 Y20.4566
G01 X15.8437 Y20.4662
G01 X15.8201 Y20.4846
G01 X15.7957 Y20.5019
G01 X15.7704 Y20.5179
G01 X15.7575 Y20.5254
G01 X15.7444 Y20.5326
G01 X15.7176 Y20.5461
G01 X15.6903 Y20.5582
G01 X15.6624 Y20.5690
G01 X15.6340 Y20.5784
G01 X15.6051 Y20.5863
G01 X15.5759 Y20.5929
G01 X15.5612 Y20.5956
G01 X15.5464 Y20.5980
G01 X15.5168 Y20.6017
G01 X15.4869 Y20.6039
G01 X15.4570 Y20.6046
G01 X14.0070 Y20.6046
G01 X13.9771 Y20.6039
G01 X13.9622 Y20.6029
G01 X13.9324 Y20.6000
G01 X13.9028 Y20.5956
G01 X13.8734 Y20.5898
G01 X13.8589 Y20.5863
G01 X13.8444 Y20.5825
G01 X13.8158 Y20.5738
G01 X13.8016 Y20.5690
G01 X13.7737 Y20.5582
G01 X13.7464 Y20.5461
G01 X13.7329 Y20.5395
G01 X13.7196 Y20.5326
G01 X13.6936 Y20.5179
G01 X13.6683 Y20.5019
G01 X13.6560 Y20.4934
G01 X13.6320 Y20.4756
G01 X13.6203 Y20.4662
G01 X13.5976 Y20.4467
G01 X13.5759 Y20.4261
G01 X13.5655 Y20.4153
G01 X13.5454 Y20.3932
G01 X13.5264 Y20.3700
G01 X13.5086 Y20.3460
G01 X13.5001 Y20.3337
G01 X13.4841 Y20.3084
G01 X13.4766 Y20.2955
G01 X13.4620 Y20.2681
G01 X13.4474 Y20.2955
G01 X13.4320 Y20.3211
G01 X13.4154 Y20.3460
G01 X13.3976 Y20.3700
G01 X13.3882 Y20.3817
G01 X13.3786 Y20.3932
G01 X13.3585 Y20.4153
G01 X13.3373 Y20.4365
G01 X13.3152 Y20.4566
G01 X13.3037 Y20.4662
G01 X13.2801 Y20.4846
G01 X13.2557 Y20.5019
G01 X13.2304 Y20.5179
G01 X13.2175 Y20.5254
G01 X13.2044 Y20.5326
G01 X13.1776 Y20.5461
G01 X13.1503 Y20.5582
G01 X13.1224 Y20.5690
G01 X13.0940 Y20.5784
G01 X13.0651 Y20.5863
G01 X13.0359 Y20.5929
G01 X13.0212 Y20.5956
G01 X13.0064 Y20.5980
G01 X12.9768 Y20.6017
G01 X12.9469 Y20.6039
G01 X12.9170 Y20.6046
G01 X11.4520 Y20.6044
G01 X11.4222 Y20.6029
G01 X11.4072 Y20.6017
G01 X11.3924 Y20.6000
G01 X11.3628 Y20.5956
G01 X11.3481 Y20.5929
G01 X11.3189 Y20.5863
G01 X11.2900 Y20.5784
G01 X11.2616 Y20.5690
G01 X11.2476 Y20.5638
G01 X11.2200 Y20.5523
G01 X11.1929 Y20.5395
G01 X11.1796 Y20.5326
G01 X11.1665 Y20.5254
G01 X11.1409 Y20.5100
G01 X11.1160 Y20.4934
G01 X11.1039 Y20.4846
G01 X11.0803 Y20.4662
G01 X11.0576 Y20.4467
G01 X11.0467 Y20.4365
G01 X11.0255 Y20.4153
G01 X11.0153 Y20.4044
G01 X11.0054 Y20.3932
G01 X10.9864 Y20.3700
G01 X10.9774 Y20.3581
G01 X10.9601 Y20.3337
G01 X10.9441 Y20.3084
G01 X10.9366 Y20.2955
G01 X10.9220 Y20.2681
G01 X10.9074 Y20.2955
G01 X10.8920 Y20.3211
G01 X10.8754 Y20.3460
G01 X10.8576 Y20.3700
G01 X10.8482 Y20.3817
G01 X10.8386 Y20.3932
G01 X10.8185 Y20.4153
G01 X10.7973 Y20.4365
G01 X10.7752 Y20.4566
G01 X10.7637 Y20.4662
G01 X10.7401 Y20.4846
G01 X10.7157 Y20.5019
G01 X10.6904 Y20.5179
G01 X10.6775 Y20.5254
G01 X10.6644 Y20.5326
G01 X10.6376 Y20.5461
G01 X10.6103 Y20.5582
G01 X10.5824 Y20.5690
G01 X10.5540 Y20.5784
G01 X10.5396 Y20.5825
G01 X10.5251 Y20.5863
G01 X10.4959 Y20.5929
G01 X10.4664 Y20.5980
G01 X10.4368 Y20.6017
G01 X10.4218 Y20.6029
G01 X10.3920 Y20.6044
G01 X10.3770 Y20.6046
G01 X8.9270 Y20.6046
G01 X8.8971 Y20.6039
G01 X8.8672 Y20.6017
G01 X8.8524 Y20.6000
G01 X8.8228 Y20.5956
G01 X8.7934 Y20.5898
G01 X8.7644 Y20.5825
G01 X8.7358 Y20.5738
G01 X8.7076 Y20.5638
G01 X8.6800 Y20.5523
G01 X8.6664 Y20.5461
G01 X8.6396 Y20.5326
G01 X8.6265 Y20.5254
G01 X8.6009 Y20.5100
G01 X8.5760 Y20.4934
G01 X8.5639 Y20.4846
G01 X8.5403 Y20.4662
G01 X8.5288 Y20.4566
G01 X8.5067 Y20.4365
G01 X8.4855 Y20.4153
G01 X8.4654 Y20.3932
G01 X8.4558 Y20.3817
G01 X8.4374 Y20.3581
G01 X8.4286 Y20.3460
G01 X8.4120 Y20.3211
G01 X8.3966 Y20.2955
G01 X8.3894 Y20.2824
G01 X8.3759 Y20.2556
G01 X8.3638 Y20.2283
G01 X8.3530 Y20.2004
G01 X8.3436 Y20.1720
G01 X8.3357 Y20.1431
G01 X8.3322 Y20.1286
G01 X8.3264 Y20.0992
G01 X8.3240 Y20.0844
G01 X8.3203 Y20.0548
G01 X8.3181 Y20.0249
G01 X8.3174 Y19.9950
G01 X8.3174 Y19.4669
G01 X8.2936 Y19.4655
G01 X8.2638 Y19.4626
G01 X8.1910 Y19.4518
G01 X8.1617 Y19.4460
G01 X8.1048 Y19.4319
G01 X8.0759 Y19.4239
G01 X8.0475 Y19.4145
G01 X7.9924 Y19.3946
G01 X7.9648 Y19.3832
G01 X7.9117 Y19.3583
G01 X7.8850 Y19.3448
G01 X7.8590 Y19.3301
G01 X7.8088 Y19.2998
G01 X7.7839 Y19.2832
G01 X7.7367 Y19.2484
G01 X7.7131 Y19.2300
G01 X7.6905 Y19.2105
G01 X7.6582 Y19.1811
G01 X7.6365 Y19.1605
G01 X6.3665 Y17.8905
G01 X6.3459 Y17.8688
G01 X6.3066 Y17.8253
G01 X6.2876 Y17.8022
G01 X6.2786 Y17.7903
G01 X6.2526 Y17.7552
G01 X6.2354 Y17.7308
G01 X6.2194 Y17.7055
G01 X6.1894 Y17.6551
G01 X6.1753 Y17.6287
G01 X6.1687 Y17.6153
G01 X6.1501 Y17.5758
G01 X6.1379 Y17.5485
G01 X6.1272 Y17.5206
G01 X6.1076 Y17.4653
G01 X6.0989 Y17.4367
G01 X6.0951 Y17.4222
G01 X6.0845 Y17.3799
G01 X6.0779 Y17.3507
G01 X6.0728 Y17.3212
G01 X6.0644 Y17.2632
G01 X6.0615 Y17.2334
G01 X6.0606 Y17.2185
G01 X6.0584 Y17.1749
G01 X6.0577 Y17.1450
G01 X6.0577 Y15.8417
G01 X5.9842 Y15.7751
G01 X5.9625 Y15.7545
G01 X5.9419 Y15.7328
G01 X5.8749 Y15.6589
G01 X5.8554 Y15.6363
G01 X5.8460 Y15.6246
G01 X5.7688 Y15.5205
G01 X5.7522 Y15.4956
G01 X5.7444 Y15.4829
G01 X5.6931 Y15.3973
G01 X5.6783 Y15.3713
G01 X5.6649 Y15.3446
G01 X5.6223 Y15.2544
G01 X5.6101 Y15.2271
G01 X5.6046 Y15.2132
G01 X5.5658 Y15.1053
G01 X5.5564 Y15.0769
G01 X5.5484 Y15.0480
G01 X5.5242 Y14.9513
G01 X5.5207 Y14.9368
G01 X5.5149 Y14.9074
G01 X5.4959 Y14.7792
G01 X5.4929 Y14.7494
G01 X5.4920 Y14.7345
G01 X5.4871 Y14.6349
G01 X5.4864 Y14.6050
G01 X5.4871 Y14.5751
G01 X5.4920 Y14.4755
G01 X5.4942 Y14.4457
G01 X5.4979 Y14.4160
G01 X5.5125 Y14.3173
G01 X5.5176 Y14.2879
G01 X5.5242 Y14.2587
G01 X5.5484 Y14.1620
G01 X5.5564 Y14.1331
G01 X5.5658 Y14.1047
G01 X5.5994 Y14.0108
G01 X5.6101 Y13.9829
G01 X5.6223 Y13.9556
G01 X5.6715 Y13.8520
G01 X5.6856 Y13.8256
G01 X5.6931 Y13.8127
G01 X5.7444 Y13.7271
G01 X5.7604 Y13.7019
G01 X5.7776 Y13.6774
G01 X5.8370 Y13.5973
G01 X5.8460 Y13.5854
G01 X5.8650 Y13.5623
G01 X5.9419 Y13.4772
G01 X5.9521 Y13.4662
G01 X5.9732 Y13.4451
G01 X6.0581 Y13.3679
G01 X6.0807 Y13.3484
G01 X6.1043 Y13.3300
G01 X6.1844 Y13.2706
G01 X6.2089 Y13.2534
G01 X6.2341 Y13.2374
G01 X6.3197 Y13.1861
G01 X6.3457 Y13.1713
G01 X6.3724 Y13.1579
G01 X6.4626 Y13.1153
G01 X6.4899 Y13.1031
G01 X6.5178 Y13.0924
G01 X6.6259 Y13.0539
G01 X6.6545 Y13.0452
G01 X6.6690 Y13.0414
G01 X6.7657 Y13.0172
G01 X6.7949 Y13.0106
G01 X6.8096 Y13.0079
G01 X6.9230 Y12.9909
G01 X6.9378 Y12.9889
G01 X6.9676 Y12.9859
G01 X7.0821 Y12.9801
G01 X7.1120 Y12.9794
G01 X7.1419 Y12.9801
G01 X7.2415 Y12.9850
G01 X7.2713 Y12.9872
G01 X7.3010 Y12.9909
G01 X7.3997 Y13.0055
G01 X7.4291 Y13.0106
G01 X7.4583 Y13.0172
G01 X7.5550 Y13.0414
G01 X7.5695 Y13.0452
G01 X7.5981 Y13.0539
G01 X7.7062 Y13.0924
G01 X7.7341 Y13.1031
G01 X7.7614 Y13.1153
G01 X7.8516 Y13.1579
G01 X7.8783 Y13.1713
G01 X7.9043 Y13.1861
G01 X7.9899 Y13.2374
G01 X8.0151 Y13.2534
G01 X8.0396 Y13.2706
G01 X8.1197 Y13.3300
G01 X8.1433 Y13.3484
G01 X8.1659 Y13.3679
G01 X8.2398 Y13.4349
G01 X8.2508 Y13.4451
G01 X8.2719 Y13.4662
G01 X8.3491 Y13.5511
G01 X8.3686 Y13.5737
G01 X8.3870 Y13.5973
G01 X8.4464 Y13.6774
G01 X8.4636 Y13.7019
G01 X8.4796 Y13.7271
G01 X8.5309 Y13.8127
G01 X8.5457 Y13.8387
G01 X8.5591 Y13.8654
G01 X8.6017 Y13.9556
G01 X8.6139 Y13.9829
G01 X8.6246 Y14.0108
G01 X8.6631 Y14.1189
G01 X8.6676 Y14.1331
G01 X8.6756 Y14.1620
G01 X8.6998 Y14.2587
G01 X8.7064 Y14.2879
G01 X8.7115 Y14.3173
G01 X8.7261 Y14.4160
G01 X8.7298 Y14.4457
G01 X8.7320 Y14.4755
G01 X8.7369 Y14.5751
G01 X8.7376 Y14.6050
G01 X8.7369 Y14.6349
G01 X8.7320 Y14.7345
G01 X8.7298 Y14.7643
G01 X8.7261 Y14.7940
G01 X8.7115 Y14.8927
G01 X8.7064 Y14.9221
G01 X8.6998 Y14.9513
G01 X8.6756 Y15.0480
G01 X8.6676 Y15.0769
G01 X8.6582 Y15.1053
G01 X8.6246 Y15.1992
G01 X8.6139 Y15.2271
G01 X8.6017 Y15.2544
G01 X8.5525 Y15.3580
G01 X8.5457 Y15.3713
G01 X8.5309 Y15.3973
G01 X8.4796 Y15.4829
G01 X8.4636 Y15.5081
G01 X8.4464 Y15.5326
G01 X8.3870 Y15.6127
G01 X8.3686 Y15.6363
G01 X8.3491 Y15.6589
G01 X8.2821 Y15.7328
G01 X8.2615 Y15.7545
G01 X8.2398 Y15.7751
G01 X8.1663 Y15.8417
G01 X8.1663 Y16.7083
G01 X8.7653 Y17.3073
G01 X8.7934 Y17.3002
G01 X8.8081 Y17.2971
G01 X8.8376 Y17.2920
G01 X8.8524 Y17.2900
G01 X8.8822 Y17.2871
G01 X8.9120 Y17.2856
G01 X8.9270 Y17.2854
G01 X10.3770 Y17.2854
G01 X10.3920 Y17.2856
G01 X10.4218 Y17.2871
G01 X10.4368 Y17.2883
G01 X10.4664 Y17.2920
G01 X10.4959 Y17.2971
G01 X10.5251 Y17.3037
G01 X10.5396 Y17.3075
G01 X10.5540 Y17.3116
G01 X10.5824 Y17.3210
G01 X10.6103 Y17.3318
G01 X10.6376 Y17.3439
G01 X10.6511 Y17.3505
G01 X10.6775 Y17.3646
G01 X10.7031 Y17.3800
G01 X10.7280 Y17.3966
G01 X10.7401 Y17.4054
G01 X10.7637 Y17.4238
G01 X10.7864 Y17.4433
G01 X10.7973 Y17.4535
G01 X10.8081 Y17.4639
G01 X10.8287 Y17.4856
G01 X10.8482 Y17.5083
G01 X10.8576 Y17.5200
G01 X10.8754 Y17.5440
G01 X10.8920 Y17.5689
G01 X10.9074 Y17.5945
G01 X10.9220 Y17.6219
G01 X10.9366 Y17.5945
G01 X10.9441 Y17.5816
G01 X10.9601 Y17.5563
G01 X10.9686 Y17.5440
G01 X10.9864 Y17.5200
G01 X11.0054 Y17.4968
G01 X11.0153 Y17.4856
G01 X11.0255 Y17.4747
G01 X11.0467 Y17.4535
G01 X11.0688 Y17.4334
G01 X11.0920 Y17.4144
G01 X11.1039 Y17.4054
G01 X11.1160 Y17.3966
G01 X11.1377 Y17.3821
G01 X11.1377 Y11.4530
G01 X11.0991 Y11.5346
G01 X11.0857 Y11.5613
G01 X11.0709 Y11.5873
G01 X11.0196 Y11.6729
G01 X11.0036 Y11.6981
G01 X10.9864 Y11.7226
G01 X10.9270 Y11.8027
G01 X10.9086 Y11.8263
G01 X10.8891 Y11.8489
G01 X10.8221 Y11.9228
G01 X10.8015 Y11.9445
G01 X10.7798 Y11.9651
G01 X10.7059 Y12.0321
G01 X10.6833 Y12.0516
G01 X10.6597 Y12.0700
G01 X10.5675 Y12.1382
G01 X10.5426 Y12.1548
G01 X10.5299 Y12.1626
G01 X10.4443 Y12.2139
G01 X10.4183 Y12.2287
G01 X10.3916 Y12.2421
G01 X10.3014 Y12.2847
G01 X10.2741 Y12.2969
G01 X10.2462 Y12.3076
G01 X10.1523 Y12.3412
G01 X10.1239 Y12.3506
G01 X10.0950 Y12.3586
G01 X9.9838 Y12.3863
G01 X9.9691 Y12.3894
G01 X9.9397 Y12.3945
G01 X9.8410 Y12.4091
G01 X9.8262 Y12.4111
G01 X9.7964 Y12.4141
G01 X9.6819 Y12.4199
G01 X9.6520 Y12.4206
G01 X9.6221 Y12.4199
G01 X9.5225 Y12.4150
G01 X9.4927 Y12.4128
G01 X9.4630 Y12.4091
G01 X9.3643 Y12.3945
G01 X9.3349 Y12.3894
G01 X9.3057 Y12.3828
G01 X9.2090 Y12.3586
G01 X9.1801 Y12.3506
G01 X9.1517 Y12.3412
G01 X9.0578 Y12.3076
G01 X9.0299 Y12.2969
G01 X9.0026 Y12.2847
G01 X8.9124 Y12.2421
G01 X8.8857 Y12.2287
G01 X8.8597 Y12.2139
G01 X8.7741 Y12.1626
G01 X8.7489 Y12.1466
G01 X8.7244 Y12.1294
G01 X8.6443 Y12.0700
G01 X8.6207 Y12.0516
G01 X8.5981 Y12.0321
G01 X8.5242 Y11.9651
G01 X8.5025 Y11.9445
G01 X8.4819 Y11.9228
G01 X8.4050 Y11.8377
G01 X8.3954 Y11.8263
G01 X8.3770 Y11.8027
G01 X8.3176 Y11.7226
G01 X8.3088 Y11.7105
G01 X8.2922 Y11.6856
G01 X8.2331 Y11.5873
G01 X8.2183 Y11.5613
G01 X8.2049 Y11.5346
G01 X8.1623 Y11.4444
G01 X8.1501 Y11.4171
G01 X8.1394 Y11.3892
G01 X8.1058 Y11.2953
G01 X8.0964 Y11.2669
G01 X8.0884 Y11.2380
G01 X8.0642 Y11.1413
G01 X8.0576 Y11.1121
G01 X8.0525 Y11.0827
G01 X8.0379 Y10.9840
G01 X8.0359 Y10.9692
G01 X8.0329 Y10.9394
G01 X8.0271 Y10.8249
G01 X8.0264 Y10.7950
G01 X8.0271 Y10.7651
G01 X8.0329 Y10.6506
G01 X8.0359 Y10.6208
G01 X8.0379 Y10.6060
G01 X8.0525 Y10.5073
G01 X8.0576 Y10.4779
G01 X8.0642 Y10.4487
G01 X8.0884 Y10.3520
G01 X8.0964 Y10.3231
G01 X8.1058 Y10.2947
G01 X8.1394 Y10.2008
G01 X8.1501 Y10.1729
G01 X8.1623 Y10.1456
G01 X8.2115 Y10.0420
G01 X8.2256 Y10.0156
G01 X8.2331 Y10.0027
G01 X8.2844 Y9.9171
G01 X8.3004 Y9.8919
G01 X8.3176 Y9.8674
G01 X8.3860 Y9.7754
G01 X8.3954 Y9.7637
G01 X8.4149 Y9.7411
G01 X8.4921 Y9.6562
G01 X8.5025 Y9.6455
G01 X8.5242 Y9.6249
G01 X8.5977 Y9.5583
G01 X8.5977 Y7.3344
G00 Z5.0000
G00 X8.9533 Y7.1954
G01 F100.00
G01 Z-0.2500
G01 F350.00
G01 X8.9390 Y7.1820
G01 X8.9304 Y7.1730
G01 X8.8765 Y7.1135
G01 X8.8648 Y7.0989
G01 X8.8207 Y7.0394
G01 X8.8102 Y7.0240
G01 X8.7688 Y6.9552
G01 X8.7627 Y6.9443
G01 X8.7571 Y6.9332
G01 X8.7254 Y6.8663
G01 X8.7204 Y6.8549
G01 X8.7159 Y6.8433
G01 X8.6910 Y6.7736
G01 X8.6870 Y6.7617
G01 X8.6837 Y6.7497
G01 X8.6657 Y6.6779
G01 X8.6630 Y6.6657
G01 X8.6609 Y6.6534
G01 X8.6500 Y6.5802
G01 X8.6485 Y6.5678
G01 X8.6476 Y6.5554
G01 X8.6439 Y6.4815
G01 X8.6436 Y6.4690
G01 X8.6437 Y4.9548
G01 X8.6476 Y4.8746
G01 X8.6485 Y4.8622
G01 X8.6500 Y4.8498
G01 X8.6609 Y4.7766
G01 X8.6630 Y4.7643
G01 X8.6657 Y4.7521
G01 X8.6837 Y4.6803
G01 X8.6870 Y4.6683
G01 X8.6910 Y4.6564
G01 X8.7159 Y4.5867
G01 X8.7204 Y4.5751
G01 X8.7254 Y4.5637
G01 X8.7571 Y4.4968
G01 X8.7627 Y4.4857
G01 X8.7688 Y4.4748
G01 X8.8069 Y4.4113
G01 X8.8136 Y4.4008
G01 X8.8207 Y4.3906
G01 X8.8648 Y4.3311
G01 X8.8725 Y4.3213
G01 X8.8807 Y4.3119
G01 X8.9304 Y4.2570
G01 X8.9390 Y4.2480
G01 X8.9480 Y4.2394
G01 X9.0029 Y4.1897
G01 X9.0123 Y4.1815
G01 X9.0221 Y4.1738
G01 X9.0816 Y4.1297
G01 X9.0918 Y4.1226
G01 X9.1023 Y4.1159
G01 X9.1658 Y4.0778
G01 X9.1767 Y4.0717
G01 X9.1878 Y4.0661
G01 X9.2547 Y4.0344
G01 X9.2661 Y4.0294
G01 X9.2777 Y4.0249
G01 X9.3474 Y4.0000
G01 X9.3593 Y3.9960
G01 X9.3713 Y3.9927
G01 X9.4431 Y3.9747
G01 X9.4553 Y3.9720
G01 X9.4676 Y3.9699
G01 X9.5408 Y3.9590
G01 X9.5532 Y3.9575
G01 X9.5656 Y3.9566
G01 X9.6395 Y3.9529
G01 X9.6520 Y3.9526
G01 X9.6645 Y3.9529
G01 X9.7384 Y3.9566
G01 X9.7508 Y3.9575
G01 X9.7632 Y3.9590
G01 X9.8364 Y3.9699
G01 X9.8487 Y3.9720
G01 X9.8609 Y3.9747
G01 X9.9327 Y3.9927
G01 X9.9447 Y3.9960
G01 X9.9566 Y4.0000
G01 X10.0263 Y4.0249
G01 X10.0379 Y4.0294
G01 X10.0493 Y4.0344
G01 X10.1162 Y4.0661
G01 X10.1273 Y4.0717
G01 X10.1382 Y4.0778
G01 X10.2017 Y4.1159
G01 X10.2122 Y4.1226
G01 X10.2224 Y4.1297
G01 X10.2819 Y4.1738
G01 X10.2917 Y4.1815
G01 X10.3011 Y4.1897
G01 X10.3560 Y4.2394
G01 X10.3650 Y4.2480
G01 X10.3736 Y4.2570
G01 X10.4233 Y4.3119
G01 X10.4315 Y4.3213
G01 X10.4392 Y4.3311
G01 X10.4833 Y4.3906
G01 X10.4904 Y4.4008
G01 X10.4971 Y4.4113
G01 X10.5352 Y4.4748
G01 X10.5413 Y4.4857
G01 X10.5469 Y4.4968
G01 X10.5786 Y4.5637
G01 X10.5836 Y4.5751
G01 X10.5881 Y4.5867
G01 X10.6130 Y4.6564
G01 X10.6170 Y4.6683
G01 X10.6203 Y4.6803
G01 X10.6383 Y4.7521
G01 X10.6410 Y4.7643
G01 X10.6431 Y4.7766
G01 X10.6540 Y4.8498
G01 X10.6555 Y4.8622
G01 X10.6564 Y4.8746
G01 X10.6601 Y4.9485
G01 X10.6604 Y4.9610
G01 X10.6604 Y6.4690
G01 X10.6601 Y6.4815
G01 X10.6564 Y6.5554
G01 X10.6548 Y6.5740
G01 X10.6431 Y6.6534
G01 X10.6410 Y6.6657
G01 X10.6383 Y6.6779
G01 X10.6203 Y6.7497
G01 X10.6170 Y6.7617
G01 X10.6130 Y6.7736
G01 X10.5881 Y6.8433
G01 X10.5836 Y6.8549
G01 X10.5786 Y6.8663
G01 X10.5442 Y6.9388
G01 X10.5352 Y6.9552
G01 X10.4971 Y7.0187
G01 X10.4904 Y7.0292
G01 X10.4833 Y7.0394
G01 X10.4392 Y7.0989
G01 X10.4275 Y7.1135
G01 X10.3736 Y7.1730
G01 X10.3650 Y7.1820
G01 X10.3507 Y7.1954
G01 X10.3507 Y9.7346
G01 X10.3678 Y9.7462
G01 X10.4479 Y9.8056
G01 X10.4577 Y9.8133
G01 X10.4671 Y9.8214
G01 X10.5410 Y9.8884
G01 X10.5500 Y9.8970
G01 X10.5586 Y9.9060
G01 X10.6256 Y9.9799
G01 X10.6337 Y9.9893
G01 X10.6414 Y9.9991
G01 X10.7008 Y10.0792
G01 X10.7080 Y10.0894
G01 X10.7146 Y10.1000
G01 X10.7659 Y10.1855
G01 X10.7720 Y10.1963
G01 X10.7776 Y10.2075
G01 X10.8203 Y10.2976
G01 X10.8253 Y10.3090
G01 X10.8298 Y10.3206
G01 X10.8634 Y10.4145
G01 X10.8673 Y10.4263
G01 X10.8706 Y10.4384
G01 X10.8949 Y10.5351
G01 X10.8976 Y10.5472
G01 X10.8997 Y10.5595
G01 X10.9144 Y10.6581
G01 X10.9159 Y10.6705
G01 X10.9168 Y10.6830
G01 X10.9217 Y10.7825
G01 X10.9220 Y10.7950
G01 X10.9217 Y10.8075
G01 X10.9168 Y10.9070
G01 X10.9159 Y10.9195
G01 X10.9144 Y10.9319
G01 X10.8997 Y11.0305
G01 X10.8976 Y11.0428
G01 X10.8949 Y11.0549
G01 X10.8706 Y11.1516
G01 X10.8673 Y11.1637
G01 X10.8634 Y11.1755
G01 X10.8298 Y11.2694
G01 X10.8253 Y11.2810
G01 X10.8203 Y11.2924
G01 X10.7776 Y11.3825
G01 X10.7720 Y11.3937
G01 X10.7659 Y11.4045
G01 X10.7146 Y11.4900
G01 X10.7080 Y11.5006
G01 X10.7008 Y11.5108
G01 X10.6414 Y11.5909
G01 X10.6337 Y11.6007
G01 X10.6256 Y11.6101
G01 X10.5586 Y11.6840
G01 X10.5500 Y11.6930
G01 X10.5410 Y11.7016
G01 X10.4671 Y11.7686
G01 X10.4577 Y11.7767
G01 X10.4479 Y11.7844
G01 X10.3678 Y11.8438
G01 X10.3576 Y11.8510
G01 X10.3470 Y11.8576
G01 X10.2615 Y11.9089
G01 X10.2507 Y11.9150
G01 X10.2395 Y11.9206
G01 X10.1494 Y11.9633
G01 X10.1380 Y11.9683
G01 X10.1264 Y11.9728
G01 X10.0325 Y12.0064
G01 X10.0207 Y12.0103
G01 X10.0086 Y12.0136
G01 X9.9119 Y12.0379
G01 X9.8998 Y12.0406
G01 X9.8875 Y12.0427
G01 X9.7889 Y12.0574
G01 X9.7765 Y12.0589
G01 X9.7640 Y12.0598
G01 X9.6645 Y12.0647
G01 X9.6520 Y12.0650
G01 X9.6395 Y12.0647
G01 X9.5400 Y12.0598
G01 X9.5275 Y12.0589
G01 X9.5151 Y12.0574
G01 X9.4165 Y12.0427
G01 X9.4042 Y12.0406
G01 X9.3921 Y12.0379
G01 X9.2954 Y12.0136
G01 X9.2833 Y12.0103
G01 X9.2715 Y12.0064
G01 X9.1776 Y11.9728
G01 X9.1660 Y11.9683
G01 X9.1546 Y11.9633
G01 X9.0645 Y11.9206
G01 X9.0533 Y11.9150
G01 X9.0425 Y11.9089
G01 X8.9570 Y11.8576
G01 X8.9464 Y11.8510
G01 X8.9362 Y11.8438
G01 X8.8561 Y11.7844
G01 X8.8463 Y11.7767
G01 X8.8369 Y11.7686
G01 X8.7630 Y11.7016
G01 X8.7540 Y11.6930
G01 X8.7454 Y11.6840
G01 X8.6784 Y11.6101
G01 X8.6703 Y11.6007
G01 X8.6626 Y11.5909
G01 X8.6032 Y11.5108
G01 X8.5960 Y11.5006
G01 X8.5894 Y11.4900
G01 X8.5381 Y11.4045
G01 X8.5320 Y11.3937
G01 X8.5264 Y11.3825
G01 X8.4837 Y11.2924
G01 X8.4787 Y11.2810
G01 X8.4742 Y11.2694
G01 X8.4406 Y11.1755
G01 X8.4367 Y11.1637
G01 X8.4334 Y11.1516
G01 X8.4091 Y11.0549
G01 X8.4064 Y11.0428
G01 X8.4043 Y11.0305
G01 X8.3896 Y10.9319
G01 X8.3881 Y10.9195
G01 X8.3872 Y10.9070
G01 X8.3823 Y10.8075
G01 X8.3820 Y10.7950
G01 X8.3823 Y10.7825
G01 X8.3872 Y10.6830
G01 X8.3881 Y10.6705
G01 X8.3896 Y10.6581
G01 X8.4043 Y10.5595
G01 X8.4064 Y10.5472
G01 X8.4091 Y10.5351
G01 X8.4334 Y10.4384
G01 X8.4367 Y10.4263
G01 X8.4406 Y10.4145
G01 X8.4742 Y10.3206
G01 X8.4787 Y10.3090
G01 X8.4837 Y10.2976
G01 X8.5264 Y10.2075
G01 X8.5320 Y10.1963
G01 X8.5381 Y10.1855
G01 X8.5894 Y10.1000
G01 X8.5960 Y10.0894
G01 X8.6032 Y10.0792
G01 X8.6626 Y9.9991
G01 X8.6703 Y9.9893
G01 X8.6784 Y9.9799
G01 X8.7454 Y9.9060
G01 X8.7540 Y9.8970
G01 X8.7630 Y9.8884
G01 X8.8369 Y9.8214
G01 X8.8463 Y9.8133
G01 X8.8561 Y9.8056
G01 X8.9362 Y9.7462
G01 X8.9533 Y9.7346
G01 X8.9533 Y7.1954
G00 Z5.0000
G00 X11.1836 Y6.4690
G01 F100.00
G01 Z-0.2500
G01 F350.00
G01 X11.1836 Y4.9610
G01 X11.1839 Y4.9485
G01 X11.1876 Y4.8746
G01 X11.1885 Y4.8622
G01 X11.1900 Y4.8498
G01 X11.2009 Y4.7766
G01 X11.2030 Y4.7643
G01 X11.2057 Y4.7521
G01 X11.2237 Y4.6803
G01 X11.2270 Y4.6683
G01 X11.2310 Y4.6564
G01 X11.2559 Y4.5867
G01 X11.2604 Y4.5751
G01 X11.2654 Y4.5637
G01 X11.2971 Y4.4968
G01 X11.3027 Y4.4857
G01 X11.3088 Y4.4748
G01 X11.3502 Y4.4060
G01 X11.3607 Y4.3906
G01 X11.4048 Y4.3311
G01 X11.4165 Y4.3165
G01 X11.4704 Y4.2570
G01 X11.4790 Y4.2480
G01 X11.4933 Y4.2346
G01 X11.4933 Y3.1750
G01 X11.4936 Y3.1625
G01 X11.4966 Y3.1065
G01 X11.5046 Y3.0510
G01 X11.5067 Y3.0387
G01 X11.5200 Y2.9842
G01 X11.5234 Y2.9722
G01 X11.5273 Y2.9603
G01 X11.5442 Y2.9134
G01 X11.5515 Y2.8962
G01 X11.5758 Y2.8456
G01 X11.5819 Y2.8348
G01 X11.6110 Y2.7868
G01 X11.6182 Y2.7766
G01 X11.6519 Y2.7317
G01 X11.6893 Y2.6900
G01 X11.6979 Y2.6809
G01 X12.9724 Y1.4066
G01 X13.0093 Y1.3730
G01 X13.0187 Y1.3649
G01 X13.0636 Y1.3312
G01 X13.0738 Y1.3240
G01 X13.0843 Y1.3174
G01 X13.1326 Y1.2888
G01 X13.1579 Y1.2765
G01 X13.1946 Y1.2595
G01 X13.2473 Y1.2403
G01 X13.2592 Y1.2364
G01 X13.2712 Y1.2330
G01 X13.3257 Y1.2197
G01 X13.3811 Y1.2112
G01 X13.3997 Y1.2091
G01 X13.4558 Y1.2064
G01 X16.0020 Y1.2063
G01 X16.0145 Y1.2066
G01 X16.0705 Y1.2096
G01 X16.1260 Y1.2176
G01 X16.1383 Y1.2197
G01 X16.1505 Y1.2224
G01 X16.1928 Y1.2330
G01 X16.2108 Y1.2382
G01 X16.2636 Y1.2572
G01 X16.2808 Y1.2645
G01 X16.3314 Y1.2888
G01 X16.3797 Y1.3174
G01 X16.3953 Y1.3276
G01 X16.4404 Y1.3610
G01 X16.4547 Y1.3730
G01 X16.4916 Y1.4066
G01 X17.7704 Y2.6854
G01 X17.8040 Y2.7223
G01 X17.8121 Y2.7317
G01 X17.8458 Y2.7766
G01 X17.8530 Y2.7868
G01 X17.8596 Y2.7973
G01 X17.8882 Y2.8456
G01 X17.8938 Y2.8568
G01 X17.9175 Y2.9076
G01 X17.9367 Y2.9603
G01 X17.9406 Y2.9722
G01 X17.9440 Y2.9842
G01 X17.9573 Y3.0387
G01 X17.9658 Y3.0941
G01 X17.9674 Y3.1065
G01 X17.9683 Y3.1189
G01 X17.9707 Y3.1750
G01 X17.9707 Y9.7346
G01 X17.9878 Y9.7462
G01 X18.0679 Y9.8056
G01 X18.0777 Y9.8133
G01 X18.0871 Y9.8214
G01 X18.1610 Y9.8884
G01 X18.1700 Y9.8970
G01 X18.1786 Y9.9060
G01 X18.2456 Y9.9799
G01 X18.2537 Y9.9893
G01 X18.2614 Y9.9991
G01 X18.3208 Y10.0792
G01 X18.3280 Y10.0894
G01 X18.3346 Y10.1000
G01 X18.3859 Y10.1855
G01 X18.3920 Y10.1963
G01 X18.3976 Y10.2075
G01 X18.4403 Y10.2976
G01 X18.4453 Y10.3090
G01 X18.4498 Y10.3206
G01 X18.4834 Y10.4145
G01 X18.4873 Y10.4263
G01 X18.4906 Y10.4384
G01 X18.5149 Y10.5351
G01 X18.5176 Y10.5472
G01 X18.5197 Y10.5595
G01 X18.5344 Y10.6581
G01 X18.5359 Y10.6705
G01 X18.5368 Y10.6830
G01 X18.5419 Y10.7888
G01 X18.5417 Y10.8075
G01 X18.5368 Y10.9070
G01 X18.5359 Y10.9195
G01 X18.5344 Y10.9319
G01 X18.5197 Y11.0305
G01 X18.5176 Y11.0428
G01 X18.5149 Y11.0549
G01 X18.4906 Y11.1516
G01 X18.4873 Y11.1637
G01 X18.4834 Y11.1755
G01 X18.4498 Y11.2694
G01 X18.4453 Y11.2810
G01 X18.4403 Y11.2924
G01 X18.3976 Y11.3825
G01 X18.3920 Y11.3937
G01 X18.3859 Y11.4045
G01 X18.3346 Y11.4900
G01 X18.3280 Y11.5006
G01 X18.3208 Y11.5108
G01 X18.2614 Y11.5909
G01 X18.2537 Y11.6007
G01 X18.2456 Y11.6101
G01 X18.1786 Y11.6840
G01 X18.1700 Y11.6930
G01 X18.1610 Y11.7016
G01 X18.0871 Y11.7686
G01 X18.0777 Y11.7767
G01 X18.0679 Y11.7844
G01 X17.9878 Y11.8438
G01 X17.9707 Y11.8554
G01 X17.9707 Y17.6410
G01 X18.0032 Y17.6411
G01 X18.0157 Y17.6417
G01 X18.0281 Y17.6429
G01 X18.0404 Y17.6447
G01 X18.0527 Y17.6472
G01 X18.0647 Y17.6502
G01 X18.0767 Y17.6538
G01 X18.0884 Y17.6580
G01 X18.1056 Y17.6654
G01 X18.1167 Y17.6710
G01 X18.1276 Y17.6771
G01 X18.1381 Y17.6838
G01 X18.1483 Y17.6910
G01 X18.1581 Y17.6987
G01 X18.1676 Y17.7068
G01 X18.1766 Y17.7154
G01 X18.1852 Y17.7244
G01 X18.1933 Y17.7339
G01 X18.2010 Y17.7437
G01 X18.2082 Y17.7539
G01 X18.2149 Y17.7644
G01 X18.2210 Y17.7753
G01 X18.2292 Y17.7921
G01 X18.2340 Y17.8036
G01 X18.2382 Y17.8153
G01 X18.2418 Y17.8273
G01 X18.2448 Y17.8393
G01 X18.2473 Y17.8516
G01 X18.2491 Y17.8639
G01 X18.2503 Y17.8763
G01 X18.2509 Y17.8888
G01 X18.2510 Y19.9950
G01 X18.2507 Y20.0075
G01 X18.2491 Y20.0261
G01 X18.2461 Y20.0446
G01 X18.2434 Y20.0567
G01 X18.2382 Y20.0747
G01 X18.2317 Y20.0922
G01 X18.2239 Y20.1092
G01 X18.2180 Y20.1202
G01 X18.2082 Y20.1361
G01 X18.1972 Y20.1513
G01 X18.1893 Y20.1609
G01 X18.1766 Y20.1746
G01 X18.1629 Y20.1873
G01 X18.1533 Y20.1952
G01 X18.1381 Y20.2062
G01 X18.1276 Y20.2129
G01 X18.1112 Y20.2219
G01 X18.0999 Y20.2272
G01 X18.0884 Y20.2320
G01 X18.0707 Y20.2381
G01 X18.0587 Y20.2414
G01 X18.0466 Y20.2441
G01 X18.0343 Y20.2463
G01 X18.0157 Y20.2483
G01 X18.0032 Y20.2489
G01 X16.5470 Y20.2490
G01 X16.5345 Y20.2487
G01 X16.5159 Y20.2471
G01 X16.4974 Y20.2441
G01 X16.4793 Y20.2398
G01 X16.4614 Y20.2342
G01 X16.4498 Y20.2297
G01 X16.4384 Y20.2246
G01 X16.4273 Y20.2190
G01 X16.4164 Y20.2129
G01 X16.4007 Y20.2027
G01 X16.3859 Y20.1913
G01 X16.3764 Y20.1832
G01 X16.3674 Y20.1746
G01 X16.3547 Y20.1609
G01 X16.3468 Y20.1513
G01 X16.3393 Y20.1413
G01 X16.3324 Y20.1309
G01 X16.3260 Y20.1202
G01 X16.3174 Y20.1036
G01 X16.3100 Y20.0864
G01 X16.3058 Y20.0747
G01 X16.3022 Y20.0627
G01 X16.2979 Y20.0446
G01 X16.2957 Y20.0323
G01 X16.2942 Y20.0199
G01 X16.2933 Y20.0075
G01 X16.2930 Y19.9950
G01 X16.2930 Y17.8950
G01 X16.2937 Y17.8763
G01 X16.2949 Y17.8639
G01 X16.2967 Y17.8516
G01 X16.2992 Y17.8393
G01 X16.3022 Y17.8273
G01 X16.3058 Y17.8153
G01 X16.3100 Y17.8036
G01 X16.3148 Y17.7921
G01 X16.3201 Y17.7808
G01 X16.3260 Y17.7698
G01 X16.3324 Y17.7591
G01 X16.3393 Y17.7487
G01 X16.3468 Y17.7387
G01 X16.3547 Y17.7291
G01 X16.3674 Y17.7154
G01 X16.3764 Y17.7068
G01 X16.3859 Y17.6987
G01 X16.3957 Y17.6910
G01 X16.4059 Y17.6838
G01 X16.4164 Y17.6771
G01 X16.4273 Y17.6710
G01 X16.4384 Y17.6654
G01 X16.4498 Y17.6603
G01 X16.4614 Y17.6558
G01 X16.4733 Y17.6519
G01 X16.4853 Y17.6486
G01 X16.4974 Y17.6459
G01 X16.5097 Y17.6437
G01 X16.5221 Y17.6422
G01 X16.5408 Y17.6411
G01 X16.5733 Y17.6410
G01 X16.5733 Y11.8554
G01 X16.5562 Y11.8438
G01 X16.4761 Y11.7844
G01 X16.4663 Y11.7767
G01 X16.4569 Y11.7686
G01 X16.3830 Y11.7016
G01 X16.3740 Y11.6930
G01 X16.3654 Y11.6840
G01 X16.2984 Y11.6101
G01 X16.2903 Y11.6007
G01 X16.2826 Y11.5909
G01 X16.2232 Y11.5108
G01 X16.2160 Y11.5006
G01 X16.2094 Y11.4900
G01 X16.1581 Y11.4045
G01 X16.1520 Y11.3937
G01 X16.1464 Y11.3825
G01 X16.1037 Y11.2924
G01 X16.0987 Y11.2810
G01 X16.0942 Y11.2694
G01 X16.0606 Y11.1755
G01 X16.0567 Y11.1637
G01 X16.0534 Y11.1516
G01 X16.0291 Y11.0549
G01 X16.0264 Y11.0428
G01 X16.0243 Y11.0305
G01 X16.0096 Y10.9319
G01 X16.0081 Y10.9195
G01 X16.0072 Y10.9070
G01 X16.0023 Y10.8075
G01 X16.0021 Y10.7888
G01 X16.0072 Y10.6830
G01 X16.0081 Y10.6705
G01 X16.0096 Y10.6581
G01 X16.0243 Y10.5595
G01 X16.0264 Y10.5472
G01 X16.0291 Y10.5351
G01 X16.0534 Y10.4384
G01 X16.0567 Y10.4263
G01 X16.0606 Y10.4145
G01 X16.0942 Y10.3206
G01 X16.0987 Y10.3090
G01 X16.1037 Y10.2976
G01 X16.1464 Y10.2075
G01 X16.1520 Y10.1963
G01 X16.1581 Y10.1855
G01 X16.2094 Y10.1000
G01 X16.2160 Y10.0894
G01 X16.2232 Y10.0792
G01 X16.2826 Y9.9991
G01 X16.2903 Y9.9893
G01 X16.2984 Y9.9799
G01 X16.3654 Y9.9060
G01 X16.3740 Y9.8970
G01 X16.3830 Y9.8884
G01 X16.4569 Y9.8214
G01 X16.4663 Y9.8133
G01 X16.4761 Y9.8056
G01 X16.5562 Y9.7462
G01 X16.5733 Y9.7346
G01 X16.5733 Y3.4644
G01 X15.7126 Y2.6037
G01 X13.7514 Y2.6037
G01 X12.8907 Y3.4644
G01 X12.8907 Y4.2346
G01 X12.9006 Y4.2436
G01 X12.9094 Y4.2524
G01 X12.9633 Y4.3119
G01 X12.9715 Y4.3213
G01 X12.9792 Y4.3311
G01 X13.0233 Y4.3906
G01 X13.0304 Y4.4008
G01 X13.0371 Y4.4113
G01 X13.0752 Y4.4748
G01 X13.0813 Y4.4857
G01 X13.0869 Y4.4968
G01 X13.1186 Y4.5637
G01 X13.1236 Y4.5751
G01 X13.1281 Y4.5867
G01 X13.1530 Y4.6564
G01 X13.1570 Y4.6683
G01 X13.1603 Y4.6803
G01 X13.1783 Y4.7521
G01 X13.1810 Y4.7643
G01 X13.1831 Y4.7766
G01 X13.1940 Y4.8498
G01 X13.1955 Y4.8622
G01 X13.1964 Y4.8746
G01 X13.2001 Y4.9485
G01 X13.2004 Y4.9610
G01 X13.2004 Y6.4690
G01 X13.2001 Y6.4815
G01 X13.1964 Y6.5554
G01 X13.1955 Y6.5678
G01 X13.1940 Y6.5802
G01 X13.1831 Y6.6534
G01 X13.1810 Y6.6657
G01 X13.1783 Y6.6779
G01 X13.1603 Y6.7497
G01 X13.1570 Y6.7617
G01 X13.1530 Y6.7736
G01 X13.1281 Y6.8433
G01 X13.1236 Y6.8549
G01 X13.1186 Y6.8663
G01 X13.0842 Y6.9388
G01 X13.0752 Y6.9552
G01 X13.0371 Y7.0187
G01 X13.0304 Y7.0292
G01 X13.0233 Y7.0394
G01 X12.9792 Y7.0989
G01 X12.9675 Y7.1135
G01 X12.9136 Y7.1730
G01 X12.9050 Y7.1820
G01 X12.8907 Y7.1954
G01 X12.8907 Y17.6410
G01 X12.9232 Y17.6411
G01 X12.9357 Y17.6417
G01 X12.9481 Y17.6429
G01 X12.9604 Y17.6447
G01 X12.9727 Y17.6472
G01 X12.9847 Y17.6502
G01 X12.9967 Y17.6538
G01 X13.0084 Y17.6580
G01 X13.0199 Y17.6628
G01 X13.0312 Y17.6681
G01 X13.0422 Y17.6740
G01 X13.0529 Y17.6804
G01 X13.0683 Y17.6910
G01 X13.0781 Y17.6987
G01 X13.0876 Y17.7068
G01 X13.1010 Y17.7199
G01 X13.1093 Y17.7291
G01 X13.1172 Y17.7387
G01 X13.1247 Y17.7487
G01 X13.1316 Y17.7591
G01 X13.1380 Y17.7698
G01 X13.1439 Y17.7808
G01 X13.1492 Y17.7921
G01 X13.1540 Y17.8036
G01 X13.1601 Y17.8213
G01 X13.1634 Y17.8333
G01 X13.1661 Y17.8454
G01 X13.1683 Y17.8577
G01 X13.1698 Y17.8701
G01 X13.1707 Y17.8825
G01 X13.1710 Y17.8950
G01 X13.1710 Y19.9950
G01 X13.1707 Y20.0075
G01 X13.1698 Y20.0199
G01 X13.1673 Y20.0384
G01 X13.1648 Y20.0507
G01 X13.1618 Y20.0627
G01 X13.1562 Y20.0806
G01 X13.1517 Y20.0922
G01 X13.1466 Y20.1036
G01 X13.1380 Y20.1202
G01 X13.1316 Y20.1309
G01 X13.1247 Y20.1413
G01 X13.1133 Y20.1561
G01 X13.1052 Y20.1656
G01 X13.0966 Y20.1746
G01 X13.0876 Y20.1832
G01 X13.0781 Y20.1913
G01 X13.0633 Y20.2027
G01 X13.0476 Y20.2129
G01 X13.0312 Y20.2219
G01 X13.0199 Y20.2272
G01 X13.0084 Y20.2320
G01 X12.9907 Y20.2381
G01 X12.9787 Y20.2414
G01 X12.9666 Y20.2441
G01 X12.9481 Y20.2471
G01 X12.9295 Y20.2487
G01 X12.9170 Y20.2490
G01 X11.4670 Y20.2490
G01 X11.4545 Y20.2487
G01 X11.4359 Y20.2471
G01 X11.4174 Y20.2441
G01 X11.3993 Y20.2398
G01 X11.3814 Y20.2342
G01 X11.3698 Y20.2297
G01 X11.3584 Y20.2246
G01 X11.3473 Y20.2190
G01 X11.3364 Y20.2129
G01 X11.3207 Y20.2027
G01 X11.3059 Y20.1913
G01 X11.2964 Y20.1832
G01 X11.2874 Y20.1746
G01 X11.2747 Y20.1609
G01 X11.2630 Y20.1463
G01 X11.2558 Y20.1361
G01 X11.2491 Y20.1256
G01 X11.2401 Y20.1092
G01 X11.2323 Y20.0922
G01 X11.2278 Y20.0806
G01 X11.2239 Y20.0687
G01 X11.2192 Y20.0507
G01 X11.2167 Y20.0384
G01 X11.2149 Y20.0261
G01 X11.2133 Y20.0075
G01 X11.2130 Y19.9950
G01 X11.2130 Y17.8950
G01 X11.2137 Y17.8763
G01 X11.2149 Y17.8639
G01 X11.2167 Y17.8516
G01 X11.2192 Y17.8393
G01 X11.2239 Y17.8213
G01 X11.2278 Y17.8094
G01 X11.2323 Y17.7978
G01 X11.2374 Y17.7864
G01 X11.2430 Y17.7753
G01 X11.2491 Y17.7644
G01 X11.2558 Y17.7539
G01 X11.2630 Y17.7437
G01 X11.2707 Y17.7339
G01 X11.2788 Y17.7244
G01 X11.2874 Y17.7154
G01 X11.2964 Y17.7068
G01 X11.3059 Y17.6987
G01 X11.3157 Y17.6910
G01 X11.3259 Y17.6838
G01 X11.3364 Y17.6771
G01 X11.3473 Y17.6710
G01 X11.3584 Y17.6654
G01 X11.3698 Y17.6603
G01 X11.3814 Y17.6558
G01 X11.3933 Y17.6519
G01 X11.4053 Y17.6486
G01 X11.4174 Y17.6459
G01 X11.4297 Y17.6437
G01 X11.4421 Y17.6422
G01 X11.4608 Y17.6411
G01 X11.4933 Y17.6410
G01 X11.4933 Y7.1954
G01 X11.4834 Y7.1864
G01 X11.4746 Y7.1776
G01 X11.4207 Y7.1181
G01 X11.4125 Y7.1087
G01 X11.4048 Y7.0989
G01 X11.3607 Y7.0394
G01 X11.3536 Y7.0292
G01 X11.3469 Y7.0187
G01 X11.3088 Y6.9552
G01 X11.3027 Y6.9443
G01 X11.2971 Y6.9332
G01 X11.2654 Y6.8663
G01 X11.2604 Y6.8549
G01 X11.2559 Y6.8433
G01 X11.2310 Y6.7736
G01 X11.2270 Y6.7617
G01 X11.2237 Y6.7497
G01 X11.2057 Y6.6779
G01 X11.2030 Y6.6657
G01 X11.2009 Y6.6534
G01 X11.1900 Y6.5802
G01 X11.1885 Y6.5678
G01 X11.1876 Y6.5554
G01 X11.1839 Y6.4815
G01 X11.1836 Y6.4690
G00 Z5.0000
G00 X13.4620 Y4.4645
G01 F100.00
G01 Z-0.2500
G01 F350.00
G01 X13.4522 Y4.4390
G01 X13.4463 Y4.4253
G01 X13.4084 Y4.3448
G01 X13.3949 Y4.3180
G01 X13.3802 Y4.2920
G01 X13.3421 Y4.2285
G01 X13.3261 Y4.2032
G01 X13.3089 Y4.1788
G01 X13.2648 Y4.1193
G01 X13.2463 Y4.0956
G01 X13.2463 Y3.6117
G01 X13.8987 Y2.9593
G01 X15.5653 Y2.9593
G01 X16.2177 Y3.6117
G01 X16.2177 Y9.5583
G01 X16.1442 Y9.6249
G01 X16.1225 Y9.6455
G01 X16.1121 Y9.6562
G01 X16.0250 Y9.7523
G01 X16.0060 Y9.7754
G01 X15.9970 Y9.7873
G01 X15.9288 Y9.8795
G01 X15.9204 Y9.8919
G01 X15.9044 Y9.9171
G01 X15.8531 Y10.0027
G01 X15.8383 Y10.0287
G01 X15.8249 Y10.0554
G01 X15.7863 Y10.1370
G01 X15.7863 Y7.3344
G01 X15.8048 Y7.3107
G01 X15.8489 Y7.2512
G01 X15.8661 Y7.2268
G01 X15.8821 Y7.2015
G01 X15.9202 Y7.1380
G01 X15.9349 Y7.1120
G01 X15.9484 Y7.0852
G01 X15.9863 Y7.0047
G01 X15.9922 Y6.9910
G01 X16.0029 Y6.9631
G01 X16.0279 Y6.8934
G01 X16.0372 Y6.8649
G01 X16.0452 Y6.8361
G01 X16.0632 Y6.7643
G01 X16.0698 Y6.7351
G01 X16.0749 Y6.7056
G01 X16.0857 Y6.6324
G01 X16.0894 Y6.6027
G01 X16.0916 Y6.5729
G01 X16.0958 Y6.4840
G01 X16.0960 Y4.9610
G01 X16.0952 Y4.9311
G01 X16.0916 Y4.8571
G01 X16.0907 Y4.8422
G01 X16.0878 Y4.8124
G01 X16.0749 Y4.7244
G01 X16.0698 Y4.6949
G01 X16.0632 Y4.6657
G01 X16.0452 Y4.5939
G01 X16.0372 Y4.5651
G01 X16.0279 Y4.5366
G01 X16.0029 Y4.4669
G01 X15.9922 Y4.4390
G01 X15.9800 Y4.4117
G01 X15.9484 Y4.3448
G01 X15.9349 Y4.3180
G01 X15.9202 Y4.2920
G01 X15.8821 Y4.2285
G01 X15.8661 Y4.2032
G01 X15.8576 Y4.1909
G01 X15.8048 Y4.1193
G01 X15.7864 Y4.0957
G01 X15.7668 Y4.0730
G01 X15.7069 Y4.0072
G01 X15.6858 Y3.9861
G01 X15.6748 Y3.9759
G01 X15.6200 Y3.9262
G01 X15.5973 Y3.9066
G01 X15.5737 Y3.8882
G01 X15.5142 Y3.8441
G01 X15.4898 Y3.8269
G01 X15.4645 Y3.8109
G01 X15.4010 Y3.7728
G01 X15.3750 Y3.7581
G01 X15.3482 Y3.7446
G01 X15.2813 Y3.7130
G01 X15.2540 Y3.7008
G01 X15.2401 Y3.6953
G01 X15.1564 Y3.6651
G01 X15.1279 Y3.6558
G01 X15.0991 Y3.6478
G01 X15.0273 Y3.6298
G01 X14.9981 Y3.6232
G01 X14.9686 Y3.6181
G01 X14.8954 Y3.6073
G01 X14.8806 Y3.6052
G01 X14.8508 Y3.6023
G01 X14.7619 Y3.5978
G01 X14.7320 Y3.5970
G01 X14.7021 Y3.5978
G01 X14.6281 Y3.6014
G01 X14.5983 Y3.6036
G01 X14.5686 Y3.6073
G01 X14.4954 Y3.6181
G01 X14.4806 Y3.6205
G01 X14.4513 Y3.6263
G01 X14.3649 Y3.6478
G01 X14.3361 Y3.6558
G01 X14.3076 Y3.6651
G01 X14.2239 Y3.6953
G01 X14.1963 Y3.7067
G01 X14.1827 Y3.7130
G01 X14.1158 Y3.7446
G01 X14.0890 Y3.7581
G01 X14.0630 Y3.7728
G01 X13.9995 Y3.8109
G01 X13.9742 Y3.8269
G01 X13.9498 Y3.8441
G01 X13.8903 Y3.8882
G01 X13.8667 Y3.9066
G01 X13.8440 Y3.9262
G01 X13.7892 Y3.9759
G01 X13.7675 Y3.9965
G01 X13.7571 Y4.0072
G01 X13.6972 Y4.0730
G01 X13.6776 Y4.0957
G01 X13.6592 Y4.1193
G01 X13.6151 Y4.1788
G01 X13.5979 Y4.2032
G01 X13.5819 Y4.2285
G01 X13.5438 Y4.2920
G01 X13.5291 Y4.3180
G01 X13.5156 Y4.3448
G01 X13.4777 Y4.4253
G01 X13.4718 Y4.4390
G01 X13.4620 Y4.4645
G00 Z5.0000
G00 X13.9104 Y3.4505
G01 F100.00
G01 Z-0.2500
G01 F350.00
G01 X14.0460 Y3.3149
G01 X14.2347 Y3.3149
G01 X14.2103 Y3.3226
G01 X14.1878 Y3.3303
G01 X14.1181 Y3.3553
G01 X14.0959 Y3.3635
G01 X14.0739 Y3.3723
G01 X14.0522 Y3.3817
G01 X14.0306 Y3.3915
G01 X13.9637 Y3.4232
G01 X13.9424 Y3.4336
G01 X13.9104 Y3.4505
G00 Z5.0000
G00 X15.2293 Y3.3149
G01 F100.00
G01 Z-0.2500
G01 F350.00
G01 X15.4180 Y3.3149
G01 X15.5536 Y3.4505
G01 X15.5216 Y3.4336
G01 X15.5003 Y3.4232
G01 X15.4334 Y3.3915
G01 X15.4118 Y3.3817
G01 X15.3901 Y3.3723
G01 X15.3681 Y3.3635
G01 X15.3459 Y3.3553
G01 X15.2762 Y3.3303
G01 X15.2537 Y3.3226
G01 X15.2293 Y3.3149
G00 Z5.0000
G00 X11.1377 Y10.1370
G01 F100.00
G01 Z-0.2500
G01 F350.00
G01 X11.0991 Y10.0554
G01 X11.0857 Y10.0287
G01 X11.0709 Y10.0027
G01 X11.0196 Y9.9171
G01 X11.0036 Y9.8919
G01 X10.9952 Y9.8795
G01 X10.9270 Y9.7873
G01 X10.9086 Y9.7637
G01 X10.8990 Y9.7523
G01 X10.8119 Y9.6562
G01 X10.8015 Y9.6455
G01 X10.7798 Y9.6249
G01 X10.7063 Y9.5583
G01 X10.7063 Y7.3344
G01 X10.7248 Y7.3107
G01 X10.7689 Y7.2512
G01 X10.7861 Y7.2268
G01 X10.8021 Y7.2015
G01 X10.8402 Y7.1380
G01 X10.8549 Y7.1120
G01 X10.8684 Y7.0852
G01 X10.9063 Y7.0047
G01 X10.9122 Y6.9910
G01 X10.9220 Y6.9655
G01 X10.9318 Y6.9910
G01 X10.9377 Y7.0047
G01 X10.9756 Y7.0852
G01 X10.9891 Y7.1120
G01 X11.0038 Y7.1380
G01 X11.0419 Y7.2015
G01 X11.0579 Y7.2268
G01 X11.0751 Y7.2512
G01 X11.1192 Y7.3107
G01 X11.1377 Y7.3344
G01 X11.1377 Y10.1370
G00 Z5.0000
G00 X8.7707 Y12.9591
G01 F100.00
G01 Z-0.2500
G01 F350.00
G01 X8.7878 Y12.9660
G01 X8.8182 Y12.9773
G01 X8.9121 Y13.0108
G01 X8.9428 Y13.0214
G01 X8.9737 Y13.0312
G01 X9.0048 Y13.0402
G01 X9.0361 Y13.0485
G01 X9.1329 Y13.0727
G01 X9.1644 Y13.0802
G01 X9.1961 Y13.0869
G01 X9.2280 Y13.0928
G01 X9.2600 Y13.0980
G01 X9.3586 Y13.1126
G01 X9.3907 Y13.1170
G01 X9.4230 Y13.1205
G01 X9.4553 Y13.1233
G01 X9.4876 Y13.1253
G01 X9.5872 Y13.1302
G01 X9.6196 Y13.1314
G01 X9.6520 Y13.1318
G01 X9.6844 Y13.1314
G01 X9.7168 Y13.1302
G01 X9.8164 Y13.1253
G01 X9.8487 Y13.1233
G01 X9.8810 Y13.1205
G01 X9.9133 Y13.1170
G01 X9.9454 Y13.1126
G01 X10.0440 Y13.0980
G01 X10.0760 Y13.0928
G01 X10.1079 Y13.0869
G01 X10.1396 Y13.0802
G01 X10.1711 Y13.0727
G01 X10.2679 Y13.0485
G01 X10.2992 Y13.0402
G01 X10.3303 Y13.0312
G01 X10.3612 Y13.0214
G01 X10.4265 Y12.9985
G01 X10.4265 Y16.5752
G01 X10.4094 Y16.5746
G01 X10.3770 Y16.5742
G01 X9.0380 Y16.5742
G01 X8.8775 Y16.4137
G01 X8.8775 Y16.1348
G01 X8.8975 Y16.1123
G01 X8.9184 Y16.0875
G01 X8.9386 Y16.0621
G01 X8.9583 Y16.0363
G01 X9.0176 Y15.9563
G01 X9.0366 Y15.9300
G01 X9.0550 Y15.9033
G01 X9.0727 Y15.8761
G01 X9.0897 Y15.8485
G01 X9.1409 Y15.7630
G01 X9.1572 Y15.7350
G01 X9.1729 Y15.7066
G01 X9.1878 Y15.6778
G01 X9.2020 Y15.6487
G01 X9.2447 Y15.5585
G01 X9.2581 Y15.5290
G01 X9.2709 Y15.4993
G01 X9.2830 Y15.4692
G01 X9.2943 Y15.4388
G01 X9.3278 Y15.3449
G01 X9.3384 Y15.3142
G01 X9.3482 Y15.2833
G01 X9.3572 Y15.2522
G01 X9.3655 Y15.2209
G01 X9.3897 Y15.1241
G01 X9.3972 Y15.0926
G01 X9.4039 Y15.0609
G01 X9.4098 Y15.0290
G01 X9.4150 Y14.9970
G01 X9.4296 Y14.8984
G01 X9.4340 Y14.8663
G01 X9.4375 Y14.8340
G01 X9.4403 Y14.8017
G01 X9.4423 Y14.7694
G01 X9.4472 Y14.6698
G01 X9.4484 Y14.6374
G01 X9.4488 Y14.6050
G01 X9.4484 Y14.5726
G01 X9.4472 Y14.5402
G01 X9.4423 Y14.4406
G01 X9.4403 Y14.4083
G01 X9.4375 Y14.3760
G01 X9.4340 Y14.3437
G01 X9.4296 Y14.3116
G01 X9.4150 Y14.2130
G01 X9.4098 Y14.1810
G01 X9.4039 Y14.1491
G01 X9.3972 Y14.1174
G01 X9.3897 Y14.0859
G01 X9.3655 Y13.9891
G01 X9.3572 Y13.9578
G01 X9.3482 Y13.9267
G01 X9.3384 Y13.8958
G01 X9.3278 Y13.8651
G01 X9.2943 Y13.7712
G01 X9.2830 Y13.7408
G01 X9.2709 Y13.7107
G01 X9.2581 Y13.6810
G01 X9.2447 Y13.6515
G01 X9.2020 Y13.5613
G01 X9.1878 Y13.5322
G01 X9.1729 Y13.5034
G01 X9.1572 Y13.4750
G01 X9.1409 Y13.4470
G01 X9.0897 Y13.3615
G01 X9.0727 Y13.3339
G01 X9.0550 Y13.3067
G01 X9.0366 Y13.2800
G01 X9.0176 Y13.2537
G01 X8.9583 Y13.1737
G01 X8.9386 Y13.1479
G01 X8.9184 Y13.1225
G01 X8.8975 Y13.0977
G01 X8.8760 Y13.0735
G01 X8.8091 Y12.9996
G01 X8.7870 Y12.9758
G01 X8.7707 Y12.9591
G00 Z5.0000
G00 X6.4133 Y15.6654
G01 F100.00
G01 Z-0.2500
G01 F350.00
G01 X6.3962 Y15.6538
G01 X6.3161 Y15.5944
G01 X6.3063 Y15.5867
G01 X6.2969 Y15.5786
G01 X6.2230 Y15.5116
G01 X6.2140 Y15.5030
G01 X6.2054 Y15.4940
G01 X6.1384 Y15.4201
G01 X6.1303 Y15.4107
G01 X6.1226 Y15.4009
G01 X6.0632 Y15.3208
G01 X6.0560 Y15.3106
G01 X6.0494 Y15.3000
G01 X5.9981 Y15.2145
G01 X5.9920 Y15.2037
G01 X5.9864 Y15.1925
G01 X5.9437 Y15.1024
G01 X5.9387 Y15.0910
G01 X5.9342 Y15.0794
G01 X5.9006 Y14.9855
G01 X5.8967 Y14.9737
G01 X5.8934 Y14.9616
G01 X5.8691 Y14.8649
G01 X5.8664 Y14.8528
G01 X5.8643 Y14.8405
G01 X5.8496 Y14.7419
G01 X5.8481 Y14.7295
G01 X5.8472 Y14.7170
G01 X5.8423 Y14.6175
G01 X5.8420 Y14.6050
G01 X5.8423 Y14.5925
G01 X5.8472 Y14.4930
G01 X5.8481 Y14.4805
G01 X5.8496 Y14.4681
G01 X5.8643 Y14.3695
G01 X5.8664 Y14.3572
G01 X5.8691 Y14.3451
G01 X5.8934 Y14.2484
G01 X5.8967 Y14.2363
G01 X5.9006 Y14.2245
G01 X5.9342 Y14.1306
G01 X5.9387 Y14.1190
G01 X5.9437 Y14.1076
G01 X5.9864 Y14.0175
G01 X5.9920 Y14.0063
G01 X5.9981 Y13.9955
G01 X6.0494 Y13.9100
G01 X6.0560 Y13.8994
G01 X6.0632 Y13.8892
G01 X6.1226 Y13.8091
G01 X6.1303 Y13.7993
G01 X6.1384 Y13.7899
G01 X6.2054 Y13.7160
G01 X6.2140 Y13.7070
G01 X6.2230 Y13.6984
G01 X6.2969 Y13.6314
G01 X6.3063 Y13.6233
G01 X6.3161 Y13.6156
G01 X6.3962 Y13.5562
G01 X6.4064 Y13.5490
G01 X6.4170 Y13.5424
G01 X6.5025 Y13.4911
G01 X6.5133 Y13.4850
G01 X6.5245 Y13.4794
G01 X6.6146 Y13.4367
G01 X6.6260 Y13.4317
G01 X6.6376 Y13.4272
G01 X6.7315 Y13.3936
G01 X6.7433 Y13.3897
G01 X6.7554 Y13.3864
G01 X6.8521 Y13.3621
G01 X6.8642 Y13.3594
G01 X6.8765 Y13.3573
G01 X6.9751 Y13.3426
G01 X6.9875 Y13.3411
G01 X7.0000 Y13.3402
G01 X7.0995 Y13.3353
G01 X7.1120 Y13.3350
G01 X7.1245 Y13.3353
G01 X7.2240 Y13.3402
G01 X7.2365 Y13.3411
G01 X7.2489 Y13.3426
G01 X7.3475 Y13.3573
G01 X7.3598 Y13.3594
G01 X7.3719 Y13.3621
G01 X7.4686 Y13.3864
G01 X7.4807 Y13.3897
G01 X7.4925 Y13.3936
G01 X7.5864 Y13.4272
G01 X7.5980 Y13.4317
G01 X7.6094 Y13.4367
G01 X7.6995 Y13.4794
G01 X7.7107 Y13.4850
G01 X7.7215 Y13.4911
G01 X7.8070 Y13.5424
G01 X7.8176 Y13.5490
G01 X7.8278 Y13.5562
G01 X7.9079 Y13.6156
G01 X7.9177 Y13.6233
G01 X7.9271 Y13.6314
G01 X8.0010 Y13.6984
G01 X8.0100 Y13.7070
G01 X8.0186 Y13.7160
G01 X8.0856 Y13.7899
G01 X8.0937 Y13.7993
G01 X8.1014 Y13.8091
G01 X8.1608 Y13.8892
G01 X8.1680 Y13.8994
G01 X8.1746 Y13.9100
G01 X8.2259 Y13.9955
G01 X8.2320 Y14.0063
G01 X8.2376 Y14.0175
G01 X8.2803 Y14.1076
G01 X8.2853 Y14.1190
G01 X8.2898 Y14.1306
G01 X8.3234 Y14.2245
G01 X8.3273 Y14.2363
G01 X8.3306 Y14.2484
G01 X8.3549 Y14.3451
G01 X8.3576 Y14.3572
G01 X8.3597 Y14.3695
G01 X8.3744 Y14.4681
G01 X8.3759 Y14.4805
G01 X8.3768 Y14.4930
G01 X8.3817 Y14.5925
G01 X8.3820 Y14.6050
G01 X8.3817 Y14.6175
G01 X8.3768 Y14.7170
G01 X8.3759 Y14.7295
G01 X8.3744 Y14.7419
G01 X8.3597 Y14.8405
G01 X8.3576 Y14.8528
G01 X8.3549 Y14.8649
G01 X8.3306 Y14.9616
G01 X8.3273 Y14.9737
G01 X8.3234 Y14.9855
G01 X8.2898 Y15.0794
G01 X8.2853 Y15.0910
G01 X8.2803 Y15.1024
G01 X8.2376 Y15.1925
G01 X8.2320 Y15.2037
G01 X8.2259 Y15.2145
G01 X8.1746 Y15.3000
G01 X8.1680 Y15.3106
G01 X8.1608 Y15.3208
G01 X8.1014 Y15.4009
G01 X8.0937 Y15.4107
G01 X8.0856 Y15.4201
G01 X8.0186 Y15.4940
G01 X8.0100 Y15.5030
G01 X8.0010 Y15.5116
G01 X7.9271 Y15.5786
G01 X7.9177 Y15.5867
G01 X7.9079 Y15.5944
G01 X7.8278 Y15.6538
G01 X7.8107 Y15.6654
G01 X7.8107 Y16.8556
G01 X8.6714 Y17.7163
G01 X8.7465 Y17.7163
G01 X8.7611 Y17.7027
G01 X8.7707 Y17.6948
G01 X8.7807 Y17.6873
G01 X8.7911 Y17.6804
G01 X8.8018 Y17.6740
G01 X8.8128 Y17.6681
G01 X8.8241 Y17.6628
G01 X8.8356 Y17.6580
G01 X8.8473 Y17.6538
G01 X8.8593 Y17.6502
G01 X8.8713 Y17.6472
G01 X8.8897 Y17.6437
G01 X8.9021 Y17.6422
G01 X8.9145 Y17.6413
G01 X8.9270 Y17.6410
G01 X10.3770 Y17.6410
G01 X10.3895 Y17.6413
G01 X10.4019 Y17.6422
G01 X10.4204 Y17.6447
G01 X10.4327 Y17.6472
G01 X10.4447 Y17.6502
G01 X10.4626 Y17.6558
G01 X10.4742 Y17.6603
G01 X10.4856 Y17.6654
G01 X10.4967 Y17.6710
G01 X10.5076 Y17.6771
G01 X10.5181 Y17.6838
G01 X10.5333 Y17.6948
G01 X10.5429 Y17.7027
G01 X10.5521 Y17.7110
G01 X10.5610 Y17.7199
G01 X10.5733 Y17.7339
G01 X10.5810 Y17.7437
G01 X10.5882 Y17.7539
G01 X10.5980 Y17.7698
G01 X10.6066 Y17.7864
G01 X10.6117 Y17.7978
G01 X10.6162 Y17.8094
G01 X10.6201 Y17.8213
G01 X10.6234 Y17.8333
G01 X10.6273 Y17.8516
G01 X10.6298 Y17.8701
G01 X10.6309 Y17.8888
G01 X10.6310 Y19.9950
G01 X10.6307 Y20.0075
G01 X10.6291 Y20.0261
G01 X10.6273 Y20.0384
G01 X10.6248 Y20.0507
G01 X10.6218 Y20.0627
G01 X10.6182 Y20.0747
G01 X10.6140 Y20.0864
G01 X10.6092 Y20.0979
G01 X10.6039 Y20.1092
G01 X10.5980 Y20.1202
G01 X10.5882 Y20.1361
G01 X10.5810 Y20.1463
G01 X10.5733 Y20.1561
G01 X10.5652 Y20.1656
G01 X10.5566 Y20.1746
G01 X10.5476 Y20.1832
G01 X10.5333 Y20.1952
G01 X10.5233 Y20.2027
G01 X10.5129 Y20.2096
G01 X10.5022 Y20.2160
G01 X10.4912 Y20.2219
G01 X10.4742 Y20.2297
G01 X10.4626 Y20.2342
G01 X10.4507 Y20.2381
G01 X10.4327 Y20.2428
G01 X10.4143 Y20.2463
G01 X10.4019 Y20.2478
G01 X10.3895 Y20.2487
G01 X10.3770 Y20.2490
G01 X8.9270 Y20.2490
G01 X8.9145 Y20.2487
G01 X8.9021 Y20.2478
G01 X8.8897 Y20.2463
G01 X8.8774 Y20.2441
G01 X8.8593 Y20.2398
G01 X8.8473 Y20.2362
G01 X8.8356 Y20.2320
G01 X8.8241 Y20.2272
G01 X8.8128 Y20.2219
G01 X8.8018 Y20.2160
G01 X8.7911 Y20.2096
G01 X8.7807 Y20.2027
G01 X8.7707 Y20.1952
G01 X8.7611 Y20.1873
G01 X8.7474 Y20.1746
G01 X8.7388 Y20.1656
G01 X8.7307 Y20.1561
G01 X8.7230 Y20.1463
G01 X8.7124 Y20.1309
G01 X8.7030 Y20.1147
G01 X8.6974 Y20.1036
G01 X8.6923 Y20.0922
G01 X8.6858 Y20.0747
G01 X8.6806 Y20.0567
G01 X8.6779 Y20.0446
G01 X8.6757 Y20.0323
G01 X8.6737 Y20.0137
G01 X8.6730 Y19.9950
G01 X8.6730 Y19.1137
G01 X8.3758 Y19.1136
G01 X8.3259 Y19.1113
G01 X8.3135 Y19.1104
G01 X8.3011 Y19.1088
G01 X8.2457 Y19.1003
G01 X8.1912 Y19.0870
G01 X8.1792 Y19.0836
G01 X8.1262 Y19.0650
G01 X8.1146 Y19.0605
G01 X8.1032 Y19.0555
G01 X8.0582 Y19.0341
G01 X8.0418 Y19.0251
G01 X7.9938 Y18.9960
G01 X7.9486 Y18.9628
G01 X7.9387 Y18.9551
G01 X7.9293 Y18.9470
G01 X7.8879 Y18.9091
G01 X6.6136 Y17.6346
G01 X6.5800 Y17.5977
G01 X6.5719 Y17.5883
G01 X6.5382 Y17.5434
G01 X6.5310 Y17.5332
G01 X6.5244 Y17.5227
G01 X6.5019 Y17.4852
G01 X6.4929 Y17.4688
G01 X6.4715 Y17.4238
G01 X6.4642 Y17.4066
G01 X6.4452 Y17.3538
G01 X6.4400 Y17.3358
G01 X6.4267 Y17.2813
G01 X6.4182 Y17.2259
G01 X6.4161 Y17.2073
G01 X6.4136 Y17.1575
G01 X6.4133 Y17.1450
G01 X6.4133 Y15.6654
G00 Z5.0000
G00 X13.2463 Y13.9470
G01 F100.00
G01 Z-0.2500
G01 F350.00
G01 X13.2463 Y7.3344
G01 X13.2648 Y7.3107
G01 X13.3089 Y7.2512
G01 X13.3261 Y7.2268
G01 X13.3421 Y7.2015
G01 X13.3802 Y7.1380
G01 X13.3949 Y7.1120
G01 X13.4084 Y7.0852
G01 X13.4463 Y7.0047
G01 X13.4522 Y6.9910
G01 X13.4620 Y6.9655
G01 X13.4718 Y6.9910
G01 X13.4777 Y7.0047
G01 X13.5156 Y7.0852
G01 X13.5291 Y7.1120
G01 X13.5438 Y7.1380
G01 X13.5819 Y7.2015
G01 X13.5979 Y7.2268
G01 X13.6151 Y7.2512
G01 X13.6592 Y7.3107
G01 X13.6777 Y7.3344
G01 X13.6777 Y13.3683
G01 X13.6042 Y13.4349
G01 X13.5825 Y13.4555
G01 X13.5721 Y13.4662
G01 X13.4850 Y13.5623
G01 X13.4754 Y13.5737
G01 X13.4570 Y13.5973
G01 X13.3888 Y13.6895
G01 X13.3722 Y13.7144
G01 X13.3644 Y13.7271
G01 X13.3131 Y13.8127
G01 X13.2983 Y13.8387
G01 X13.2849 Y13.8654
G01 X13.2463 Y13.9470
G00 Z5.0000
G00 X16.2177 Y15.2630
G01 F100.00
G01 Z-0.2500
G01 F350.00
G01 X16.2177 Y17.3821
G01 X16.1960 Y17.3966
G01 X16.1839 Y17.4054
G01 X16.1603 Y17.4238
G01 X16.1488 Y17.4334
G01 X16.1267 Y17.4535
G01 X16.1055 Y17.4747
G01 X16.0953 Y17.4856
G01 X16.0758 Y17.5083
G01 X16.0664 Y17.5200
G01 X16.0574 Y17.5319
G01 X16.0401 Y17.5563
G01 X16.0241 Y17.5816
G01 X16.0166 Y17.5945
G01 X16.0020 Y17.6219
G01 X15.9874 Y17.5945
G01 X15.9720 Y17.5689
G01 X15.9639 Y17.5563
G01 X15.9466 Y17.5319
G01 X15.9376 Y17.5200
G01 X15.9186 Y17.4968
G01 X15.9087 Y17.4856
G01 X15.8985 Y17.4747
G01 X15.8773 Y17.4535
G01 X15.8552 Y17.4334
G01 X15.8437 Y17.4238
G01 X15.8201 Y17.4054
G01 X15.8080 Y17.3966
G01 X15.7863 Y17.3821
G01 X15.7863 Y15.8417
G01 X15.8598 Y15.7751
G01 X15.8815 Y15.7545
G01 X15.8919 Y15.7438
G01 X15.9790 Y15.6477
G01 X15.9886 Y15.6363
G01 X16.0070 Y15.6127
G01 X16.0752 Y15.5205
G01 X16.0836 Y15.5081
G01 X16.0996 Y15.4829
G01 X16.1509 Y15.3973
G01 X16.1657 Y15.3713
G01 X16.1791 Y15.3446
G01 X16.2177 Y15.2630
G00 Z5.0000
G00 X14.0070 Y17.6410
G01 F100.00
G01 Z-0.2500
G01 F350.00
G01 X14.0333 Y17.6410
G01 X14.0333 Y15.6654
G01 X14.0162 Y15.6538
G01 X13.9361 Y15.5944
G01 X13.9263 Y15.5867
G01 X13.9169 Y15.5786
G01 X13.8430 Y15.5116
G01 X13.8340 Y15.5030
G01 X13.8254 Y15.4940
G01 X13.7584 Y15.4201
G01 X13.7503 Y15.4107
G01 X13.7426 Y15.4009
G01 X13.6832 Y15.3208
G01 X13.6760 Y15.3106
G01 X13.6694 Y15.3000
G01 X13.6181 Y15.2145
G01 X13.6120 Y15.2037
G01 X13.6064 Y15.1925
G01 X13.5637 Y15.1024
G01 X13.5587 Y15.0910
G01 X13.5542 Y15.0794
G01 X13.5206 Y14.9855
G01 X13.5167 Y14.9737
G01 X13.5134 Y14.9616
G01 X13.4891 Y14.8649
G01 X13.4864 Y14.8528
G01 X13.4843 Y14.8405
G01 X13.4696 Y14.7419
G01 X13.4681 Y14.7295
G01 X13.4672 Y14.7170
G01 X13.4621 Y14.6112
G01 X13.4623 Y14.5925
G01 X13.4672 Y14.4930
G01 X13.4681 Y14.4805
G01 X13.4696 Y14.4681
G01 X13.4843 Y14.3695
G01 X13.4864 Y14.3572
G01 X13.4891 Y14.3451
G01 X13.5134 Y14.2484
G01 X13.5167 Y14.2363
G01 X13.5206 Y14.2245
G01 X13.5542 Y14.1306
G01 X13.5587 Y14.1190
G01 X13.5637 Y14.1076
G01 X13.6064 Y14.0175
G01 X13.6120 Y14.0063
G01 X13.6181 Y13.9955
G01 X13.6694 Y13.9100
G01 X13.6760 Y13.8994
G01 X13.6832 Y13.8892
G01 X13.7426 Y13.8091
G01 X13.7503 Y13.7993
G01 X13.7584 Y13.7899
G01 X13.8254 Y13.7160
G01 X13.8340 Y13.7070
G01 X13.8430 Y13.6984
G01 X13.9169 Y13.6314
G01 X13.9263 Y13.6233
G01 X13.9361 Y13.6156
G01 X14.0162 Y13.5562
G01 X14.0333 Y13.5446
G01 X14.0333 Y7.1954
G01 X14.0190 Y7.1820
G01 X14.0104 Y7.1730
G01 X13.9565 Y7.1135
G01 X13.9448 Y7.0989
G01 X13.9007 Y7.0394
G01 X13.8936 Y7.0292
G01 X13.8869 Y7.0187
G01 X13.8488 Y6.9552
G01 X13.8398 Y6.9388
G01 X13.8054 Y6.8663
G01 X13.8004 Y6.8549
G01 X13.7959 Y6.8433
G01 X13.7710 Y6.7736
G01 X13.7670 Y6.7617
G01 X13.7637 Y6.7497
G01 X13.7457 Y6.6779
G01 X13.7430 Y6.6657
G01 X13.7409 Y6.6534
G01 X13.7292 Y6.5740
G01 X13.7276 Y6.5554
G01 X13.7239 Y6.4815
G01 X13.7236 Y6.4690
G01 X13.7236 Y4.9610
G01 X13.7239 Y4.9485
G01 X13.7276 Y4.8746
G01 X13.7285 Y4.8622
G01 X13.7300 Y4.8498
G01 X13.7409 Y4.7766
G01 X13.7430 Y4.7643
G01 X13.7457 Y4.7521
G01 X13.7637 Y4.6803
G01 X13.7670 Y4.6683
G01 X13.7710 Y4.6564
G01 X13.7959 Y4.5867
G01 X13.8004 Y4.5751
G01 X13.8054 Y4.5637
G01 X13.8371 Y4.4968
G01 X13.8427 Y4.4857
G01 X13.8488 Y4.4748
G01 X13.8869 Y4.4113
G01 X13.8936 Y4.4008
G01 X13.9007 Y4.3906
G01 X13.9448 Y4.3311
G01 X13.9525 Y4.3213
G01 X13.9607 Y4.3119
G01 X14.0104 Y4.2570
G01 X14.0190 Y4.2480
G01 X14.0280 Y4.2394
G01 X14.0875 Y4.1855
G01 X14.1021 Y4.1738
G01 X14.1616 Y4.1297
G01 X14.1718 Y4.1226
G01 X14.1823 Y4.1159
G01 X14.2458 Y4.0778
G01 X14.2567 Y4.0717
G01 X14.2678 Y4.0661
G01 X14.3347 Y4.0344
G01 X14.3461 Y4.0294
G01 X14.3577 Y4.0249
G01 X14.4274 Y4.0000
G01 X14.4393 Y3.9960
G01 X14.4513 Y3.9927
G01 X14.5231 Y3.9747
G01 X14.5353 Y3.9720
G01 X14.5476 Y3.9699
G01 X14.6208 Y3.9590
G01 X14.6332 Y3.9575
G01 X14.6456 Y3.9566
G01 X14.7195 Y3.9529
G01 X14.7320 Y3.9526
G01 X14.7445 Y3.9529
G01 X14.8184 Y3.9566
G01 X14.8308 Y3.9575
G01 X14.8432 Y3.9590
G01 X14.9226 Y3.9709
G01 X14.9409 Y3.9747
G01 X15.0127 Y3.9927
G01 X15.0307 Y3.9979
G01 X15.1063 Y4.0249
G01 X15.1179 Y4.0294
G01 X15.1293 Y4.0344
G01 X15.1962 Y4.0661
G01 X15.2073 Y4.0717
G01 X15.2182 Y4.0778
G01 X15.2817 Y4.1159
G01 X15.2922 Y4.1226
G01 X15.3024 Y4.1297
G01 X15.3619 Y4.1738
G01 X15.3717 Y4.1815
G01 X15.3811 Y4.1897
G01 X15.4360 Y4.2394
G01 X15.4494 Y4.2524
G01 X15.5033 Y4.3119
G01 X15.5115 Y4.3213
G01 X15.5192 Y4.3311
G01 X15.5633 Y4.3906
G01 X15.5704 Y4.4008
G01 X15.5771 Y4.4113
G01 X15.6152 Y4.4748
G01 X15.6213 Y4.4857
G01 X15.6269 Y4.4968
G01 X15.6586 Y4.5637
G01 X15.6636 Y4.5751
G01 X15.6681 Y4.5867
G01 X15.6930 Y4.6564
G01 X15.6970 Y4.6683
G01 X15.7003 Y4.6803
G01 X15.7183 Y4.7521
G01 X15.7210 Y4.7643
G01 X15.7231 Y4.7766
G01 X15.7340 Y4.8498
G01 X15.7355 Y4.8622
G01 X15.7364 Y4.8746
G01 X15.7401 Y4.9485
G01 X15.7404 Y4.9610
G01 X15.7404 Y6.4690
G01 X15.7401 Y6.4815
G01 X15.7364 Y6.5554
G01 X15.7355 Y6.5678
G01 X15.7340 Y6.5802
G01 X15.7231 Y6.6534
G01 X15.7210 Y6.6657
G01 X15.7183 Y6.6779
G01 X15.7003 Y6.7497
G01 X15.6970 Y6.7617
G01 X15.6930 Y6.7736
G01 X15.6681 Y6.8433
G01 X15.6636 Y6.8549
G01 X15.6586 Y6.8663
G01 X15.6242 Y6.9388
G01 X15.6152 Y6.9552
G01 X15.5771 Y7.0187
G01 X15.5704 Y7.0292
G01 X15.5633 Y7.0394
G01 X15.5192 Y7.0989
G01 X15.5075 Y7.1135
G01 X15.4536 Y7.1730
G01 X15.4450 Y7.1820
G01 X15.4307 Y7.1954
G01 X15.4307 Y13.5446
G01 X15.4478 Y13.5562
G01 X15.5279 Y13.6156
G01 X15.5377 Y13.6233
G01 X15.5471 Y13.6314
G01 X15.6210 Y13.6984
G01 X15.6300 Y13.7070
G01 X15.6386 Y13.7160
G01 X15.7056 Y13.7899
G01 X15.7137 Y13.7993
G01 X15.7214 Y13.8091
G01 X15.7808 Y13.8892
G01 X15.7880 Y13.8994
G01 X15.7946 Y13.9100
G01 X15.8459 Y13.9955
G01 X15.8520 Y14.0063
G01 X15.8576 Y14.0175
G01 X15.9003 Y14.1076
G01 X15.9053 Y14.1190
G01 X15.9098 Y14.1306
G01 X15.9434 Y14.2245
G01 X15.9473 Y14.2363
G01 X15.9506 Y14.2484
G01 X15.9749 Y14.3451
G01 X15.9776 Y14.3572
G01 X15.9797 Y14.3695
G01 X15.9944 Y14.4681
G01 X15.9959 Y14.4805
G01 X15.9968 Y14.4930
G01 X16.0017 Y14.5925
G01 X16.0020 Y14.6050
G01 X16.0017 Y14.6175
G01 X15.9968 Y14.7170
G01 X15.9959 Y14.7295
G01 X15.9944 Y14.7419
G01 X15.9797 Y14.8405
G01 X15.9776 Y14.8528
G01 X15.9749 Y14.8649
G01 X15.9506 Y14.9616
G01 X15.9473 Y14.9737
G01 X15.9434 Y14.9855
G01 X15.9098 Y15.0794
G01 X15.9053 Y15.0910
G01 X15.9003 Y15.1024
G01 X15.8576 Y15.1925
G01 X15.8520 Y15.2037
G01 X15.8459 Y15.2145
G01 X15.7946 Y15.3000
G01 X15.7880 Y15.3106
G01 X15.7808 Y15.3208
G01 X15.7214 Y15.4009
G01 X15.7137 Y15.4107
G01 X15.7056 Y15.4201
G01 X15.6386 Y15.4940
G01 X15.6300 Y15.5030
G01 X15.6210 Y15.5116
G01 X15.5471 Y15.5786
G01 X15.5377 Y15.5867
G01 X15.5279 Y15.5944
G01 X15.4478 Y15.6538
G01 X15.4307 Y15.6654
G01 X15.4307 Y17.6410
G01 X15.4632 Y17.6411
G01 X15.4757 Y17.6417
G01 X15.4881 Y17.6429
G01 X15.5004 Y17.6447
G01 X15.5127 Y17.6472
G01 X15.5247 Y17.6502
G01 X15.5367 Y17.6538
G01 X15.5484 Y17.6580
G01 X15.5599 Y17.6628
G01 X15.5712 Y17.6681
G01 X15.5822 Y17.6740
G01 X15.5929 Y17.6804
G01 X15.6083 Y17.6910
G01 X15.6181 Y17.6987
G01 X15.6276 Y17.7068
G01 X15.6366 Y17.7154
G01 X15.6452 Y17.7244
G01 X15.6533 Y17.7339
G01 X15.6610 Y17.7437
G01 X15.6682 Y17.7539
G01 X15.6749 Y17.7644
G01 X15.6810 Y17.7753
G01 X15.6866 Y17.7864
G01 X15.6917 Y17.7978
G01 X15.6962 Y17.8094
G01 X15.7001 Y17.8213
G01 X15.7034 Y17.8333
G01 X15.7073 Y17.8516
G01 X15.7091 Y17.8639
G01 X15.7103 Y17.8763
G01 X15.7109 Y17.8888
G01 X15.7110 Y19.9950
G01 X15.7107 Y20.0075
G01 X15.7098 Y20.0199
