(G-CODE GENERATED BY FLATCAM v8.994 - www.flatcam.org - Version Date: 2020/11/7)

(Name: copper_top.gbr_noncopper_mt_paint_cnc)
(Type: G-code from Geometry)
(Units: MM)

(Created on Saturday, 02 April 2022 at 15:45)


G01 F400.00

M5
G00 Z15.0000
G00 X0.0000 Y0.0000
T2
M6    
(MSG, Change to Tool Dia = 1.5875)
M0
G00 Z15.0000

M03 S22250.0
G01 F400.00
G00 X-0.5567 Y-0.7460
G01 F190.00
G01 Z-0.2500
G01 F400.00
G01 X-0.5567 Y60.3737
G01 X24.9407 Y60.3737
G01 X24.9407 Y-0.7460
G01 X-0.5567 Y-0.7460
G01 X3.5708 Y9.8409
G01 X3.6415 Y9.7887
G01 X3.6958 Y9.7495
G01 X3.7554 Y9.7078
G01 X3.8240 Y9.6614
G01 X3.8431 Y9.5680
G01 X3.8624 Y9.4815
G01 X3.8802 Y9.4072
G01 X3.9138 Y9.2736
G01 X3.9326 Y9.2028
G01 X3.9560 Y9.1201
G01 X3.9779 Y9.0473
G01 X4.0000 Y8.9774
G01 X4.0149 Y8.9324
G01 X4.0336 Y8.8780
G01 X4.0803 Y8.7468
G01 X4.1072 Y8.6735
G01 X4.1357 Y8.5997
G01 X4.1716 Y8.5112
G01 X4.1991 Y8.4467
G01 X4.2338 Y8.3686
G01 X4.2742 Y8.2818
G01 X4.2426 Y8.1865
G01 X4.2135 Y8.0923
G01 X4.1983 Y8.0401
G01 X4.1838 Y7.9883
G01 X4.1594 Y7.8960
G01 X4.1274 Y7.7673
G01 X4.1154 Y7.7160
G01 X4.1023 Y7.6573
G01 X4.0905 Y7.6011
G01 X4.0806 Y7.5514
G01 X4.0706 Y7.4980
G01 X4.0607 Y7.4419
G01 X4.0451 Y7.3445
G01 X4.0314 Y7.2525
G01 X4.0235 Y7.1956
G01 X4.0115 Y7.0982
G01 X4.0013 Y7.0001
G01 X3.9966 Y6.9460
G01 X3.9925 Y6.8923
G01 X3.9867 Y6.7986
G01 X3.9802 Y6.6615
G01 X3.9783 Y6.6056
G01 X3.9770 Y6.5423
G01 X3.9764 Y6.4690
G01 X3.9765 Y4.9278
G01 X3.9776 Y4.8529
G01 X3.9806 Y4.7575
G01 X3.9867 Y4.6314
G01 X3.9918 Y4.5471
G01 X3.9974 Y4.4745
G01 X4.0050 Y4.3921
G01 X4.0122 Y4.3255
G01 X4.0198 Y4.2627
G01 X4.0305 Y4.1838
G01 X4.0460 Y4.0792
G01 X4.0565 Y4.0131
G01 X4.0678 Y3.9475
G01 X4.0806 Y3.8786
G01 X4.0930 Y3.8165
G01 X4.1057 Y3.7572
G01 X4.1211 Y3.6893
G01 X4.1368 Y3.6242
G01 X4.1646 Y3.5140
G01 X4.1813 Y3.4508
G01 X4.1994 Y3.3859
G01 X3.5708 Y3.3850
G01 X3.5708 Y9.8409
G01 X2.5389 Y12.8314
G01 X2.5561 Y12.7870
G01 X2.5753 Y12.7395
G01 X2.5948 Y12.6928
G01 X2.6228 Y12.6285
G01 X2.6574 Y12.5533
G01 X2.7041 Y12.4546
G01 X2.7334 Y12.3944
G01 X2.7563 Y12.3492
G01 X2.7770 Y12.3094
G01 X2.8009 Y12.2648
G01 X2.8226 Y12.2256
G01 X2.8654 Y12.1510
G01 X2.9328 Y12.0383
G01 X2.9746 Y11.9705
G01 X2.9984 Y11.9331
G01 X3.0264 Y11.8903
G01 X3.0511 Y11.8535
G01 X3.0765 Y11.8166
G01 X3.1057 Y11.7752
G01 X3.1357 Y11.7338
G01 X3.2197 Y11.6208
G01 X3.2488 Y11.5826
G01 X3.2801 Y11.5427
G01 X3.3081 Y11.5078
G01 X3.3403 Y11.4687
G01 X3.3692 Y11.4345
G01 X3.4065 Y11.3914
G01 X3.4427 Y11.3509
G01 X3.5117 Y11.2746
G01 X3.5637 Y11.2185
G01 X3.6211 Y11.1589
G01 X3.6569 Y11.1230
G01 X3.6889 Y11.0917
G01 X3.7255 Y11.0567
G01 X3.7629 Y11.0218
G01 X3.8814 Y10.9145
G01 X3.9175 Y10.8829
G01 X3.9559 Y10.8499
G01 X3.9903 Y10.8212
G01 X4.0296 Y10.7892
G01 X4.0846 Y10.7457
G01 X4.1202 Y10.7185
G01 X4.2408 Y10.6287
G01 X4.2822 Y10.5987
G01 X4.3236 Y10.5695
G01 X4.3605 Y10.5441
G01 X4.3973 Y10.5194
G01 X4.4401 Y10.4914
G01 X4.4775 Y10.4676
G01 X4.5453 Y10.4258
G01 X4.6362 Y10.3713
G01 X4.6831 Y10.3438
G01 X4.7326 Y10.3156
G01 X4.7724 Y10.2936
G01 X4.7785 Y10.2382
G01 X4.7856 Y10.1816
G01 X4.7932 Y10.1279
G01 X4.8097 Y10.0167
G01 X4.8182 Y9.9631
G01 X4.8268 Y9.9132
G01 X4.8349 Y9.8691
G01 X4.8447 Y9.8194
G01 X4.8566 Y9.7632
G01 X4.8692 Y9.7076
G01 X4.8819 Y9.6548
G01 X4.9093 Y9.5458
G01 X4.9230 Y9.4933
G01 X4.9364 Y9.4444
G01 X4.9488 Y9.4014
G01 X4.9616 Y9.3589
G01 X4.9808 Y9.2981
G01 X4.9988 Y9.2440
G01 X5.0167 Y9.1928
G01 X5.0513 Y9.0959
G01 X5.0801 Y9.0183
G01 X5.0961 Y8.9770
G01 X5.1153 Y8.9295
G01 X5.1323 Y8.8886
G01 X5.1526 Y8.8417
G01 X5.1732 Y8.7954
G01 X5.1960 Y8.7461
G01 X5.2414 Y8.6503
G01 X5.2650 Y8.6014
G01 X5.2905 Y8.5504
G01 X5.3179 Y8.4977
G01 X5.3179 Y8.1354
G01 X5.2930 Y8.0680
G01 X5.2649 Y7.9893
G01 X5.2492 Y7.9440
G01 X5.2253 Y7.8719
G01 X5.2028 Y7.7988
G01 X5.1851 Y7.7375
G01 X5.1636 Y7.6576
G01 X5.1333 Y7.5366
G01 X5.1145 Y7.4560
G01 X5.1000 Y7.3874
G01 X5.0915 Y7.3439
G01 X5.0822 Y7.2936
G01 X5.0692 Y7.2150
G01 X5.0522 Y7.1011
G01 X5.0428 Y7.0316
G01 X5.0339 Y6.9557
G01 X5.0271 Y6.8863
G01 X5.0203 Y6.7975
G01 X5.0167 Y6.7369
G01 X5.0114 Y6.6251
G01 X5.0092 Y6.5518
G01 X5.0084 Y6.4943
G01 X5.0084 Y4.9262
G01 X5.0098 Y4.8529
G01 X5.0117 Y4.7986
G01 X5.0167 Y4.6931
G01 X5.0203 Y4.6325
G01 X5.0254 Y4.5631
G01 X5.0319 Y4.4932
G01 X5.0374 Y4.4424
G01 X5.0452 Y4.3796
G01 X5.0535 Y4.3195
G01 X5.0701 Y4.2087
G01 X5.0822 Y4.1364
G01 X5.0915 Y4.0861
G01 X5.1051 Y4.0178
G01 X5.1201 Y3.9493
G01 X5.1363 Y3.8811
G01 X5.1573 Y3.7970
G01 X5.1733 Y3.7352
G01 X5.1902 Y3.6742
G01 X5.2046 Y3.6251
G01 X5.2253 Y3.5581
G01 X5.2431 Y3.5040
G01 X5.2597 Y3.4556
G01 X5.2941 Y3.3590
G01 X5.3151 Y3.3021
G01 X5.3378 Y3.2431
G01 X5.3570 Y3.1956
G01 X5.3842 Y3.1310
G01 X5.4123 Y3.0673
G01 X5.4377 Y3.0123
G01 X5.4831 Y2.9168
G01 X5.5070 Y2.8680
G01 X5.5389 Y2.8056
G01 X5.5656 Y2.7552
G01 X5.5933 Y2.7049
G01 X5.6215 Y2.6554
G01 X5.6507 Y2.6059
G01 X5.6953 Y2.5315
G01 X5.7287 Y2.4772
G01 X5.7699 Y2.4128
G01 X5.8075 Y2.3564
G01 X2.5389 Y2.3516
G01 X2.5389 Y12.8314
G01 X2.5389 Y16.3786
G01 X2.5389 Y32.1191
G01 X2.5974 Y32.0521
G01 X2.6649 Y31.9776
G01 X2.7195 Y31.9195
G01 X2.7751 Y31.8626
G01 X4.0541 Y30.5836
G01 X4.0928 Y30.5456
G01 X4.1387 Y30.5020
G01 X4.1762 Y30.4672
G01 X4.2250 Y30.4230
G01 X4.2751 Y30.3786
G01 X4.3184 Y30.3415
G01 X4.3723 Y30.2967
G01 X4.4221 Y30.2568
G01 X4.4826 Y30.2101
G01 X4.5480 Y30.1613
G01 X4.5996 Y30.1237
G01 X4.6514 Y30.0872
G01 X4.6936 Y30.0584
G01 X4.7575 Y30.0164
G01 X4.8110 Y29.9825
G01 X4.8627 Y29.9508
G01 X4.9328 Y29.9090
G01 X4.9963 Y29.8725
G01 X5.0522 Y29.8417
G01 X5.1047 Y29.8138
G01 X5.0896 Y29.7287
G01 X5.0779 Y29.6532
G01 X5.0685 Y29.5837
G01 X5.0632 Y29.5397
G01 X5.0583 Y29.4951
G01 X5.0512 Y29.4190
G01 X5.0456 Y29.3432
G01 X5.0409 Y29.2542
G01 X5.0386 Y29.1778
G01 X5.0376 Y29.0950
G01 X5.0376 Y26.9950
G01 X5.0382 Y26.9312
G01 X5.0397 Y26.8679
G01 X5.0430 Y26.7915
G01 X5.0469 Y26.7278
G01 X5.0529 Y26.6516
G01 X5.0596 Y26.5823
G01 X5.0685 Y26.5063
G01 X5.0770 Y26.4431
G01 X5.0886 Y26.3675
G01 X5.1005 Y26.2989
G01 X5.1149 Y26.2238
G01 X5.1281 Y26.1614
G01 X5.1452 Y26.0869
G01 X5.1620 Y26.0193
G01 X5.1820 Y25.9455
G01 X5.1997 Y25.8842
G01 X5.2164 Y25.8297
G01 X5.2400 Y25.7570
G01 X5.2587 Y25.7026
G01 X5.2758 Y25.6550
G01 X5.2915 Y25.6130
G01 X5.3098 Y25.5658
G01 X5.3265 Y25.5242
G01 X5.3460 Y25.4774
G01 X5.3637 Y25.4363
G01 X5.3843 Y25.3900
G01 X5.4030 Y25.3493
G01 X5.4247 Y25.3035
G01 X5.4445 Y25.2633
G01 X5.4673 Y25.2181
G01 X5.4880 Y25.1784
G01 X5.5120 Y25.1337
G01 X5.5336 Y25.0945
G01 X5.5587 Y25.0505
G01 X5.5813 Y25.0118
G01 X5.6074 Y24.9684
G01 X5.6310 Y24.9303
G01 X5.6581 Y24.8875
G01 X5.6826 Y24.8500
G01 X5.7108 Y24.8080
G01 X5.7362 Y24.7711
G01 X5.7655 Y24.7297
G01 X5.7918 Y24.6934
G01 X5.8220 Y24.6528
G01 X5.8492 Y24.6172
G01 X5.8804 Y24.5773
G01 X5.9085 Y24.5424
G01 X5.9407 Y24.5032
G01 X5.9696 Y24.4690
G01 X6.0069 Y24.4260
G01 X6.0367 Y24.3925
G01 X6.0708 Y24.3551
G01 X6.1015 Y24.3223
G01 X6.1365 Y24.2858
G01 X6.1679 Y24.2538
G01 X6.2038 Y24.2181
G01 X6.2360 Y24.1869
G01 X6.2728 Y24.1521
G01 X6.3057 Y24.1217
G01 X6.3434 Y24.0878
G01 X6.3770 Y24.0583
G01 X6.4155 Y24.0253
G01 X6.4499 Y23.9966
G01 X6.4891 Y23.9646
G01 X6.5442 Y23.9211
G01 X6.5797 Y23.8938
G01 X6.6203 Y23.8635
G01 X6.6565 Y23.8372
G01 X6.6979 Y23.8079
G01 X6.7347 Y23.7824
G01 X6.7768 Y23.7541
G01 X6.8142 Y23.7296
G01 X6.8569 Y23.7023
G01 X6.8950 Y23.6787
G01 X6.9384 Y23.6525
G01 X6.9770 Y23.6298
G01 X7.0210 Y23.6047
G01 X7.0602 Y23.5830
G01 X7.1048 Y23.5590
G01 X7.1445 Y23.5382
G01 X7.1896 Y23.5153
G01 X7.2309 Y23.4950
G01 X7.1953 Y23.4775
G01 X7.1501 Y23.4547
G01 X7.1104 Y23.4340
G01 X7.0657 Y23.4100
G01 X6.9935 Y23.3696
G01 X6.9547 Y23.3472
G01 X6.9166 Y23.3245
G01 X6.8730 Y23.2977
G01 X6.8355 Y23.2741
G01 X6.7768 Y23.2359
G01 X6.7400 Y23.2112
G01 X6.7031 Y23.1858
G01 X6.6617 Y23.1565
G01 X6.6254 Y23.1302
G01 X6.5592 Y23.0805
G01 X6.5192 Y23.0494
G01 X6.4842 Y23.0215
G01 X6.4450 Y22.9894
G01 X6.4107 Y22.9606
G01 X6.3434 Y22.9022
G01 X6.2871 Y22.8512
G01 X6.2543 Y22.8205
G01 X6.2178 Y22.7855
G01 X6.1545 Y22.7227
G01 X6.0971 Y22.6631
G01 X6.0666 Y22.6303
G01 X6.0325 Y22.5928
G01 X6.0027 Y22.5593
G01 X5.9737 Y22.5258
G01 X5.9286 Y22.4721
G01 X5.9005 Y22.4378
G01 X5.8726 Y22.4028
G01 X5.8220 Y22.3372
G01 X5.7692 Y22.2655
G01 X5.7399 Y22.2241
G01 X5.7144 Y22.1873
G01 X5.6722 Y22.1241
G01 X5.6243 Y22.0490
G01 X5.6008 Y22.0108
G01 X5.5748 Y21.9673
G01 X5.5336 Y21.8955
G01 X5.5120 Y21.8563
G01 X5.4910 Y21.8172
G01 X5.4673 Y21.7719
G01 X5.4473 Y21.7324
G01 X5.4165 Y21.6693
G01 X5.3977 Y21.6292
G01 X5.3791 Y21.5885
G01 X5.3586 Y21.5421
G01 X5.3426 Y21.5047
G01 X4.0473 Y20.2097
G01 X4.0026 Y20.1642
G01 X3.9590 Y20.1183
G01 X3.9242 Y20.0808
G01 X3.8843 Y20.0367
G01 X3.8315 Y19.9771
G01 X3.8026 Y19.9435
G01 X3.7738 Y19.9091
G01 X3.7217 Y19.8448
G01 X3.6904 Y19.8050
G01 X3.6613 Y19.7668
G01 X3.5958 Y19.6783
G01 X3.5442 Y19.6056
G01 X3.5190 Y19.5686
G01 X3.4909 Y19.5265
G01 X3.4496 Y19.4621
G01 X3.4111 Y19.3997
G01 X3.3644 Y19.3215
G01 X3.3202 Y19.2441
G01 X3.2838 Y19.1769
G01 X3.2515 Y19.1146
G01 X3.2189 Y19.0490
G01 X3.1798 Y18.9666
G01 X3.1506 Y18.9029
G01 X3.1201 Y18.8328
G01 X3.0935 Y18.7684
G01 X3.0656 Y18.6972
G01 X3.0402 Y18.6285
G01 X3.0055 Y18.5301
G01 X2.9836 Y18.4640
G01 X2.9609 Y18.3910
G01 X2.9466 Y18.3419
G01 X2.9346 Y18.2992
G01 X2.9144 Y18.2222
G01 X2.9000 Y18.1645
G01 X2.8881 Y18.1148
G01 X2.8769 Y18.0654
G01 X2.8675 Y18.0216
G01 X2.8504 Y17.9341
G01 X2.8374 Y17.8592
G01 X2.8300 Y17.8118
G01 X2.8203 Y17.7467
G01 X2.8133 Y17.6961
G01 X2.8078 Y17.6521
G01 X2.8020 Y17.6013
G01 X2.7976 Y17.5572
G01 X2.7916 Y17.4873
G01 X2.7861 Y17.4047
G01 X2.7811 Y17.3011
G01 X2.7788 Y17.2278
G01 X2.7780 Y17.1735
G01 X2.7779 Y16.9023
G01 X2.7476 Y16.8439
G01 X2.7151 Y16.7783
G01 X2.6574 Y16.6567
G01 X2.6332 Y16.6046
G01 X2.6100 Y16.5525
G01 X2.5849 Y16.4939
G01 X2.5585 Y16.4289
G01 X2.5389 Y16.3786
G01 X5.8735 Y15.9233
G01 X5.8463 Y15.8983
G01 X5.8187 Y15.8707
G01 X5.7385 Y15.7826
G01 X5.7130 Y15.7531
G01 X5.7009 Y15.7379
G01 X5.6297 Y15.6423
G01 X5.6072 Y15.6104
G01 X5.5864 Y15.5775
G01 X5.5253 Y15.4752
G01 X5.5070 Y15.4408
G01 X5.4558 Y15.3332
G01 X5.4400 Y15.2976
G01 X5.4260 Y15.2612
G01 X5.3924 Y15.1673
G01 X5.3802 Y15.1303
G01 X5.3698 Y15.0928
G01 X5.3456 Y14.9961
G01 X5.3370 Y14.9581
G01 X5.3304 Y14.9197
G01 X5.3131 Y14.8017
G01 X5.3093 Y14.7630
G01 X5.3081 Y14.7435
G01 X5.3032 Y14.6439
G01 X5.3022 Y14.6050
G01 X5.3032 Y14.5661
G01 X5.3081 Y14.4665
G01 X5.3110 Y14.4276
G01 X5.3157 Y14.3889
G01 X5.3304 Y14.2903
G01 X5.3370 Y14.2519
G01 X5.3456 Y14.2139
G01 X5.3698 Y14.1172
G01 X5.3802 Y14.0797
G01 X5.3924 Y14.0427
G01 X5.4328 Y13.9305
G01 X5.4477 Y13.8945
G01 X5.4984 Y13.7867
G01 X5.5159 Y13.7519
G01 X5.5351 Y13.7180
G01 X5.5966 Y13.6159
G01 X5.6183 Y13.5835
G01 X5.6891 Y13.4876
G01 X5.7130 Y13.4569
G01 X5.7385 Y13.4274
G01 X5.8054 Y13.3535
G01 X5.8323 Y13.3253
G01 X5.8605 Y13.2984
G01 X5.9344 Y13.2315
G01 X5.9639 Y13.2060
G01 X5.9946 Y13.1821
G01 X6.0747 Y13.1227
G01 X6.1066 Y13.1002
G01 X6.1395 Y13.0794
G01 X6.2250 Y13.0281
G01 X6.2589 Y13.0089
G01 X6.2762 Y13.0000
G01 X6.3838 Y12.9488
G01 X6.4194 Y12.9330
G01 X6.4558 Y12.9190
G01 X6.5497 Y12.8854
G01 X6.5867 Y12.8732
G01 X6.6242 Y12.8628
G01 X6.7209 Y12.8386
G01 X6.7589 Y12.8300
G01 X6.7973 Y12.8234
G01 X6.8959 Y12.8087
G01 X6.9346 Y12.8040
G01 X6.9735 Y12.8011
G01 X7.0731 Y12.7962
G01 X7.1120 Y12.7952
G01 X7.1315 Y12.7955
G01 X7.2505 Y12.8011
G01 X7.2894 Y12.8040
G01 X7.3281 Y12.8087
G01 X7.4459 Y12.8265
G01 X7.4651 Y12.8300
G01 X7.5031 Y12.8386
G01 X7.5998 Y12.8628
G01 X7.6373 Y12.8732
G01 X7.6743 Y12.8854
G01 X7.7682 Y12.9190
G01 X7.8046 Y12.9330
G01 X7.8402 Y12.9488
G01 X7.9478 Y13.0000
G01 X7.9822 Y13.0183
G01 X7.9990 Y13.0281
G01 X8.0845 Y13.0794
G01 X8.1174 Y13.1002
G01 X8.1493 Y13.1227
G01 X8.2294 Y13.1821
G01 X8.2601 Y13.2060
G01 X8.2896 Y13.2315
G01 X8.3635 Y13.2984
G01 X8.3917 Y13.3253
G01 X8.4186 Y13.3535
G01 X8.4855 Y13.4274
G01 X8.4984 Y13.4420
G01 X8.5231 Y13.4721
G01 X8.5943 Y13.5677
G01 X8.6168 Y13.5996
G01 X8.6376 Y13.6325
G01 X8.6889 Y13.7180
G01 X8.7081 Y13.7519
G01 X8.7256 Y13.7867
G01 X8.7682 Y13.8768
G01 X8.7840 Y13.9124
G01 X8.7980 Y13.9488
G01 X8.8379 Y14.0611
G01 X8.8492 Y14.0984
G01 X8.8829 Y14.2329
G01 X8.8905 Y14.2711
G01 X8.8936 Y14.2903
G01 X8.9083 Y14.3889
G01 X8.9130 Y14.4276
G01 X8.9159 Y14.4665
G01 X8.9208 Y14.5661
G01 X8.9215 Y14.5855
G01 X8.9215 Y14.6245
G01 X8.9159 Y14.7435
G01 X8.9130 Y14.7824
G01 X8.9083 Y14.8211
G01 X8.8936 Y14.9197
G01 X8.8870 Y14.9581
G01 X8.8784 Y14.9961
G01 X8.8542 Y15.0928
G01 X8.8438 Y15.1303
G01 X8.8316 Y15.1673
G01 X8.7980 Y15.2612
G01 X8.7840 Y15.2976
G01 X8.7682 Y15.3332
G01 X8.7170 Y15.4408
G01 X8.6987 Y15.4752
G01 X8.6376 Y15.5775
G01 X8.6168 Y15.6104
G01 X8.5943 Y15.6423
G01 X8.5231 Y15.7379
G01 X8.4984 Y15.7680
G01 X8.4855 Y15.7826
G01 X8.4053 Y15.8707
G01 X8.3777 Y15.8983
G01 X8.3505 Y15.9233
G01 X8.3505 Y16.6320
G01 X8.8262 Y17.1077
G01 X8.8492 Y17.1051
G01 X8.8686 Y17.1034
G01 X8.8881 Y17.1022
G01 X8.9270 Y17.1012
G01 X10.3770 Y17.1012
G01 X10.3965 Y17.1015
G01 X10.4354 Y17.1034
G01 X10.4742 Y17.1072
G01 X10.5127 Y17.1129
G01 X10.5509 Y17.1205
G01 X10.5699 Y17.1250
G01 X10.5887 Y17.1300
G01 X10.6260 Y17.1413
G01 X10.6627 Y17.1544
G01 X10.6987 Y17.1693
G01 X10.7339 Y17.1860
G01 X10.7512 Y17.1950
G01 X10.7851 Y17.2142
G01 X10.8180 Y17.2350
G01 X10.8498 Y17.2575
G01 X10.8653 Y17.2692
G01 X10.8955 Y17.2940
G01 X10.9220 Y17.3180
G01 X10.9339 Y17.3069
G01 X10.9535 Y17.2898
G01 X10.9535 Y12.0519
G01 X10.9317 Y12.0747
G01 X10.9035 Y12.1016
G01 X10.8296 Y12.1685
G01 X10.8001 Y12.1940
G01 X10.7694 Y12.2179
G01 X10.6735 Y12.2887
G01 X10.6411 Y12.3104
G01 X10.6245 Y12.3206
G01 X10.5390 Y12.3719
G01 X10.5051 Y12.3911
G01 X10.4703 Y12.4086
G01 X10.3625 Y12.4593
G01 X10.3265 Y12.4742
G01 X10.2143 Y12.5146
G01 X10.1959 Y12.5209
G01 X10.1586 Y12.5322
G01 X10.0431 Y12.5614
G01 X10.0051 Y12.5700
G01 X9.9667 Y12.5766
G01 X9.8681 Y12.5913
G01 X9.8294 Y12.5960
G01 X9.8100 Y12.5977
G01 X9.6909 Y12.6038
G01 X9.6520 Y12.6048
G01 X9.6131 Y12.6038
G01 X9.4940 Y12.5977
G01 X9.4553 Y12.5939
G01 X9.4359 Y12.5913
G01 X9.3373 Y12.5766
G01 X9.2989 Y12.5700
G01 X9.2609 Y12.5614
G01 X9.1454 Y12.5322
G01 X9.1081 Y12.5209
G01 X8.9958 Y12.4810
G01 X8.9594 Y12.4670
G01 X8.9415 Y12.4593
G01 X8.8337 Y12.4086
G01 X8.7989 Y12.3911
G01 X8.7650 Y12.3719
G01 X8.6795 Y12.3206
G01 X8.6629 Y12.3104
G01 X8.6305 Y12.2887
G01 X8.5346 Y12.2179
G01 X8.5039 Y12.1940
G01 X8.4744 Y12.1685
G01 X8.3863 Y12.0883
G01 X8.3587 Y12.0607
G01 X8.3454 Y12.0465
G01 X8.2785 Y11.9726
G01 X8.2530 Y11.9431
G01 X8.2291 Y11.9124
G01 X8.1697 Y11.8323
G01 X8.1583 Y11.8165
G01 X8.1366 Y11.7841
G01 X8.0751 Y11.6820
G01 X8.0559 Y11.6481
G01 X8.0384 Y11.6133
G01 X7.9877 Y11.5055
G01 X7.9800 Y11.4876
G01 X7.9660 Y11.4512
G01 X7.9324 Y11.3573
G01 X7.9202 Y11.3203
G01 X7.9098 Y11.2828
G01 X7.8811 Y11.1671
G01 X7.8770 Y11.1481
G01 X7.8704 Y11.1097
G01 X7.8557 Y11.0111
G01 X7.8510 Y10.9724
G01 X7.8481 Y10.9335
G01 X7.8425 Y10.8145
G01 X7.8422 Y10.7950
G01 X7.8432 Y10.7561
G01 X7.8481 Y10.6565
G01 X7.8510 Y10.6176
G01 X7.8557 Y10.5789
G01 X7.8704 Y10.4803
G01 X7.8735 Y10.4611
G01 X7.8811 Y10.4229
G01 X7.9098 Y10.3072
G01 X7.9202 Y10.2697
G01 X7.9324 Y10.2327
G01 X7.9728 Y10.1205
G01 X7.9800 Y10.1024
G01 X7.9958 Y10.0668
G01 X8.0384 Y9.9767
G01 X8.0559 Y9.9419
G01 X8.0751 Y9.9080
G01 X8.1366 Y9.8059
G01 X8.1472 Y9.7896
G01 X8.1697 Y9.7577
G01 X8.2291 Y9.6776
G01 X8.2530 Y9.6469
G01 X8.2785 Y9.6174
G01 X8.3587 Y9.5293
G01 X8.3863 Y9.5017
G01 X8.4135 Y9.4767
G01 X8.4135 Y7.3964
G01 X8.3758 Y7.3452
G01 X8.3542 Y7.3128
G01 X8.3059 Y7.2327
G01 X8.2867 Y7.1988
G01 X8.2692 Y7.1640
G01 X8.2375 Y7.0971
G01 X8.2217 Y7.0614
G01 X8.2077 Y7.0251
G01 X8.1828 Y6.9554
G01 X8.1705 Y6.9184
G01 X8.1601 Y6.8808
G01 X8.1377 Y6.7901
G01 X8.1301 Y6.7519
G01 X8.1161 Y6.6594
G01 X8.1113 Y6.6207
G01 X8.1085 Y6.5819
G01 X8.1048 Y6.5079
G01 X8.1039 Y6.4690
G01 X8.1039 Y4.9610
G01 X8.1048 Y4.9221
G01 X8.1085 Y4.8481
G01 X8.1113 Y4.8093
G01 X8.1161 Y4.7706
G01 X8.1301 Y4.6781
G01 X8.1377 Y4.6399
G01 X8.1601 Y4.5492
G01 X8.1705 Y4.5116
G01 X8.1828 Y4.4746
G01 X8.2077 Y4.4049
G01 X8.2217 Y4.3686
G01 X8.2375 Y4.3329
G01 X8.2692 Y4.2660
G01 X8.2777 Y4.2485
G01 X8.2961 Y4.2142
G01 X8.3439 Y4.1338
G01 X8.3648 Y4.1009
G01 X8.3872 Y4.0691
G01 X8.4313 Y4.0096
G01 X8.4553 Y3.9789
G01 X8.4807 Y3.9494
G01 X8.5304 Y3.8945
G01 X8.5437 Y3.8803
G01 X8.5713 Y3.8527
G01 X8.6404 Y3.7897
G01 X8.6699 Y3.7643
G01 X8.7006 Y3.7403
G01 X8.7758 Y3.6848
G01 X8.8082 Y3.6632
G01 X8.8248 Y3.6529
G01 X8.8883 Y3.6149
G01 X8.9222 Y3.5957
G01 X8.9570 Y3.5782
G01 X9.0239 Y3.5465
G01 X9.0596 Y3.5307
G01 X9.0959 Y3.5167
G01 X9.1840 Y3.4854
G01 X9.2213 Y3.4741
G01 X9.2402 Y3.4691
G01 X9.3120 Y3.4512
G01 X9.3500 Y3.4426
G01 X9.3884 Y3.4360
G01 X9.4616 Y3.4251
G01 X9.5003 Y3.4203
G01 X9.5197 Y3.4187
G01 X9.6131 Y3.4138
G01 X9.6520 Y3.4129
G01 X9.6909 Y3.4138
G01 X9.7843 Y3.4187
G01 X9.8037 Y3.4203
G01 X9.8424 Y3.4251
G01 X9.9156 Y3.4360
G01 X9.9540 Y3.4426
G01 X9.9920 Y3.4512
G01 X10.0827 Y3.4741
G01 X10.1200 Y3.4854
G01 X10.2081 Y3.5167
G01 X10.2444 Y3.5307
G01 X10.2623 Y3.5384
G01 X10.3470 Y3.5782
G01 X10.3818 Y3.5957
G01 X10.4157 Y3.6149
G01 X10.4792 Y3.6529
G01 X10.5121 Y3.6738
G01 X10.5282 Y3.6848
G01 X10.6034 Y3.7403
G01 X10.6341 Y3.7643
G01 X10.6636 Y3.7897
G01 X10.7327 Y3.8527
G01 X10.7467 Y3.8663
G01 X10.7736 Y3.8945
G01 X10.8233 Y3.9494
G01 X10.8487 Y3.9789
G01 X10.8727 Y4.0096
G01 X10.9220 Y4.0763
G01 X10.9535 Y4.0336
G01 X10.9535 Y3.1750
G01 X10.9545 Y3.1361
G01 X10.9578 Y3.0730
G01 X10.9595 Y3.0536
G01 X10.9643 Y3.0149
G01 X10.9707 Y2.9718
G01 X10.9773 Y2.9334
G01 X10.9859 Y2.8954
G01 X10.9965 Y2.8530
G01 X11.0014 Y2.8342
G01 X11.0127 Y2.7969
G01 X11.0338 Y2.7374
G01 X11.0406 Y2.7191
G01 X11.0555 Y2.6832
G01 X11.0908 Y2.6085
G01 X11.1092 Y2.5741
G01 X11.1516 Y2.5033
G01 X11.1733 Y2.4709
G01 X11.2225 Y2.4045
G01 X11.2472 Y2.3744
G01 X11.3027 Y2.3132
G01 X12.6002 Y1.0157
G01 X12.6468 Y0.9731
G01 X12.6763 Y0.9476
G01 X12.7070 Y0.9237
G01 X12.7421 Y0.8977
G01 X12.7739 Y0.8752
G01 X12.7903 Y0.8646
G01 X12.8344 Y0.8379
G01 X12.8611 Y0.8222
G01 X12.8782 Y0.8128
G01 X12.8955 Y0.8038
G01 X12.9271 Y0.7886
G01 X12.9702 Y0.7685
G01 X12.9881 Y0.7608
G01 X13.0061 Y0.7536
G01 X13.0368 Y0.7423
G01 X13.0839 Y0.7257
G01 X13.1025 Y0.7199
G01 X13.1400 Y0.7095
G01 X13.1824 Y0.6989
G01 X13.2204 Y0.6903
G01 X13.2588 Y0.6837
G01 X13.3019 Y0.6773
G01 X13.3406 Y0.6725
G01 X13.3795 Y0.6696
G01 X13.4425 Y0.6668
G01 X16.0215 Y0.6668
G01 X16.0845 Y0.6696
G01 X16.1234 Y0.6725
G01 X16.1621 Y0.6773
G01 X16.2245 Y0.6868
G01 X16.2627 Y0.6944
G01 X16.2816 Y0.6989
G01 X16.3428 Y0.7144
G01 X16.3801 Y0.7257
G01 X16.4396 Y0.7468
G01 X16.4759 Y0.7608
G01 X16.5116 Y0.7766
G01 X16.5685 Y0.8038
G01 X16.6029 Y0.8222
G01 X16.6571 Y0.8544
G01 X16.6901 Y0.8752
G01 X16.7061 Y0.8863
G01 X16.7570 Y0.9237
G01 X16.7877 Y0.9476
G01 X16.8172 Y0.9731
G01 X16.8495 Y1.0024
G01 X16.8777 Y1.0293
G01 X18.1477 Y2.2993
G01 X18.1746 Y2.3275
G01 X18.2039 Y2.3598
G01 X18.2294 Y2.3893
G01 X18.2533 Y2.4200
G01 X18.2907 Y2.4709
G01 X18.3124 Y2.5033
G01 X18.3226 Y2.5199
G01 X18.3548 Y2.5741
G01 X18.3732 Y2.6085
G01 X18.4004 Y2.6654
G01 X18.4162 Y2.7011
G01 X18.4302 Y2.7374
G01 X18.4513 Y2.7969
G01 X18.4571 Y2.8155
G01 X18.4675 Y2.8530
G01 X18.4826 Y2.9143
G01 X18.4902 Y2.9525
G01 X18.4997 Y3.0149
G01 X18.5045 Y3.0536
G01 X18.5074 Y3.0925
G01 X18.5095 Y3.1361
G01 X18.5105 Y3.1750
G01 X18.5105 Y9.4767
G01 X18.5377 Y9.5017
G01 X18.5653 Y9.5293
G01 X18.6584 Y9.6320
G01 X18.6710 Y9.6469
G01 X18.6949 Y9.6776
G01 X18.7657 Y9.7735
G01 X18.7874 Y9.8059
G01 X18.7976 Y9.8225
G01 X18.8489 Y9.9080
G01 X18.8681 Y9.9419
G01 X18.8856 Y9.9767
G01 X18.9363 Y10.0845
G01 X18.9440 Y10.1024
G01 X18.9580 Y10.1388
G01 X18.9916 Y10.2327
G01 X19.0038 Y10.2697
G01 X19.0142 Y10.3072
G01 X19.0384 Y10.4039
G01 X19.0470 Y10.4419
G01 X19.0536 Y10.4803
G01 X19.0683 Y10.5789
G01 X19.0730 Y10.6176
G01 X19.0759 Y10.6565
G01 X19.0808 Y10.7561
G01 X19.0818 Y10.7950
G01 X19.0808 Y10.8339
G01 X19.0759 Y10.9335
G01 X19.0730 Y10.9724
G01 X19.0683 Y11.0111
G01 X19.0536 Y11.1097
G01 X19.0470 Y11.1481
G01 X19.0384 Y11.1861
G01 X19.0142 Y11.2828
G01 X19.0038 Y11.3203
G01 X18.9916 Y11.3573
G01 X18.9580 Y11.4512
G01 X18.9512 Y11.4695
G01 X18.9363 Y11.5055
G01 X18.8856 Y11.6133
G01 X18.8681 Y11.6481
G01 X18.8489 Y11.6820
G01 X18.7976 Y11.7675
G01 X18.7768 Y11.8004
G01 X18.7657 Y11.8165
G01 X18.6949 Y11.9124
G01 X18.6831 Y11.9279
G01 X18.6584 Y11.9580
G01 X18.5653 Y12.0607
G01 X18.5377 Y12.0883
G01 X18.5105 Y12.1133
G01 X18.5105 Y17.2898
G01 X18.5301 Y17.3069
G01 X18.5443 Y17.3201
G01 X18.5719 Y17.3477
G01 X18.5980 Y17.3765
G01 X18.6228 Y17.4067
G01 X18.6460 Y17.4380
G01 X18.6676 Y17.4703
G01 X18.6876 Y17.5038
G01 X18.6970 Y17.5208
G01 X18.7145 Y17.5556
G01 X18.7303 Y17.5912
G01 X18.7444 Y17.6276
G01 X18.7566 Y17.6646
G01 X18.7670 Y17.7021
G01 X18.7755 Y17.7401
G01 X18.7791 Y17.7593
G01 X18.7848 Y17.7978
G01 X18.7886 Y17.8366
G01 X18.7905 Y17.8755
G01 X18.7908 Y19.9950
G01 X18.7898 Y20.0339
G01 X18.7869 Y20.0728
G01 X18.7848 Y20.0922
G01 X18.7791 Y20.1307
G01 X18.7715 Y20.1689
G01 X18.7670 Y20.1879
G01 X18.7620 Y20.2067
G01 X18.7507 Y20.2440
G01 X18.7376 Y20.2807
G01 X18.7303 Y20.2988
G01 X18.7227 Y20.3167
G01 X18.7060 Y20.3519
G01 X18.6876 Y20.3862
G01 X18.6778 Y20.4031
G01 X18.6676 Y20.4197
G01 X18.6460 Y20.4520
G01 X18.6345 Y20.4678
G01 X18.6106 Y20.4985
G01 X18.5851 Y20.5281
G01 X18.5583 Y20.5563
G01 X18.5301 Y20.5831
G01 X18.5005 Y20.6086
G01 X18.4698 Y20.6325
G01 X18.4540 Y20.6440
G01 X18.4380 Y20.6550
G01 X18.4051 Y20.6758
G01 X18.3712 Y20.6950
G01 X18.3539 Y20.7040
G01 X18.3187 Y20.7207
G01 X18.2827 Y20.7356
G01 X18.2460 Y20.7487
G01 X18.2087 Y20.7600
G01 X18.1709 Y20.7695
G01 X18.1327 Y20.7771
G01 X18.1135 Y20.7802
G01 X18.0942 Y20.7828
G01 X18.0554 Y20.7866
G01 X18.0165 Y20.7885
G01 X16.5470 Y20.7888
G01 X16.5081 Y20.7878
G01 X16.4692 Y20.7849
G01 X16.4498 Y20.7828
G01 X16.4113 Y20.7771
G01 X16.3731 Y20.7695
G01 X16.3353 Y20.7600
G01 X16.3166 Y20.7546
G01 X16.2796 Y20.7424
G01 X16.2432 Y20.7283
G01 X16.2253 Y20.7207
G01 X16.1901 Y20.7040
G01 X16.1728 Y20.6950
G01 X16.1389 Y20.6758
G01 X16.1060 Y20.6550
G01 X16.0900 Y20.6440
G01 X16.0587 Y20.6208
G01 X16.0285 Y20.5960
G01 X16.0020 Y20.5720
G01 X15.9755 Y20.5960
G01 X15.9453 Y20.6208
G01 X15.9140 Y20.6440
G01 X15.8817 Y20.6656
G01 X15.8651 Y20.6758
G01 X15.8312 Y20.6950
G01 X15.7964 Y20.7125
G01 X15.7608 Y20.7283
G01 X15.7244 Y20.7424
G01 X15.6874 Y20.7546
G01 X15.6499 Y20.7650
G01 X15.6119 Y20.7735
G01 X15.5735 Y20.7802
G01 X15.5542 Y20.7828
G01 X15.5154 Y20.7866
G01 X15.4765 Y20.7885
G01 X14.0070 Y20.7888
G01 X13.9681 Y20.7878
G01 X13.9292 Y20.7849
G01 X13.9098 Y20.7828
G01 X13.8713 Y20.7771
G01 X13.8331 Y20.7695
G01 X13.8141 Y20.7650
G01 X13.7766 Y20.7546
G01 X13.7580 Y20.7487
G01 X13.7213 Y20.7356
G01 X13.6853 Y20.7207
G01 X13.6676 Y20.7125
G01 X13.6328 Y20.6950
G01 X13.5989 Y20.6758
G01 X13.5660 Y20.6550
G01 X13.5500 Y20.6440
G01 X13.5187 Y20.6208
G01 X13.4885 Y20.5960
G01 X13.4620 Y20.5720
G01 X13.4355 Y20.5960
G01 X13.4053 Y20.6208
G01 X13.3740 Y20.6440
G01 X13.3417 Y20.6656
G01 X13.3251 Y20.6758
G01 X13.2912 Y20.6950
G01 X13.2564 Y20.7125
G01 X13.2208 Y20.7283
G01 X13.1844 Y20.7424
G01 X13.1474 Y20.7546
G01 X13.1099 Y20.7650
G01 X13.0719 Y20.7735
G01 X13.0335 Y20.7802
G01 X13.0142 Y20.7828
G01 X12.9754 Y20.7866
G01 X12.9365 Y20.7885
G01 X11.4670 Y20.7888
G01 X11.4281 Y20.7878
G01 X11.3892 Y20.7849
G01 X11.3698 Y20.7828
G01 X11.3313 Y20.7771
G01 X11.2931 Y20.7695
G01 X11.2553 Y20.7600
G01 X11.2366 Y20.7546
G01 X11.1996 Y20.7424
G01 X11.1632 Y20.7283
G01 X11.1453 Y20.7207
G01 X11.1101 Y20.7040
G01 X11.0928 Y20.6950
G01 X11.0589 Y20.6758
G01 X11.0260 Y20.6550
G01 X10.9942 Y20.6325
G01 X10.9787 Y20.6208
G01 X10.9485 Y20.5960
G01 X10.9220 Y20.5720
G01 X10.8955 Y20.5960
G01 X10.8653 Y20.6208
G01 X10.8498 Y20.6325
G01 X10.8180 Y20.6550
G01 X10.7851 Y20.6758
G01 X10.7512 Y20.6950
G01 X10.7339 Y20.7040
G01 X10.6987 Y20.7207
G01 X10.6627 Y20.7356
G01 X10.6260 Y20.7487
G01 X10.5887 Y20.7600
G01 X10.5699 Y20.7650
G01 X10.5319 Y20.7735
G01 X10.4935 Y20.7802
G01 X10.4742 Y20.7828
G01 X10.4354 Y20.7866
G01 X10.3965 Y20.7885
G01 X10.3770 Y20.7888
G01 X8.9075 Y20.7885
G01 X8.8686 Y20.7866
G01 X8.8298 Y20.7828
G01 X8.7913 Y20.7771
G01 X8.7721 Y20.7735
G01 X8.7531 Y20.7695
G01 X8.7153 Y20.7600
G01 X8.6780 Y20.7487
G01 X8.6596 Y20.7424
G01 X8.6232 Y20.7283
G01 X8.5876 Y20.7125
G01 X8.5528 Y20.6950
G01 X8.5189 Y20.6758
G01 X8.4860 Y20.6550
G01 X8.4542 Y20.6325
G01 X8.4235 Y20.6086
G01 X8.3939 Y20.5831
G01 X8.3657 Y20.5563
G01 X8.3389 Y20.5281
G01 X8.3134 Y20.4985
G01 X8.2895 Y20.4678
G01 X8.2670 Y20.4360
G01 X8.2462 Y20.4031
G01 X8.2270 Y20.3692
G01 X8.2095 Y20.3344
G01 X8.1937 Y20.2988
G01 X8.1864 Y20.2807
G01 X8.1733 Y20.2440
G01 X8.1620 Y20.2067
G01 X8.1525 Y20.1689
G01 X8.1449 Y20.1307
G01 X8.1418 Y20.1115
G01 X8.1371 Y20.0728
G01 X8.1342 Y20.0339
G01 X8.1332 Y19.9950
G01 X8.1332 Y19.6282
G01 X8.1024 Y19.6211
G01 X8.0412 Y19.6056
G01 X8.0225 Y19.6001
G01 X7.9855 Y19.5879
G01 X7.9444 Y19.5732
G01 X7.9081 Y19.5592
G01 X7.8724 Y19.5434
G01 X7.8155 Y19.5162
G01 X7.7982 Y19.5072
G01 X7.7643 Y19.4880
G01 X7.7269 Y19.4656
G01 X7.6939 Y19.4448
G01 X7.6621 Y19.4223
G01 X7.6115 Y19.3845
G01 X7.5814 Y19.3598
G01 X7.5668 Y19.3469
G01 X7.5345 Y19.3176
G01 X7.5063 Y19.2907
G01 X6.2227 Y18.0068
G01 X6.1672 Y17.9456
G01 X6.1425 Y17.9155
G01 X6.1307 Y17.9000
G01 X6.1047 Y17.8649
G01 X6.0822 Y17.8331
G01 X6.0614 Y17.8001
G01 X6.0292 Y17.7459
G01 X6.0108 Y17.7115
G01 X6.0022 Y17.6940
G01 X5.9836 Y17.6546
G01 X5.9678 Y17.6189
G01 X5.9538 Y17.5826
G01 X5.9391 Y17.5415
G01 X5.9269 Y17.5045
G01 X5.9165 Y17.4670
G01 X5.9059 Y17.4246
G01 X5.8973 Y17.3866
G01 X5.8907 Y17.3482
G01 X5.8843 Y17.3051
G01 X5.8816 Y17.2858
G01 X5.8778 Y17.2470
G01 X5.8745 Y17.1839
G01 X5.8735 Y17.1450
G01 X5.8735 Y15.9233
G00 Z5.0000
G00 X9.9188 Y15.0410
G01 F190.00
G01 Z-0.2500
G01 F400.00
G01 X9.9124 Y15.0836
G01 X9.9050 Y15.1278
G01 X9.8924 Y15.1908
G01 X9.8794 Y15.2468
G01 X9.8520 Y15.3558
G01 X9.8403 Y15.3990
G01 X9.8216 Y15.4605
G01 X9.8032 Y15.5150
G01 X9.7696 Y15.6088
G01 X9.7493 Y15.6626
G01 X9.7247 Y15.7220
G01 X9.7010 Y15.7744
G01 X9.6529 Y15.8759
G01 X9.6240 Y15.9333
G01 X9.6027 Y15.9727
G01 X9.5804 Y16.0116
G01 X9.5458 Y16.0694
G01 X9.9178 Y16.0694
G01 X9.9188 Y15.0410
G01 X9.7808 Y13.6325
G01 X9.8074 Y13.7070
G01 X9.8216 Y13.7495
G01 X9.8403 Y13.8110
G01 X9.8552 Y13.8665
G01 X9.8824 Y13.9755
G01 X9.8965 Y14.0382
G01 X9.9050 Y14.0822
G01 X9.9093 Y14.1072
G01 X9.9196 Y14.1746
G01 X9.9202 Y13.6239
G01 X9.8733 Y13.6276
G01 X9.7808 Y13.6325
G00 Z5.0000
G00 X13.4305 Y13.3481
G01 F190.00
G01 Z-0.2500
G01 F400.00
G01 X13.4523 Y13.3253
G01 X13.4663 Y13.3117
G01 X13.4935 Y13.2867
G01 X13.4935 Y7.3964
G01 X13.4620 Y7.3537
G01 X13.4305 Y7.3964
G01 X13.4305 Y13.3481
G00 Z5.0000
G00 X15.9705 Y12.0519
G01 F190.00
G01 Z-0.2500
G01 F400.00
G01 X15.9705 Y13.2867
G01 X15.9977 Y13.3117
G01 X16.0117 Y13.3253
G01 X16.0335 Y13.3481
G01 X16.0335 Y12.1133
G01 X16.0063 Y12.0883
G01 X15.9923 Y12.0747
G01 X15.9705 Y12.0519
G00 Z5.0000
G00 X16.0335 Y15.8619
G01 F190.00
G01 Z-0.2500
G01 F400.00
G01 X16.0117 Y15.8847
G01 X15.9977 Y15.8983
G01 X15.9705 Y15.9233
G01 X15.9705 Y17.2898
G01 X15.9901 Y17.3069
G01 X16.0020 Y17.3180
G01 X16.0139 Y17.3069
G01 X16.0335 Y17.2898
G01 X16.0335 Y15.8619
G00 Z5.0000
G00 X13.4935 Y17.2898
G01 F190.00
G01 Z-0.2500
G01 F400.00
G01 X13.4935 Y15.9233
G01 X13.4663 Y15.8983
G01 X13.4523 Y15.8847
G01 X13.4305 Y15.8619
G01 X13.4305 Y17.2898
G01 X13.4501 Y17.3069
G01 X13.4620 Y17.3180
G01 X13.4739 Y17.3069
G01 X13.4935 Y17.2898
G00 Z5.0000
G00 X10.9535 Y9.5381
G01 F190.00
G01 Z-0.2500
G01 F400.00
G01 X10.9535 Y7.3964
G01 X10.9220 Y7.3537
G01 X10.8905 Y7.3964
G01 X10.8905 Y9.4767
G01 X10.9177 Y9.5017
G01 X10.9317 Y9.5153
G01 X10.9535 Y9.5381
G00 Z5.0000
G00 X16.0335 Y7.3068
G01 F190.00
G01 Z-0.2500
G01 F400.00
G01 X16.0192 Y7.3291
G01 X16.0082 Y7.3452
G01 X15.9705 Y7.3964
G01 X15.9705 Y9.5381
G01 X15.9923 Y9.5153
G01 X16.0063 Y9.5017
G01 X16.0335 Y9.4767
G01 X16.0335 Y7.3068
G00 Z5.0000
G00 X13.4620 Y4.0763
G01 F190.00
G01 Z-0.2500
G01 F400.00
G01 X13.5231 Y3.9941
G01 X13.5478 Y3.9640
G01 X13.6237 Y3.8803
G01 X13.6513 Y3.8527
G01 X13.7350 Y3.7768
G01 X13.7651 Y3.7521
G01 X13.8558 Y3.6848
G01 X13.8882 Y3.6632
G01 X13.9852 Y3.6051
G01 X14.0195 Y3.5867
G01 X14.1217 Y3.5384
G01 X14.1576 Y3.5235
G01 X14.2640 Y3.4854
G01 X14.3013 Y3.4741
G01 X14.4109 Y3.4467
G01 X14.4491 Y3.4391
G01 X14.4684 Y3.4360
G01 X14.5416 Y3.4251
G01 X14.5803 Y3.4203
G01 X14.6191 Y3.4175
G01 X14.7125 Y3.4131
G01 X14.7515 Y3.4131
G01 X14.7709 Y3.4138
G01 X14.8643 Y3.4187
G01 X14.9031 Y3.4225
G01 X14.9956 Y3.4360
G01 X15.0340 Y3.4426
G01 X15.0720 Y3.4512
G01 X15.1627 Y3.4741
G01 X15.2000 Y3.4854
G01 X15.2881 Y3.5167
G01 X15.3244 Y3.5307
G01 X15.3423 Y3.5384
G01 X15.4270 Y3.5782
G01 X15.4618 Y3.5957
G01 X15.4957 Y3.6149
G01 X15.5758 Y3.6632
G01 X15.5921 Y3.6738
G01 X15.6239 Y3.6962
G01 X15.6989 Y3.7521
G01 X15.7290 Y3.7768
G01 X15.7985 Y3.8394
G01 X15.8267 Y3.8663
G01 X15.8536 Y3.8945
G01 X15.9162 Y3.9640
G01 X15.9409 Y3.9941
G01 X15.9968 Y4.0691
G01 X16.0192 Y4.1009
G01 X16.0335 Y4.1232
G01 X16.0335 Y3.6880
G01 X15.4890 Y3.1435
G01 X13.9750 Y3.1435
G01 X13.4305 Y3.6880
G01 X13.4305 Y4.0336
G01 X13.4620 Y4.0763
G00 Z5.0000
G00 X21.8451 Y9.0214
G01 F190.00
G01 Z-0.2500
G01 F400.00
G01 X21.8451 Y2.3497
G01 X21.5267 Y2.3497
G01 X21.5369 Y2.4046
G01 X21.5455 Y2.4545
G01 X21.5536 Y2.5050
G01 X21.5619 Y2.5607
G01 X21.5731 Y2.6428
G01 X21.5784 Y2.6867
G01 X21.5833 Y2.7313
G01 X21.5909 Y2.8137
G01 X21.5947 Y2.8642
G01 X21.5977 Y2.9121
G01 X21.6029 Y3.0189
G01 X21.6045 Y3.0669
G01 X21.6056 Y3.1175
G01 X21.6061 Y3.1750
G01 X21.6061 Y8.4977
G01 X21.6364 Y8.5561
G01 X21.6689 Y8.6217
G01 X21.7266 Y8.7433
G01 X21.7508 Y8.7954
G01 X21.7740 Y8.8475
G01 X21.7991 Y8.9061
G01 X21.8255 Y8.9711
G01 X21.8451 Y9.0214
G01 X21.8451 Y17.3303
G01 X21.8451 Y12.5686
G01 X21.8439 Y12.5717
G01 X21.8348 Y12.5954
G01 X21.8255 Y12.6189
G01 X21.7991 Y12.6839
G01 X21.7740 Y12.7425
G01 X21.7508 Y12.7946
G01 X21.7266 Y12.8467
G01 X21.6689 Y12.9683
G01 X21.6364 Y13.0339
G01 X21.6061 Y13.0923
G01 X21.6061 Y16.4454
G01 X21.6302 Y16.5071
G01 X21.6482 Y16.5550
G01 X21.6695 Y16.6146
G01 X21.6860 Y16.6630
G01 X21.7076 Y16.7297
G01 X21.7225 Y16.7781
G01 X21.7369 Y16.8272
G01 X21.7538 Y16.8882
G01 X21.7667 Y16.9377
G01 X21.7833 Y17.0058
G01 X21.7959 Y17.0614
G01 X21.8053 Y17.1052
G01 X21.8153 Y17.1549
G01 X21.8258 Y17.2114
G01 X21.8354 Y17.2675
G01 X21.8451 Y17.3303
G01 X19.6931 Y23.4950
G01 X19.7344 Y23.5153
G01 X19.7968 Y23.5472
G01 X19.8471 Y23.5739
G01 X19.8975 Y23.6016
G01 X19.9470 Y23.6298
G01 X20.0074 Y23.6655
G01 X20.0510 Y23.6923
G01 X20.1045 Y23.7261
G01 X20.1472 Y23.7541
G01 X20.2053 Y23.7934
G01 X20.2520 Y23.8261
G01 X20.2986 Y23.8598
G01 X20.3443 Y23.8938
G01 X20.3998 Y23.9367
G01 X20.4398 Y23.9685
G01 X20.4888 Y24.0087
G01 X20.5278 Y24.0417
G01 X20.5806 Y24.0878
G01 X20.6230 Y24.1260
G01 X20.6651 Y24.1651
G01 X20.7062 Y24.2045
G01 X20.7561 Y24.2538
G01 X20.7919 Y24.2903
G01 X20.8356 Y24.3362
G01 X20.8703 Y24.3737
G01 X20.9171 Y24.4260
G01 X20.9544 Y24.4690
G01 X20.9914 Y24.5130
G01 X21.0274 Y24.5571
G01 X21.0709 Y24.6122
G01 X21.1020 Y24.6528
G01 X21.1322 Y24.6934
G01 X21.1659 Y24.7400
G01 X21.1986 Y24.7867
G01 X21.2379 Y24.8448
G01 X21.2659 Y24.8875
G01 X21.2997 Y24.9410
G01 X21.3265 Y24.9846
G01 X21.3622 Y25.0450
G01 X21.3904 Y25.0945
G01 X21.4181 Y25.1449
G01 X21.4448 Y25.1952
G01 X21.4767 Y25.2576
G01 X21.4993 Y25.3035
G01 X21.5263 Y25.3608
G01 X21.5475 Y25.4073
G01 X21.5756 Y25.4716
G01 X21.5975 Y25.5242
G01 X21.6188 Y25.5775
G01 X21.6392 Y25.6308
G01 X21.6632 Y25.6967
G01 X21.6800 Y25.7450
G01 X21.6998 Y25.8051
G01 X21.7151 Y25.8539
G01 X21.7351 Y25.9211
G01 X21.7505 Y25.9760
G01 X21.7651 Y26.0316
G01 X21.7788 Y26.0869
G01 X21.7946 Y26.1552
G01 X21.8053 Y26.2052
G01 X21.8153 Y26.2549
G01 X21.8258 Y26.3114
G01 X21.8354 Y26.3675
G01 X21.8451 Y26.4303
G01 X21.8451 Y20.5597
G01 X21.8354 Y20.6225
G01 X21.8258 Y20.6786
G01 X21.8153 Y20.7351
G01 X21.8053 Y20.7848
G01 X21.7946 Y20.8348
G01 X21.7788 Y20.9031
G01 X21.7651 Y20.9584
G01 X21.7505 Y21.0140
G01 X21.7351 Y21.0689
G01 X21.7151 Y21.1361
G01 X21.6998 Y21.1849
G01 X21.6800 Y21.2450
G01 X21.6632 Y21.2933
G01 X21.6392 Y21.3592
G01 X21.6188 Y21.4125
G01 X21.5975 Y21.4658
G01 X21.5756 Y21.5184
G01 X21.5475 Y21.5827
G01 X21.5263 Y21.6292
G01 X21.4993 Y21.6865
G01 X21.4767 Y21.7324
G01 X21.4448 Y21.7948
G01 X21.4181 Y21.8451
G01 X21.3904 Y21.8955
G01 X21.3622 Y21.9450
G01 X21.3265 Y22.0054
G01 X21.2997 Y22.0490
G01 X21.2659 Y22.1025
G01 X21.2379 Y22.1452
G01 X21.1986 Y22.2033
G01 X21.1659 Y22.2500
G01 X21.1322 Y22.2966
G01 X21.1020 Y22.3372
G01 X21.0709 Y22.3778
G01 X21.0274 Y22.4329
G01 X20.9914 Y22.4770
G01 X20.9544 Y22.5210
G01 X20.9171 Y22.5640
G01 X20.8703 Y22.6163
G01 X20.8356 Y22.6538
G01 X20.7919 Y22.6997
G01 X20.7561 Y22.7362
G01 X20.7062 Y22.7855
G01 X20.6651 Y22.8249
G01 X20.6230 Y22.8640
G01 X20.5806 Y22.9022
G01 X20.5278 Y22.9483
G01 X20.4888 Y22.9813
G01 X20.4398 Y23.0215
G01 X20.3998 Y23.0533
G01 X20.3443 Y23.0962
G01 X20.2986 Y23.1302
G01 X20.2520 Y23.1639
G01 X20.2053 Y23.1966
G01 X20.1472 Y23.2359
G01 X20.1045 Y23.2639
G01 X20.0510 Y23.2977
G01 X20.0074 Y23.3245
G01 X19.9470 Y23.3602
G01 X19.8975 Y23.3884
G01 X19.8471 Y23.4161
G01 X19.7968 Y23.4428
G01 X19.7344 Y23.4747
G01 X19.6931 Y23.4950
G01 X21.8451 Y29.6597
G01 X21.8354 Y29.7225
G01 X21.8258 Y29.7786
G01 X21.8153 Y29.8351
G01 X21.8053 Y29.8848
G01 X21.7946 Y29.9348
G01 X21.7788 Y30.0031
G01 X21.7651 Y30.0584
G01 X21.7538 Y30.1018
G01 X21.7369 Y30.1628
G01 X21.7225 Y30.2119
G01 X21.7018 Y30.2789
G01 X21.6860 Y30.3270
G01 X21.6695 Y30.3754
G01 X21.6482 Y30.4350
G01 X21.6302 Y30.4829
G01 X21.6095 Y30.5360
G01 X21.6079 Y31.3612
G01 X21.6364 Y31.4161
G01 X21.6689 Y31.4817
G01 X21.7266 Y31.6033
G01 X21.7508 Y31.6554
G01 X21.7740 Y31.7075
G01 X21.7991 Y31.7661
G01 X21.8255 Y31.8311
G01 X21.8348 Y31.8546
G01 X21.8439 Y31.8783
G01 X21.8451 Y31.8814
G01 X21.8451 Y29.6597
G01 X21.8451 Y35.4286
G01 X21.8183 Y35.4970
G01 X21.7923 Y35.5600
G01 X21.8183 Y35.6230
G01 X21.8325 Y35.6587
G01 X21.8348 Y35.6646
G01 X21.8439 Y35.6883
G01 X21.8451 Y35.6914
G01 X21.8451 Y35.4286
G01 X21.8451 Y39.2386
G01 X21.8255 Y39.2889
G01 X21.7991 Y39.3539
G01 X21.7790 Y39.4009
G01 X21.7534 Y39.4588
G01 X21.7280 Y39.5139
G01 X21.6785 Y39.6183
G01 X21.6506 Y39.6756
G01 X21.6248 Y39.7265
G01 X21.5921 Y39.7885
G01 X21.5706 Y39.8278
G01 X21.5427 Y39.8775
G01 X21.5170 Y39.9217
G01 X21.4512 Y40.0317
G01 X21.4229 Y40.0780
G01 X21.3925 Y40.1263
G01 X21.3576 Y40.1797
G01 X21.3184 Y40.2378
G01 X21.2783 Y40.2948
G01 X21.2464 Y40.3387
G01 X21.1795 Y40.4290
G01 X21.1429 Y40.4773
G01 X21.1118 Y40.5173
G01 X21.0759 Y40.5622
G01 X21.0396 Y40.6062
G01 X20.9941 Y40.6595
G01 X20.9582 Y40.7003
G01 X20.8701 Y40.7977
G01 X20.8290 Y40.8423
G01 X20.7853 Y40.8881
G01 X20.7495 Y40.9246
G01 X20.6997 Y40.9739
G01 X20.6609 Y41.0110
G01 X20.6771 Y41.0602
G01 X20.6924 Y41.1089
G01 X20.7070 Y41.1575
G01 X20.7260 Y41.2249
G01 X20.7471 Y41.3050
G01 X20.7736 Y41.4110
G01 X20.7891 Y41.4761
G01 X20.8001 Y41.5255
G01 X20.8093 Y41.5694
G01 X20.8191 Y41.6191
G01 X20.8272 Y41.6632
G01 X20.8419 Y41.7511
G01 X20.8618 Y41.8841
G01 X20.8692 Y41.9379
G01 X20.8755 Y41.9882
G01 X20.8805 Y42.0327
G01 X20.8849 Y42.0768
G01 X20.8894 Y42.1277
G01 X20.8928 Y42.1719
G01 X20.8976 Y42.2514
G01 X20.9042 Y42.3889
G01 X20.9058 Y42.4369
G01 X20.9069 Y42.4875
G01 X20.9073 Y42.5323
G01 X20.9069 Y42.6025
G01 X20.9058 Y42.6531
G01 X20.9042 Y42.7011
G01 X20.8973 Y42.8449
G01 X20.8928 Y42.9181
G01 X20.8894 Y42.9623
G01 X20.8855 Y43.0069
G01 X20.8805 Y43.0573
G01 X20.8755 Y43.1018
G01 X20.8692 Y43.1521
G01 X20.8622 Y43.2027
G01 X20.8453 Y43.3170
G01 X20.8369 Y43.3707
G01 X20.8284 Y43.4206
G01 X20.8203 Y43.4647
G01 X20.8106 Y43.5144
G01 X20.8014 Y43.5583
G01 X20.7891 Y43.6139
G01 X20.7781 Y43.6606
G01 X20.7408 Y43.8095
G01 X20.7176 Y43.8956
G01 X20.7052 Y43.9386
G01 X20.6924 Y43.9811
G01 X20.6732 Y44.0419
G01 X20.6552 Y44.0960
G01 X20.6373 Y44.1472
G01 X20.5995 Y44.2530
G01 X20.5807 Y44.3040
G01 X20.5625 Y44.3513
G01 X20.5459 Y44.3929
G01 X20.5272 Y44.4383
G01 X20.5272 Y44.4616
G01 X20.5555 Y44.5311
G01 X20.5829 Y44.6020
G01 X20.6016 Y44.6529
G01 X20.6363 Y44.7498
G01 X20.6572 Y44.8100
G01 X20.6849 Y44.8948
G01 X20.7052 Y44.9614
G01 X20.7260 Y45.0349
G01 X20.7440 Y45.1028
G01 X20.7743 Y45.2240
G01 X20.7905 Y45.2923
G01 X20.8068 Y45.3670
G01 X20.8239 Y45.4545
G01 X20.8327 Y45.5043
G01 X20.8405 Y45.5517
G01 X20.8608 Y45.6879
G01 X20.8708 Y45.7605
G01 X20.8805 Y45.8427
G01 X20.8889 Y45.9314
G01 X20.8941 Y46.0009
G01 X20.8978 Y46.0646
G01 X20.9028 Y46.1673
G01 X20.9050 Y46.2216
G01 X20.9068 Y46.2912
G01 X20.9073 Y46.3677
G01 X20.9064 Y46.4378
G01 X20.9042 Y46.5111
G01 X20.8976 Y46.6486
G01 X20.8941 Y46.7091
G01 X20.8872 Y46.7980
G01 X20.8805 Y46.8673
G01 X20.8716 Y46.9432
G01 X20.8618 Y47.0159
G01 X20.8414 Y47.1521
G01 X20.8337 Y47.1994
G01 X20.8262 Y47.2426
G01 X20.9779 Y47.2652
G01 X21.0595 Y47.2788
G01 X21.1098 Y47.2880
G01 X21.1595 Y47.2979
G01 X21.2034 Y47.3071
G01 X21.2466 Y47.3167
G01 X21.3241 Y47.3351
G01 X21.6422 Y47.4150
G01 X21.7099 Y47.4333
G01 X21.7530 Y47.4457
G01 X21.8015 Y47.4602
G01 X21.8451 Y47.4739
G01 X21.8451 Y39.2386
G00 Z5.0000
G00 X15.9705 Y32.3981
G01 F190.00
G01 Z-0.2500
G01 F400.00
G01 X15.9923 Y32.3753
G01 X16.0063 Y32.3617
G01 X16.0335 Y32.3367
G01 X16.0335 Y29.7002
G01 X16.0139 Y29.6831
G01 X16.0020 Y29.6720
G01 X15.9901 Y29.6831
G01 X15.9705 Y29.7002
G01 X15.9705 Y32.3981
G00 Z5.0000
G00 X10.9535 Y32.3981
G01 F190.00
G01 Z-0.2500
G01 F400.00
G01 X10.9535 Y29.7002
G01 X10.9339 Y29.6831
G01 X10.9220 Y29.6720
G01 X10.9101 Y29.6831
G01 X10.8905 Y29.7002
G01 X10.8905 Y32.3367
G01 X10.9177 Y32.3617
G01 X10.9317 Y32.3753
G01 X10.9535 Y32.3981
G00 Z5.0000
G00 X4.6035 Y34.9250
G01 F190.00
G01 Z-0.2500
G01 F400.00
G01 X4.6045 Y34.8861
G01 X4.6066 Y34.8425
G01 X4.6095 Y34.8036
G01 X4.6143 Y34.7649
G01 X4.6238 Y34.7025
G01 X4.6314 Y34.6643
G01 X4.6465 Y34.6030
G01 X4.6569 Y34.5655
G01 X4.6691 Y34.5285
G01 X4.6906 Y34.4691
G01 X4.7055 Y34.4332
G01 X4.7322 Y34.3760
G01 X4.7498 Y34.3412
G01 X4.7690 Y34.3073
G01 X4.7914 Y34.2699
G01 X4.8122 Y34.2369
G01 X4.8347 Y34.2051
G01 X4.8725 Y34.1545
G01 X4.8972 Y34.1244
G01 X4.9101 Y34.1098
G01 X4.9394 Y34.0775
G01 X4.9663 Y34.0493
G01 X6.2363 Y32.7793
G01 X6.2645 Y32.7524
G01 X6.2968 Y32.7231
G01 X6.3263 Y32.6976
G01 X6.3570 Y32.6737
G01 X6.3921 Y32.6477
G01 X6.4239 Y32.6252
G01 X6.4569 Y32.6044
G01 X6.4943 Y32.5820
G01 X6.5282 Y32.5628
G01 X6.5630 Y32.5452
G01 X6.6024 Y32.5266
G01 X6.6202 Y32.5185
G01 X6.6561 Y32.5036
G01 X6.7339 Y32.4757
G01 X6.7525 Y32.4699
G01 X6.7900 Y32.4595
G01 X6.8324 Y32.4489
G01 X6.8704 Y32.4403
G01 X6.9088 Y32.4337
G01 X6.9519 Y32.4273
G01 X6.9906 Y32.4225
G01 X7.0100 Y32.4208
G01 X7.0731 Y32.4175
G01 X7.1120 Y32.4165
G01 X8.3337 Y32.4165
G01 X8.3587 Y32.3893
G01 X8.3723 Y32.3753
G01 X8.3863 Y32.3617
G01 X8.4135 Y32.3367
G01 X8.4135 Y29.7002
G01 X8.3939 Y29.6831
G01 X8.3657 Y29.6563
G01 X8.3389 Y29.6280
G01 X8.3134 Y29.5985
G01 X8.2895 Y29.5678
G01 X8.2670 Y29.5360
G01 X8.2462 Y29.5031
G01 X8.2270 Y29.4692
G01 X8.2095 Y29.4344
G01 X8.1937 Y29.3988
G01 X8.1796 Y29.3624
G01 X8.1674 Y29.3254
G01 X8.1570 Y29.2879
G01 X8.1485 Y29.2499
G01 X8.1418 Y29.2115
G01 X8.1371 Y29.1728
G01 X8.1342 Y29.1339
G01 X8.1332 Y29.0950
G01 X8.1335 Y26.9755
G01 X8.1354 Y26.9366
G01 X8.1371 Y26.9172
G01 X8.1418 Y26.8785
G01 X8.1449 Y26.8593
G01 X8.1525 Y26.8211
G01 X8.1620 Y26.7833
G01 X8.1733 Y26.7460
G01 X8.1796 Y26.7276
G01 X8.1937 Y26.6912
G01 X8.2095 Y26.6556
G01 X8.2180 Y26.6381
G01 X8.2364 Y26.6038
G01 X8.2564 Y26.5703
G01 X8.2670 Y26.5540
G01 X8.2895 Y26.5222
G01 X8.3012 Y26.5067
G01 X8.3260 Y26.4765
G01 X8.3389 Y26.4619
G01 X8.3657 Y26.4337
G01 X8.3939 Y26.4069
G01 X8.4085 Y26.3940
G01 X8.4387 Y26.3692
G01 X8.4542 Y26.3575
G01 X8.4860 Y26.3350
G01 X8.5189 Y26.3142
G01 X8.5528 Y26.2950
G01 X8.5701 Y26.2860
G01 X8.6053 Y26.2693
G01 X8.6413 Y26.2544
G01 X8.6780 Y26.2413
G01 X8.6966 Y26.2354
G01 X8.7153 Y26.2300
G01 X8.7531 Y26.2205
G01 X8.7913 Y26.2129
G01 X8.8298 Y26.2072
G01 X8.8686 Y26.2034
G01 X8.8881 Y26.2022
G01 X8.9270 Y26.2012
G01 X10.3770 Y26.2012
G01 X10.4159 Y26.2022
G01 X10.4548 Y26.2051
G01 X10.4935 Y26.2098
G01 X10.5127 Y26.2129
G01 X10.5509 Y26.2205
G01 X10.5887 Y26.2300
G01 X10.6260 Y26.2413
G01 X10.6627 Y26.2544
G01 X10.6808 Y26.2617
G01 X10.7164 Y26.2775
G01 X10.7512 Y26.2950
G01 X10.7682 Y26.3044
G01 X10.8017 Y26.3244
G01 X10.8340 Y26.3460
G01 X10.8653 Y26.3692
G01 X10.8955 Y26.3940
G01 X10.9220 Y26.4180
G01 X10.9485 Y26.3940
G01 X10.9787 Y26.3692
G01 X10.9942 Y26.3575
G01 X11.0260 Y26.3350
G01 X11.0589 Y26.3142
G01 X11.0928 Y26.2950
G01 X11.1101 Y26.2860
G01 X11.1453 Y26.2693
G01 X11.1813 Y26.2544
G01 X11.1996 Y26.2476
G01 X11.2180 Y26.2413
G01 X11.2553 Y26.2300
G01 X11.2741 Y26.2250
G01 X11.3121 Y26.2165
G01 X11.3505 Y26.2098
G01 X11.3892 Y26.2051
G01 X11.4281 Y26.2022
G01 X11.4670 Y26.2012
G01 X12.9365 Y26.2015
G01 X12.9754 Y26.2034
G01 X13.0142 Y26.2072
G01 X13.0527 Y26.2129
G01 X13.0909 Y26.2205
G01 X13.1287 Y26.2300
G01 X13.1660 Y26.2413
G01 X13.2027 Y26.2544
G01 X13.2208 Y26.2617
G01 X13.2564 Y26.2775
G01 X13.2912 Y26.2950
G01 X13.3082 Y26.3044
G01 X13.3417 Y26.3244
G01 X13.3740 Y26.3460
G01 X13.4053 Y26.3692
G01 X13.4355 Y26.3940
G01 X13.4620 Y26.4180
G01 X13.4885 Y26.3940
G01 X13.5187 Y26.3692
G01 X13.5342 Y26.3575
G01 X13.5660 Y26.3350
G01 X13.5989 Y26.3142
G01 X13.6328 Y26.2950
G01 X13.6676 Y26.2775
G01 X13.6853 Y26.2693
G01 X13.7032 Y26.2617
G01 X13.7396 Y26.2476
G01 X13.7580 Y26.2413
G01 X13.7953 Y26.2300
G01 X13.8331 Y26.2205
G01 X13.8521 Y26.2165
G01 X13.8905 Y26.2098
G01 X13.9292 Y26.2051
G01 X13.9681 Y26.2022
G01 X14.0070 Y26.2012
G01 X15.4765 Y26.2015
G01 X15.5154 Y26.2034
G01 X15.5542 Y26.2072
G01 X15.5927 Y26.2129
G01 X15.6309 Y26.2205
G01 X15.6687 Y26.2300
G01 X15.7060 Y26.2413
G01 X15.7427 Y26.2544
G01 X15.7608 Y26.2617
G01 X15.7964 Y26.2775
G01 X15.8312 Y26.2950
G01 X15.8482 Y26.3044
G01 X15.8817 Y26.3244
G01 X15.9140 Y26.3460
G01 X15.9453 Y26.3692
G01 X15.9755 Y26.3940
G01 X16.0020 Y26.4180
G01 X16.0285 Y26.3940
G01 X16.0587 Y26.3692
G01 X16.0742 Y26.3575
G01 X16.1060 Y26.3350
G01 X16.1389 Y26.3142
G01 X16.1728 Y26.2950
G01 X16.2076 Y26.2775
G01 X16.2253 Y26.2693
G01 X16.2432 Y26.2617
G01 X16.2796 Y26.2476
G01 X16.2980 Y26.2413
G01 X16.3353 Y26.2300
G01 X16.3731 Y26.2205
G01 X16.3921 Y26.2165
G01 X16.4305 Y26.2098
G01 X16.4692 Y26.2051
G01 X16.5081 Y26.2022
G01 X16.5470 Y26.2012
G01 X18.0165 Y26.2015
G01 X18.0554 Y26.2034
G01 X18.0942 Y26.2072
G01 X18.1327 Y26.2129
G01 X18.1709 Y26.2205
G01 X18.2087 Y26.2300
G01 X18.2460 Y26.2413
G01 X18.2827 Y26.2544
G01 X18.3187 Y26.2693
G01 X18.3539 Y26.2860
G01 X18.3882 Y26.3044
G01 X18.4217 Y26.3244
G01 X18.4540 Y26.3460
G01 X18.4853 Y26.3692
G01 X18.5155 Y26.3940
G01 X18.5443 Y26.4201
G01 X18.5719 Y26.4477
G01 X18.5980 Y26.4765
G01 X18.6228 Y26.5067
G01 X18.6345 Y26.5222
G01 X18.6570 Y26.5540
G01 X18.6676 Y26.5703
G01 X18.6876 Y26.6038
G01 X18.7060 Y26.6381
G01 X18.7227 Y26.6733
G01 X18.7376 Y26.7093
G01 X18.7444 Y26.7276
G01 X18.7566 Y26.7646
G01 X18.7670 Y26.8021
G01 X18.7755 Y26.8401
G01 X18.7791 Y26.8593
G01 X18.7848 Y26.8978
G01 X18.7886 Y26.9366
G01 X18.7898 Y26.9561
G01 X18.7908 Y26.9950
G01 X18.7908 Y29.0950
G01 X18.7898 Y29.1339
G01 X18.7886 Y29.1534
G01 X18.7848 Y29.1922
G01 X18.7791 Y29.2307
G01 X18.7715 Y29.2689
G01 X18.7620 Y29.3067
G01 X18.7507 Y29.3440
G01 X18.7376 Y29.3807
G01 X18.7227 Y29.4167
G01 X18.7145 Y29.4344
G01 X18.6970 Y29.4692
G01 X18.6778 Y29.5031
G01 X18.6570 Y29.5360
G01 X18.6460 Y29.5520
G01 X18.6228 Y29.5833
G01 X18.5980 Y29.6135
G01 X18.5719 Y29.6423
G01 X18.5443 Y29.6699
G01 X18.5301 Y29.6831
G01 X18.5105 Y29.7002
G01 X18.5105 Y32.3367
G01 X18.5377 Y32.3617
G01 X18.5653 Y32.3893
G01 X18.6455 Y32.4774
G01 X18.6710 Y32.5069
G01 X18.6949 Y32.5376
G01 X18.7657 Y32.6335
G01 X18.7874 Y32.6659
G01 X18.7976 Y32.6825
G01 X18.8489 Y32.7680
G01 X18.8681 Y32.8019
G01 X18.8856 Y32.8367
G01 X18.9363 Y32.9445
G01 X18.9512 Y32.9805
G01 X18.9580 Y32.9988
G01 X18.9979 Y33.1111
G01 X19.0092 Y33.1484
G01 X19.0384 Y33.2639
G01 X19.0470 Y33.3019
G01 X19.0536 Y33.3403
G01 X19.0683 Y33.4389
G01 X19.0730 Y33.4776
G01 X19.0747 Y33.4970
G01 X19.0808 Y33.6161
G01 X19.0818 Y33.6550
G01 X19.0808 Y33.6939
G01 X19.0747 Y33.8130
G01 X19.0709 Y33.8517
G01 X19.0683 Y33.8711
G01 X19.0536 Y33.9697
G01 X19.0470 Y34.0081
G01 X19.0384 Y34.0461
G01 X19.0142 Y34.1428
G01 X19.0038 Y34.1803
G01 X18.9916 Y34.2173
G01 X18.9512 Y34.3295
G01 X18.9440 Y34.3476
G01 X18.9282 Y34.3832
G01 X18.8856 Y34.4733
G01 X18.8681 Y34.5081
G01 X18.8489 Y34.5420
G01 X18.7976 Y34.6275
G01 X18.7874 Y34.6441
G01 X18.7657 Y34.6765
G01 X18.6949 Y34.7724
G01 X18.6710 Y34.8031
G01 X18.6455 Y34.8326
G01 X18.5653 Y34.9207
G01 X18.5377 Y34.9483
G01 X18.5235 Y34.9616
G01 X18.4496 Y35.0285
G01 X18.4201 Y35.0540
G01 X18.3894 Y35.0779
G01 X18.3093 Y35.1373
G01 X18.2935 Y35.1487
G01 X18.2611 Y35.1704
G01 X18.1590 Y35.2319
G01 X18.1251 Y35.2511
G01 X18.0903 Y35.2686
G01 X17.9825 Y35.3193
G01 X17.9646 Y35.3270
G01 X17.9282 Y35.3410
G01 X17.8343 Y35.3746
G01 X17.7973 Y35.3868
G01 X17.7598 Y35.3972
G01 X17.6631 Y35.4214
G01 X17.6251 Y35.4300
G01 X17.6059 Y35.4335
G01 X17.4881 Y35.4513
G01 X17.4494 Y35.4560
G01 X17.4105 Y35.4589
G01 X17.2915 Y35.4645
G01 X17.2525 Y35.4645
G01 X17.2331 Y35.4638
G01 X17.1335 Y35.4589
G01 X17.0946 Y35.4560
G01 X17.0559 Y35.4513
G01 X16.9573 Y35.4366
G01 X16.9189 Y35.4300
G01 X16.8999 Y35.4259
G01 X16.7842 Y35.3972
G01 X16.7467 Y35.3868
G01 X16.7097 Y35.3746
G01 X16.5975 Y35.3342
G01 X16.5615 Y35.3193
G01 X16.5438 Y35.3112
G01 X16.4537 Y35.2686
G01 X16.4189 Y35.2511
G01 X16.3850 Y35.2319
G01 X16.2995 Y35.1806
G01 X16.2829 Y35.1704
G01 X16.2505 Y35.1487
G01 X16.1546 Y35.0779
G01 X16.1239 Y35.0540
G01 X16.0944 Y35.0285
G01 X16.0205 Y34.9616
G01 X15.9923 Y34.9347
G01 X15.9705 Y34.9119
G01 X15.9705 Y35.6820
G01 X16.2560 Y35.9675
G01 X16.2829 Y35.9496
G01 X16.2995 Y35.9394
G01 X16.3850 Y35.8881
G01 X16.4018 Y35.8783
G01 X16.4362 Y35.8600
G01 X16.5438 Y35.8088
G01 X16.5794 Y35.7930
G01 X16.6158 Y35.7790
G01 X16.7097 Y35.7454
G01 X16.7467 Y35.7332
G01 X16.7654 Y35.7278
G01 X16.8809 Y35.6986
G01 X16.9189 Y35.6900
G01 X16.9573 Y35.6834
G01 X17.0559 Y35.6687
G01 X17.0753 Y35.6661
G01 X17.1140 Y35.6623
G01 X17.2331 Y35.6562
G01 X17.2720 Y35.6552
G01 X17.3109 Y35.6562
G01 X17.4105 Y35.6611
G01 X17.4300 Y35.6623
G01 X17.4687 Y35.6661
G01 X17.5867 Y35.6834
G01 X17.6251 Y35.6900
G01 X17.6631 Y35.6986
G01 X17.7786 Y35.7278
G01 X17.7973 Y35.7332
G01 X17.8343 Y35.7454
G01 X17.9282 Y35.7790
G01 X17.9646 Y35.7930
G01 X18.0002 Y35.8088
G01 X18.0903 Y35.8514
G01 X18.1078 Y35.8600
G01 X18.1422 Y35.8783
G01 X18.2445 Y35.9394
G01 X18.2774 Y35.9602
G01 X18.3093 Y35.9827
G01 X18.4049 Y36.0539
G01 X18.4201 Y36.0660
G01 X18.4496 Y36.0915
G01 X18.5235 Y36.1584
G01 X18.5517 Y36.1853
G01 X18.5786 Y36.2135
G01 X18.6455 Y36.2874
G01 X18.6584 Y36.3020
G01 X18.6831 Y36.3321
G01 X18.7543 Y36.4277
G01 X18.7768 Y36.4596
G01 X18.7976 Y36.4925
G01 X18.8587 Y36.5948
G01 X18.8681 Y36.6119
G01 X18.8856 Y36.6467
G01 X18.9282 Y36.7368
G01 X18.9440 Y36.7724
G01 X18.9580 Y36.8088
G01 X18.9916 Y36.9027
G01 X19.0038 Y36.9397
G01 X19.0092 Y36.9584
G01 X19.0384 Y37.0739
G01 X19.0470 Y37.1119
G01 X19.0536 Y37.1503
G01 X19.0683 Y37.2489
G01 X19.0730 Y37.2876
G01 X19.0747 Y37.3070
G01 X19.0808 Y37.4261
G01 X19.0818 Y37.4650
G01 X19.0808 Y37.5039
G01 X19.0759 Y37.6035
G01 X19.0730 Y37.6424
G01 X19.0683 Y37.6811
G01 X19.0505 Y37.7989
G01 X19.0429 Y37.8371
G01 X19.0142 Y37.9528
G01 X19.0038 Y37.9903
G01 X18.9916 Y38.0273
G01 X18.9512 Y38.1395
G01 X18.9363 Y38.1755
G01 X18.8856 Y38.2833
G01 X18.8681 Y38.3181
G01 X18.8489 Y38.3520
G01 X18.7976 Y38.4375
G01 X18.7768 Y38.4704
G01 X18.7543 Y38.5023
G01 X18.6949 Y38.5824
G01 X18.6710 Y38.6131
G01 X18.6455 Y38.6426
G01 X18.5786 Y38.7165
G01 X18.5517 Y38.7447
G01 X18.5235 Y38.7716
G01 X18.4496 Y38.8385
G01 X18.4201 Y38.8640
G01 X18.3894 Y38.8879
G01 X18.2935 Y38.9587
G01 X18.2611 Y38.9804
G01 X18.1590 Y39.0419
G01 X18.1251 Y39.0611
G01 X18.0903 Y39.0786
G01 X17.9825 Y39.1293
G01 X17.9465 Y39.1442
G01 X17.8343 Y39.1846
G01 X17.7973 Y39.1968
G01 X17.7598 Y39.2072
G01 X17.6631 Y39.2314
G01 X17.6251 Y39.2400
G01 X17.5867 Y39.2466
G01 X17.4881 Y39.2613
G01 X17.4494 Y39.2660
G01 X17.4105 Y39.2689
G01 X17.3109 Y39.2738
G01 X17.2720 Y39.2748
G01 X17.2331 Y39.2738
G01 X17.1335 Y39.2689
G01 X17.1140 Y39.2677
G01 X17.0753 Y39.2639
G01 X16.9573 Y39.2466
G01 X16.9189 Y39.2400
G01 X16.8809 Y39.2314
G01 X16.7842 Y39.2072
G01 X16.7467 Y39.1968
G01 X16.7097 Y39.1846
G01 X16.6158 Y39.1510
G01 X16.5975 Y39.1442
G01 X16.5615 Y39.1293
G01 X16.4537 Y39.0786
G01 X16.4189 Y39.0611
G01 X16.3850 Y39.0419
G01 X16.2995 Y38.9906
G01 X16.2666 Y38.9698
G01 X16.2347 Y38.9473
G01 X16.1546 Y38.8879
G01 X16.1239 Y38.8640
G01 X16.0944 Y38.8385
G01 X16.0063 Y38.7583
G01 X15.9923 Y38.7447
G01 X15.9705 Y38.7219
G01 X15.9705 Y40.7359
G01 X16.0020 Y40.7352
G01 X16.0215 Y40.7355
G01 X16.1600 Y40.7423
G01 X16.1987 Y40.7461
G01 X16.3167 Y40.7634
G01 X16.3551 Y40.7700
G01 X16.3931 Y40.7786
G01 X16.5086 Y40.8078
G01 X16.5273 Y40.8132
G01 X16.5643 Y40.8254
G01 X16.6765 Y40.8658
G01 X16.7125 Y40.8807
G01 X16.8203 Y40.9314
G01 X16.8378 Y40.9400
G01 X16.8722 Y40.9583
G01 X16.9745 Y41.0194
G01 X17.0074 Y41.0402
G01 X17.0393 Y41.0627
G01 X17.1194 Y41.1221
G01 X17.1501 Y41.1460
G01 X17.1650 Y41.1586
G01 X17.2535 Y41.2384
G01 X17.2817 Y41.2653
G01 X17.3086 Y41.2935
G01 X17.3755 Y41.3674
G01 X17.4010 Y41.3969
G01 X17.4249 Y41.4276
G01 X17.4843 Y41.5077
G01 X17.5068 Y41.5396
G01 X17.5276 Y41.5725
G01 X17.5789 Y41.6580
G01 X17.5981 Y41.6919
G01 X17.6156 Y41.7267
G01 X17.6582 Y41.8168
G01 X17.6740 Y41.8524
G01 X17.6880 Y41.8888
G01 X17.7216 Y41.9827
G01 X17.7338 Y42.0197
G01 X17.7442 Y42.0572
G01 X17.7684 Y42.1539
G01 X17.7770 Y42.1919
G01 X17.7836 Y42.2303
G01 X17.8009 Y42.3483
G01 X17.8047 Y42.3870
G01 X17.8059 Y42.4065
G01 X17.8108 Y42.5061
G01 X17.8118 Y42.5450
G01 X17.8108 Y42.5839
G01 X17.8059 Y42.6835
G01 X17.8030 Y42.7224
G01 X17.7983 Y42.7611
G01 X17.7836 Y42.8597
G01 X17.7770 Y42.8981
G01 X17.7684 Y42.9361
G01 X17.7392 Y43.0516
G01 X17.7338 Y43.0703
G01 X17.7216 Y43.1073
G01 X17.6880 Y43.2012
G01 X17.6740 Y43.2376
G01 X17.6582 Y43.2732
G01 X17.6070 Y43.3808
G01 X17.5887 Y43.4152
G01 X17.5789 Y43.4320
G01 X17.5174 Y43.5341
G01 X17.4957 Y43.5665
G01 X17.4311 Y43.6541
G01 X17.4311 Y45.2459
G01 X17.4957 Y45.3335
G01 X17.5174 Y45.3659
G01 X17.5789 Y45.4680
G01 X17.5887 Y45.4848
G01 X17.6070 Y45.5192
G01 X17.6582 Y45.6268
G01 X17.6740 Y45.6624
G01 X17.6880 Y45.6988
G01 X17.7216 Y45.7927
G01 X17.7338 Y45.8297
G01 X17.7392 Y45.8484
G01 X17.7684 Y45.9639
G01 X17.7770 Y46.0019
G01 X17.7836 Y46.0403
G01 X17.7983 Y46.1389
G01 X17.8030 Y46.1776
G01 X17.8047 Y46.1970
G01 X17.8108 Y46.3161
G01 X17.8115 Y46.3355
G01 X17.8115 Y46.3745
G01 X17.8047 Y46.5130
G01 X17.8030 Y46.5324
G01 X17.7983 Y46.5711
G01 X17.7836 Y46.6697
G01 X17.7770 Y46.7081
G01 X17.7684 Y46.7461
G01 X17.7442 Y46.8428
G01 X17.7392 Y46.8616
G01 X17.7279 Y46.8989
G01 X17.6880 Y47.0112
G01 X17.6740 Y47.0476
G01 X17.6663 Y47.0655
G01 X17.6070 Y47.1908
G01 X17.5887 Y47.2252
G01 X17.5789 Y47.2420
G01 X17.5174 Y47.3441
G01 X17.5068 Y47.3604
G01 X17.4843 Y47.3923
G01 X17.4249 Y47.4724
G01 X17.4010 Y47.5031
G01 X17.3755 Y47.5326
G01 X17.3086 Y47.6065
G01 X17.2817 Y47.6347
G01 X17.2535 Y47.6616
G01 X17.1796 Y47.7285
G01 X17.1501 Y47.7540
G01 X17.1194 Y47.7779
G01 X17.0393 Y47.8373
G01 X17.0235 Y47.8487
G01 X16.9911 Y47.8704
G01 X16.8722 Y47.9417
G01 X16.8378 Y47.9600
G01 X16.8203 Y47.9686
G01 X16.7302 Y48.0112
G01 X16.6946 Y48.0270
G01 X16.6582 Y48.0410
G01 X16.5643 Y48.0746
G01 X16.5273 Y48.0868
G01 X16.5086 Y48.0922
G01 X16.3931 Y48.1214
G01 X16.3551 Y48.1300
G01 X16.3167 Y48.1366
G01 X16.2181 Y48.1513
G01 X16.1794 Y48.1560
G01 X16.1405 Y48.1589
G01 X16.0215 Y48.1645
G01 X15.9825 Y48.1645
G01 X15.9631 Y48.1638
G01 X15.8635 Y48.1589
G01 X15.8246 Y48.1560
G01 X15.7859 Y48.1513
G01 X15.6873 Y48.1366
G01 X15.6681 Y48.1335
G01 X15.6299 Y48.1259
G01 X15.5142 Y48.0972
G01 X15.4767 Y48.0868
G01 X15.4397 Y48.0746
G01 X15.3458 Y48.0410
G01 X15.3094 Y48.0270
G01 X15.2738 Y48.0112
G01 X15.1662 Y47.9600
G01 X15.1318 Y47.9417
G01 X15.1150 Y47.9319
G01 X15.0295 Y47.8806
G01 X14.9966 Y47.8598
G01 X14.9647 Y47.8373
G01 X14.8846 Y47.7779
G01 X14.8539 Y47.7540
G01 X14.8390 Y47.7414
G01 X14.7505 Y47.6616
G01 X14.7223 Y47.6347
G01 X14.6954 Y47.6065
G01 X14.6285 Y47.5326
G01 X14.6030 Y47.5031
G01 X14.5791 Y47.4724
G01 X14.5197 Y47.3923
G01 X14.4972 Y47.3604
G01 X14.4764 Y47.3275
G01 X14.4153 Y47.2252
G01 X14.3970 Y47.1908
G01 X14.3884 Y47.1733
G01 X14.3458 Y47.0832
G01 X14.3300 Y47.0476
G01 X14.3160 Y47.0112
G01 X14.2824 Y46.9173
G01 X14.2702 Y46.8803
G01 X14.2648 Y46.8616
G01 X14.2356 Y46.7461
G01 X14.2270 Y46.7081
G01 X14.2204 Y46.6697
G01 X14.2057 Y46.5711
G01 X14.2010 Y46.5324
G01 X14.1981 Y46.4935
G01 X14.1932 Y46.3939
G01 X14.1922 Y46.3550
G01 X14.1932 Y46.3161
G01 X14.1981 Y46.2165
G01 X14.2010 Y46.1776
G01 X14.2057 Y46.1389
G01 X14.2204 Y46.0403
G01 X14.2270 Y46.0019
G01 X14.2311 Y45.9829
G01 X14.2598 Y45.8672
G01 X14.2702 Y45.8297
G01 X14.2761 Y45.8111
G01 X14.3228 Y45.6805
G01 X14.3300 Y45.6624
G01 X14.3458 Y45.6268
G01 X14.3970 Y45.5192
G01 X14.4059 Y45.5019
G01 X14.4251 Y45.4680
G01 X14.4764 Y45.3825
G01 X14.4972 Y45.3496
G01 X14.5197 Y45.3177
G01 X14.5729 Y45.2459
G01 X14.5729 Y43.6541
G01 X14.5197 Y43.5823
G01 X14.4972 Y43.5504
G01 X14.4764 Y43.5175
G01 X14.4251 Y43.4320
G01 X14.4059 Y43.3981
G01 X14.3884 Y43.3633
G01 X14.3458 Y43.2732
G01 X14.3300 Y43.2376
G01 X14.3160 Y43.2012
G01 X14.2761 Y43.0889
G01 X14.2702 Y43.0703
G01 X14.2598 Y43.0328
G01 X14.2311 Y42.9171
G01 X14.2235 Y42.8789
G01 X14.2057 Y42.7611
G01 X14.2010 Y42.7224
G01 X14.1993 Y42.7030
G01 X14.1932 Y42.5839
G01 X14.1922 Y42.5450
G01 X14.1925 Y42.5255
G01 X14.1941 Y42.4885
G01 X13.8563 Y42.1507
G01 X13.8294 Y42.1225
G01 X13.8001 Y42.0902
G01 X13.7872 Y42.0756
G01 X13.7625 Y42.0455
G01 X13.7133 Y41.9791
G01 X13.6916 Y41.9467
G01 X13.6590 Y41.8927
G01 X13.6398 Y41.8588
G01 X13.6308 Y41.8415
G01 X13.6036 Y41.7846
G01 X13.5878 Y41.7489
G01 X13.5738 Y41.7126
G01 X13.5591 Y41.6715
G01 X13.5469 Y41.6345
G01 X13.5414 Y41.6158
G01 X13.5214 Y41.5357
G01 X13.5173 Y41.5166
G01 X13.5107 Y41.4782
G01 X13.5043 Y41.4351
G01 X13.4995 Y41.3964
G01 X13.4966 Y41.3575
G01 X13.4945 Y41.3139
G01 X13.4935 Y41.2750
G01 X13.4935 Y29.7002
G01 X13.4739 Y29.6831
G01 X13.4620 Y29.6720
G01 X13.4501 Y29.6831
G01 X13.4305 Y29.7002
G01 X13.4305 Y36.1950
G01 X13.4295 Y36.2339
G01 X13.4274 Y36.2775
G01 X13.4245 Y36.3164
G01 X13.4197 Y36.3551
G01 X13.4133 Y36.3982
G01 X13.4067 Y36.4366
G01 X13.3981 Y36.4746
G01 X13.3875 Y36.5170
G01 X13.3826 Y36.5358
G01 X13.3713 Y36.5731
G01 X13.3502 Y36.6326
G01 X13.3362 Y36.6689
G01 X13.3204 Y36.7046
G01 X13.3018 Y36.7440
G01 X13.2932 Y36.7615
G01 X13.2748 Y36.7959
G01 X13.2426 Y36.8501
G01 X13.2218 Y36.8831
G01 X13.1993 Y36.9149
G01 X13.1733 Y36.9500
G01 X13.1615 Y36.9655
G01 X13.1368 Y36.9956
G01 X13.0946 Y37.0425
G01 X13.0677 Y37.0707
G01 X11.7977 Y38.3407
G01 X11.7695 Y38.3676
G01 X11.7372 Y38.3969
G01 X11.7077 Y38.4224
G01 X11.6770 Y38.4463
G01 X11.6261 Y38.4837
G01 X11.6101 Y38.4948
G01 X11.5771 Y38.5156
G01 X11.5229 Y38.5478
G01 X11.4885 Y38.5662
G01 X11.4138 Y38.6015
G01 X11.3779 Y38.6164
G01 X11.3185 Y38.6379
G01 X11.2815 Y38.6501
G01 X11.2440 Y38.6605
G01 X11.2016 Y38.6711
G01 X11.1636 Y38.6797
G01 X11.1252 Y38.6863
G01 X11.0628 Y38.6954
G01 X11.0240 Y38.6992
G01 X10.9717 Y38.7020
G01 X10.9453 Y38.7307
G01 X10.9177 Y38.7583
G01 X10.8150 Y38.8514
G01 X10.8001 Y38.8640
G01 X10.7694 Y38.8879
G01 X10.6893 Y38.9473
G01 X10.6574 Y38.9698
G01 X10.6245 Y38.9906
G01 X10.5390 Y39.0419
G01 X10.5051 Y39.0611
G01 X10.4703 Y39.0786
G01 X10.3802 Y39.1212
G01 X10.3446 Y39.1370
G01 X10.3265 Y39.1442
G01 X10.1959 Y39.1909
G01 X10.1773 Y39.1968
G01 X10.1398 Y39.2072
G01 X10.0431 Y39.2314
G01 X10.0051 Y39.2400
G01 X9.9667 Y39.2466
G01 X9.8487 Y39.2639
G01 X9.8100 Y39.2677
G01 X9.7905 Y39.2689
G01 X9.6909 Y39.2738
G01 X9.6520 Y39.2748
G01 X9.6131 Y39.2738
G01 X9.4940 Y39.2677
G01 X9.4553 Y39.2639
G01 X9.4359 Y39.2613
G01 X9.3373 Y39.2466
G01 X9.2989 Y39.2400
G01 X9.2609 Y39.2314
G01 X9.1642 Y39.2072
G01 X9.1267 Y39.1968
G01 X9.0897 Y39.1846
G01 X8.9958 Y39.1510
G01 X8.9594 Y39.1370
G01 X8.9238 Y39.1212
G01 X8.8337 Y39.0786
G01 X8.7989 Y39.0611
G01 X8.7650 Y39.0419
G01 X8.6629 Y38.9804
G01 X8.6305 Y38.9587
G01 X8.5346 Y38.8879
G01 X8.5039 Y38.8640
G01 X8.4744 Y38.8385
G01 X8.4005 Y38.7716
G01 X8.3723 Y38.7447
G01 X8.3454 Y38.7165
G01 X8.2656 Y38.6280
G01 X8.2409 Y38.5979
G01 X8.1697 Y38.5023
G01 X8.1472 Y38.4704
G01 X8.1264 Y38.4375
G01 X8.0653 Y38.3352
G01 X8.0470 Y38.3008
G01 X7.9958 Y38.1932
G01 X7.9800 Y38.1576
G01 X7.9660 Y38.1212
G01 X7.9324 Y38.0273
G01 X7.9202 Y37.9903
G01 X7.9098 Y37.9528
G01 X7.8811 Y37.8371
G01 X7.8735 Y37.7989
G01 X7.8704 Y37.7797
G01 X7.8557 Y37.6811
G01 X7.8510 Y37.6424
G01 X7.8481 Y37.6035
G01 X7.8425 Y37.4845
G01 X7.8422 Y37.4650
G01 X7.8432 Y37.4261
G01 X7.8481 Y37.3265
G01 X7.8510 Y37.2876
G01 X7.8557 Y37.2489
G01 X7.8704 Y37.1503
G01 X7.8770 Y37.1119
G01 X7.8811 Y37.0929
G01 X7.9098 Y36.9772
G01 X7.9202 Y36.9397
G01 X7.9324 Y36.9027
G01 X7.9728 Y36.7905
G01 X7.9800 Y36.7724
G01 X7.9958 Y36.7368
G01 X8.0384 Y36.6467
G01 X8.0559 Y36.6119
G01 X8.0751 Y36.5780
G01 X8.1264 Y36.4925
G01 X8.1472 Y36.4596
G01 X8.1583 Y36.4435
G01 X8.2291 Y36.3476
G01 X8.2530 Y36.3169
G01 X8.2785 Y36.2874
G01 X8.3454 Y36.2135
G01 X8.3587 Y36.1993
G01 X8.3863 Y36.1717
G01 X8.4744 Y36.0915
G01 X8.5039 Y36.0660
G01 X8.5346 Y36.0421
G01 X8.6147 Y35.9827
G01 X8.6466 Y35.9602
G01 X8.6795 Y35.9394
G01 X8.7650 Y35.8881
G01 X8.7989 Y35.8689
G01 X8.8337 Y35.8514
G01 X8.9238 Y35.8088
G01 X8.9594 Y35.7930
G01 X8.9775 Y35.7858
G01 X9.0897 Y35.7454
G01 X9.1267 Y35.7332
G01 X9.1642 Y35.7228
G01 X9.2609 Y35.6986
G01 X9.2989 Y35.6900
G01 X9.3373 Y35.6834
G01 X9.4359 Y35.6687
G01 X9.4746 Y35.6640
G01 X9.5135 Y35.6611
G01 X9.6131 Y35.6562
G01 X9.6520 Y35.6552
G01 X9.6909 Y35.6562
G01 X9.7905 Y35.6611
G01 X9.8294 Y35.6640
G01 X9.8681 Y35.6687
G01 X9.9667 Y35.6834
G01 X10.0051 Y35.6900
G01 X10.0431 Y35.6986
G01 X10.1398 Y35.7228
G01 X10.1773 Y35.7332
G01 X10.2143 Y35.7454
G01 X10.3265 Y35.7858
G01 X10.3446 Y35.7930
G01 X10.3802 Y35.8088
G01 X10.4878 Y35.8600
G01 X10.5222 Y35.8783
G01 X10.6245 Y35.9394
G01 X10.6411 Y35.9496
G01 X10.6680 Y35.9675
G01 X10.9535 Y35.6820
G01 X10.9535 Y34.9119
G01 X10.9317 Y34.9347
G01 X10.9035 Y34.9616
G01 X10.8296 Y35.0285
G01 X10.8001 Y35.0540
G01 X10.7694 Y35.0779
G01 X10.6893 Y35.1373
G01 X10.6574 Y35.1598
G01 X10.6245 Y35.1806
G01 X10.5390 Y35.2319
G01 X10.5051 Y35.2511
G01 X10.4703 Y35.2686
G01 X10.3802 Y35.3112
G01 X10.3446 Y35.3270
G01 X10.3082 Y35.3410
G01 X10.2143 Y35.3746
G01 X10.1773 Y35.3868
G01 X10.1398 Y35.3972
G01 X10.0431 Y35.4214
G01 X10.0051 Y35.4300
G01 X9.9667 Y35.4366
G01 X9.8681 Y35.4513
G01 X9.8294 Y35.4560
G01 X9.7905 Y35.4589
G01 X9.6909 Y35.4638
G01 X9.6520 Y35.4648
G01 X9.6131 Y35.4638
G01 X9.5135 Y35.4589
G01 X9.4746 Y35.4560
G01 X9.4359 Y35.4513
G01 X9.3373 Y35.4366
G01 X9.2989 Y35.4300
G01 X9.2609 Y35.4214
G01 X9.1642 Y35.3972
G01 X9.1267 Y35.3868
G01 X9.0897 Y35.3746
G01 X8.9958 Y35.3410
G01 X8.9594 Y35.3270
G01 X8.9415 Y35.3193
G01 X8.8337 Y35.2686
G01 X8.7989 Y35.2511
G01 X8.7650 Y35.2319
G01 X8.6795 Y35.1806
G01 X8.6466 Y35.1598
G01 X8.6305 Y35.1487
G01 X8.5346 Y35.0779
G01 X8.5039 Y35.0540
G01 X8.4890 Y35.0414
G01 X8.3863 Y34.9483
G01 X8.3587 Y34.9207
G01 X8.3337 Y34.8935
G01 X7.6250 Y34.8935
G01 X7.0805 Y35.4380
G01 X7.0805 Y40.7620
G01 X7.3660 Y41.0475
G01 X7.3929 Y41.0296
G01 X7.4095 Y41.0194
G01 X7.4950 Y40.9681
G01 X7.5289 Y40.9489
G01 X7.5462 Y40.9400
G01 X7.6538 Y40.8888
G01 X7.6894 Y40.8730
G01 X7.7258 Y40.8590
G01 X7.8197 Y40.8254
G01 X7.8567 Y40.8132
G01 X7.8754 Y40.8078
G01 X7.9909 Y40.7786
G01 X8.0289 Y40.7700
G01 X8.0673 Y40.7634
G01 X8.1659 Y40.7487
G01 X8.1853 Y40.7461
G01 X8.2240 Y40.7423
G01 X8.3431 Y40.7362
G01 X8.3820 Y40.7352
G01 X8.4209 Y40.7362
G01 X8.5205 Y40.7411
G01 X8.5400 Y40.7423
G01 X8.5787 Y40.7461
G01 X8.6967 Y40.7634
G01 X8.7351 Y40.7700
G01 X8.7731 Y40.7786
G01 X8.8886 Y40.8078
G01 X8.9259 Y40.8191
G01 X8.9443 Y40.8254
G01 X9.0382 Y40.8590
G01 X9.0746 Y40.8730
G01 X9.1102 Y40.8888
G01 X9.2003 Y40.9314
G01 X9.2351 Y40.9489
G01 X9.2522 Y40.9583
G01 X9.3545 Y41.0194
G01 X9.3874 Y41.0402
G01 X9.4193 Y41.0627
G01 X9.4994 Y41.1221
G01 X9.5301 Y41.1460
G01 X9.5596 Y41.1715
G01 X9.6335 Y41.2384
G01 X9.6617 Y41.2653
G01 X9.6886 Y41.2935
G01 X9.7684 Y41.3820
G01 X9.7931 Y41.4121
G01 X9.8049 Y41.4276
G01 X9.8643 Y41.5077
G01 X9.8868 Y41.5396
G01 X9.9076 Y41.5725
G01 X9.9589 Y41.6580
G01 X9.9687 Y41.6748
G01 X9.9870 Y41.7092
G01 X10.0463 Y41.8345
G01 X10.0540 Y41.8524
G01 X10.0680 Y41.8888
G01 X10.1016 Y41.9827
G01 X10.1138 Y42.0197
G01 X10.1242 Y42.0572
G01 X10.1529 Y42.1729
G01 X10.1605 Y42.2111
G01 X10.1636 Y42.2303
G01 X10.1809 Y42.3483
G01 X10.1847 Y42.3870
G01 X10.1908 Y42.5061
G01 X10.1915 Y42.5255
G01 X10.1915 Y42.5645
G01 X10.1859 Y42.6835
G01 X10.1847 Y42.7030
G01 X10.1809 Y42.7417
G01 X10.1605 Y42.8789
G01 X10.1570 Y42.8981
G01 X10.1484 Y42.9361
G01 X10.1192 Y43.0516
G01 X10.1079 Y43.0889
G01 X10.0612 Y43.2195
G01 X10.0463 Y43.2555
G01 X10.0382 Y43.2732
G01 X9.9870 Y43.3808
G01 X9.9687 Y43.4152
G01 X9.9589 Y43.4320
G01 X9.9076 Y43.5175
G01 X9.8868 Y43.5504
G01 X9.8643 Y43.5823
G01 X9.8111 Y43.6541
G01 X9.8111 Y45.2459
G01 X9.8643 Y45.3177
G01 X9.8868 Y45.3496
G01 X9.9076 Y45.3825
G01 X9.9589 Y45.4680
G01 X9.9687 Y45.4848
G01 X9.9870 Y45.5192
G01 X10.0382 Y45.6268
G01 X10.0540 Y45.6624
G01 X10.0612 Y45.6805
G01 X10.1079 Y45.8111
G01 X10.1138 Y45.8297
G01 X10.1242 Y45.8672
G01 X10.1529 Y45.9829
G01 X10.1605 Y46.0211
G01 X10.1636 Y46.0403
G01 X10.1783 Y46.1389
G01 X10.1830 Y46.1776
G01 X10.1859 Y46.2165
G01 X10.1908 Y46.3161
G01 X10.1918 Y46.3550
G01 X10.1908 Y46.3939
G01 X10.1859 Y46.4935
G01 X10.1830 Y46.5324
G01 X10.1783 Y46.5711
G01 X10.1636 Y46.6697
G01 X10.1570 Y46.7081
G01 X10.1484 Y46.7461
G01 X10.1242 Y46.8428
G01 X10.1138 Y46.8803
G01 X10.1016 Y46.9173
G01 X10.0612 Y47.0295
G01 X10.0463 Y47.0655
G01 X10.0382 Y47.0832
G01 X9.9956 Y47.1733
G01 X9.9781 Y47.2081
G01 X9.9589 Y47.2420
G01 X9.9076 Y47.3275
G01 X9.8974 Y47.3441
G01 X9.8757 Y47.3765
G01 X9.8049 Y47.4724
G01 X9.7810 Y47.5031
G01 X9.7555 Y47.5326
G01 X9.6753 Y47.6207
G01 X9.6617 Y47.6347
G01 X9.6335 Y47.6616
G01 X9.5596 Y47.7285
G01 X9.5301 Y47.7540
G01 X9.4994 Y47.7779
G01 X9.4193 Y47.8373
G01 X9.4035 Y47.8487
G01 X9.3711 Y47.8704
G01 X9.2690 Y47.9319
G01 X9.2351 Y47.9511
G01 X9.2003 Y47.9686
G01 X9.1102 Y48.0112
G01 X9.0746 Y48.0270
G01 X9.0382 Y48.0410
G01 X8.9443 Y48.0746
G01 X8.9073 Y48.0868
G01 X8.8698 Y48.0972
G01 X8.7731 Y48.1214
G01 X8.7351 Y48.1300
G01 X8.6967 Y48.1366
G01 X8.5981 Y48.1513
G01 X8.5594 Y48.1560
G01 X8.5205 Y48.1589
G01 X8.4209 Y48.1638
G01 X8.3820 Y48.1648
G01 X8.3431 Y48.1638
G01 X8.2435 Y48.1589
G01 X8.2046 Y48.1560
G01 X8.1659 Y48.1513
G01 X8.0673 Y48.1366
G01 X8.0289 Y48.1300
G01 X7.9909 Y48.1214
G01 X7.8942 Y48.0972
G01 X7.8567 Y48.0868
G01 X7.8197 Y48.0746
G01 X7.7258 Y48.0410
G01 X7.6894 Y48.0270
G01 X7.6538 Y48.0112
G01 X7.5637 Y47.9686
G01 X7.5289 Y47.9511
G01 X7.4950 Y47.9319
G01 X7.4095 Y47.8806
G01 X7.3766 Y47.8598
G01 X7.3447 Y47.8373
G01 X7.2646 Y47.7779
G01 X7.2339 Y47.7540
G01 X7.2044 Y47.7285
G01 X7.1305 Y47.6616
G01 X7.1023 Y47.6347
G01 X7.0754 Y47.6065
G01 X7.0085 Y47.5326
G01 X6.9830 Y47.5031
G01 X6.9591 Y47.4724
G01 X6.8997 Y47.3923
G01 X6.8772 Y47.3604
G01 X6.8564 Y47.3275
G01 X6.8051 Y47.2420
G01 X6.7859 Y47.2081
G01 X6.7684 Y47.1733
G01 X6.7258 Y47.0832
G01 X6.7100 Y47.0476
G01 X6.6960 Y47.0112
G01 X6.6624 Y46.9173
G01 X6.6502 Y46.8803
G01 X6.6398 Y46.8428
G01 X6.6111 Y46.7271
G01 X6.6070 Y46.7081
G01 X6.6004 Y46.6697
G01 X6.5857 Y46.5711
G01 X6.5810 Y46.5324
G01 X6.5781 Y46.4935
G01 X6.5732 Y46.3939
G01 X6.5722 Y46.3550
G01 X6.5725 Y46.3355
G01 X6.5793 Y46.1970
G01 X6.5831 Y46.1583
G01 X6.6004 Y46.0403
G01 X6.6070 Y46.0019
G01 X6.6156 Y45.9639
G01 X6.6398 Y45.8672
G01 X6.6502 Y45.8297
G01 X6.6624 Y45.7927
G01 X6.7028 Y45.6805
G01 X6.7177 Y45.6445
G01 X6.7684 Y45.5367
G01 X6.7859 Y45.5019
G01 X6.7953 Y45.4848
G01 X6.8564 Y45.3825
G01 X6.8772 Y45.3496
G01 X6.8997 Y45.3177
G01 X6.9529 Y45.2459
G01 X6.9529 Y43.7729
G01 X6.9088 Y43.7663
G01 X6.8704 Y43.7597
G01 X6.8324 Y43.7511
G01 X6.7712 Y43.7356
G01 X6.7339 Y43.7243
G01 X6.6744 Y43.7032
G01 X6.6381 Y43.6892
G01 X6.6024 Y43.6734
G01 X6.5455 Y43.6462
G01 X6.5111 Y43.6278
G01 X6.4569 Y43.5956
G01 X6.4239 Y43.5748
G01 X6.3921 Y43.5523
G01 X6.3415 Y43.5145
G01 X6.3114 Y43.4898
G01 X6.2645 Y43.4476
G01 X6.2363 Y43.4207
G01 X4.9663 Y42.1507
G01 X4.9394 Y42.1225
G01 X4.8972 Y42.0756
G01 X4.8725 Y42.0455
G01 X4.8233 Y41.9791
G01 X4.8016 Y41.9467
G01 X4.7592 Y41.8759
G01 X4.7408 Y41.8415
G01 X4.7055 Y41.7668
G01 X4.6906 Y41.7309
G01 X4.6838 Y41.7126
G01 X4.6627 Y41.6531
G01 X4.6514 Y41.6158
G01 X4.6314 Y41.5357
G01 X4.6238 Y41.4975
G01 X4.6143 Y41.4351
G01 X4.6095 Y41.3964
G01 X4.6066 Y41.3575
G01 X4.6045 Y41.3139
G01 X4.6035 Y41.2750
G01 X4.6035 Y34.9250
G01 X3.5717 Y34.9250
G01 X3.5726 Y34.8675
G01 X3.5760 Y34.7918
G01 X3.5797 Y34.7345
G01 X3.5839 Y34.6899
G01 X3.5918 Y34.6261
G01 X3.6050 Y34.5386
G01 X3.6093 Y34.5137
G01 X3.6178 Y34.4697
G01 X3.6274 Y34.4259
G01 X3.6349 Y34.3946
G01 X3.6536 Y34.3212
G01 X3.6604 Y34.2968
G01 X3.6732 Y34.2539
G01 X3.6870 Y34.2112
G01 X3.6975 Y34.1809
G01 X3.7166 Y34.1279
G01 X3.7325 Y34.0860
G01 X3.7571 Y34.0266
G01 X3.7754 Y33.9857
G01 X3.7945 Y33.9452
G01 X3.8135 Y33.9059
G01 X3.8249 Y33.8833
G01 X3.8552 Y33.8266
G01 X3.8775 Y33.7877
G01 X3.9063 Y33.7394
G01 X3.9231 Y33.7120
G01 X3.9473 Y33.6742
G01 X3.9614 Y33.6532
G01 X3.9870 Y33.6164
G01 X4.0319 Y33.5553
G01 X4.0513 Y33.5297
G01 X4.0790 Y33.4945
G01 X4.1076 Y33.4601
G01 X4.1242 Y33.4409
G01 X4.1834 Y33.3752
G01 X4.2277 Y33.3286
G01 X5.5066 Y32.0496
G01 X5.5296 Y32.0271
G01 X5.5622 Y31.9964
G01 X5.6279 Y31.9372
G01 X5.6620 Y31.9081
G01 X5.6815 Y31.8920
G01 X5.7167 Y31.8643
G01 X5.7774 Y31.8189
G01 X5.8241 Y31.7854
G01 X5.8612 Y31.7603
G01 X5.8990 Y31.7361
G01 X5.9638 Y31.6969
G01 X6.0136 Y31.6682
G01 X6.0703 Y31.6379
G01 X6.1104 Y31.6179
G01 X6.1727 Y31.5884
G01 X6.2315 Y31.5624
G01 X6.2730 Y31.5455
G01 X6.3268 Y31.5252
G01 X6.3982 Y31.5000
G01 X6.4409 Y31.4862
G01 X6.4838 Y31.4734
G01 X6.5393 Y31.4585
G01 X6.6129 Y31.4404
G01 X6.6567 Y31.4308
G01 X6.7007 Y31.4223
G01 X6.7574 Y31.4130
G01 X6.8324 Y31.4022
G01 X6.8769 Y31.3969
G01 X6.9215 Y31.3927
G01 X6.9662 Y31.3897
G01 X7.0351 Y31.3863
G01 X7.0799 Y31.3850
G01 X7.1120 Y31.3847
G01 X7.3817 Y31.3847
G01 X7.3817 Y30.0669
G01 X7.3547 Y30.0227
G01 X7.3230 Y29.9667
G01 X7.3110 Y29.9444
G01 X7.2907 Y29.9045
G01 X7.2713 Y29.8641
G01 X7.2453 Y29.8053
G01 X7.2283 Y29.7638
G01 X7.2124 Y29.7219
G01 X7.2039 Y29.6981
G01 X7.1896 Y29.6556
G01 X7.1764 Y29.6128
G01 X7.1592 Y29.5509
G01 X7.1486 Y29.5073
G01 X7.1430 Y29.4826
G01 X7.1341 Y29.4387
G01 X7.1231 Y29.3754
G01 X7.1167 Y29.3310
G01 X7.1115 Y29.2865
G01 X7.1090 Y29.2613
G01 X7.1043 Y29.1972
G01 X7.1023 Y29.1525
G01 X7.1014 Y29.0950
G01 X7.1014 Y26.9950
G01 X7.1023 Y26.9375
G01 X7.1043 Y26.8928
G01 X7.1073 Y26.8481
G01 X7.1115 Y26.8035
G01 X7.1167 Y26.7590
G01 X7.1262 Y26.6954
G01 X7.1305 Y26.6704
G01 X7.1390 Y26.6264
G01 X7.1486 Y26.5827
G01 X7.1592 Y26.5391
G01 X7.1764 Y26.4772
G01 X7.1896 Y26.4344
G01 X7.2039 Y26.3919
G01 X7.2124 Y26.3681
G01 X7.2283 Y26.3262
G01 X7.2453 Y26.2847
G01 X7.2713 Y26.2259
G01 X7.2907 Y26.1855
G01 X7.3021 Y26.1629
G01 X7.3230 Y26.1233
G01 X7.3449 Y26.0842
G01 X7.3779 Y26.0290
G01 X7.4021 Y25.9913
G01 X7.4272 Y25.9542
G01 X7.4532 Y25.9177
G01 X7.4682 Y25.8974
G01 X7.4956 Y25.8619
G01 X7.5364 Y25.8122
G01 X7.5659 Y25.7784
G01 X7.5961 Y25.7454
G01 X7.6272 Y25.7131
G01 X7.6451 Y25.6952
G01 X7.6774 Y25.6641
G01 X7.7104 Y25.6339
G01 X7.7591 Y25.5919
G01 X7.7787 Y25.5758
G01 X7.8138 Y25.5480
G01 X7.8497 Y25.5212
G01 X7.9023 Y25.4841
G01 X7.9396 Y25.4595
G01 X7.9776 Y25.4357
G01 X8.0162 Y25.4129
G01 X8.0553 Y25.3910
G01 X8.0949 Y25.3701
G01 X8.1175 Y25.3587
G01 X8.1756 Y25.3312
G01 X8.2167 Y25.3133
G01 X8.2582 Y25.2963
G01 X8.2818 Y25.2872
G01 X8.3423 Y25.2656
G01 X8.3850 Y25.2517
G01 X8.4279 Y25.2390
G01 X8.4523 Y25.2322
G01 X8.4957 Y25.2211
G01 X8.5584 Y25.2070
G01 X8.6024 Y25.1985
G01 X8.6466 Y25.1911
G01 X8.6717 Y25.1874
G01 X8.7161 Y25.1816
G01 X8.7801 Y25.1753
G01 X8.8248 Y25.1723
G01 X8.8695 Y25.1703
G01 X8.8949 Y25.1697
G01 X8.9270 Y25.1694
G01 X10.3770 Y25.1694
G01 X10.4091 Y25.1697
G01 X10.4539 Y25.1710
G01 X10.4987 Y25.1735
G01 X10.5239 Y25.1753
G01 X10.5879 Y25.1816
G01 X10.6130 Y25.1847
G01 X10.6574 Y25.1911
G01 X10.7016 Y25.1985
G01 X10.7646 Y25.2110
G01 X10.8083 Y25.2211
G01 X10.8517 Y25.2322
G01 X10.8761 Y25.2390
G01 X10.9220 Y25.2527
G01 X10.9492 Y25.2444
G01 X10.9923 Y25.2322
G01 X11.0547 Y25.2166
G01 X11.0984 Y25.2070
G01 X11.1233 Y25.2021
G01 X11.1866 Y25.1911
G01 X11.2310 Y25.1847
G01 X11.2561 Y25.1816
G01 X11.3201 Y25.1753
G01 X11.3453 Y25.1735
G01 X11.3901 Y25.1710
G01 X11.4543 Y25.1695
G01 X12.9170 Y25.1694
G01 X12.9491 Y25.1697
G01 X12.9939 Y25.1710
G01 X13.0387 Y25.1735
G01 X13.0639 Y25.1753
G01 X13.1279 Y25.1816
G01 X13.1530 Y25.1847
G01 X13.1974 Y25.1911
G01 X13.2416 Y25.1985
G01 X13.3046 Y25.2110
G01 X13.3483 Y25.2211
G01 X13.3917 Y25.2322
G01 X13.4161 Y25.2390
G01 X13.4620 Y25.2527
G01 X13.5079 Y25.2390
G01 X13.5323 Y25.2322
G01 X13.5757 Y25.2211
G01 X13.6384 Y25.2070
G01 X13.6633 Y25.2021
G01 X13.7074 Y25.1942
G01 X13.7710 Y25.1847
G01 X13.7961 Y25.1816
G01 X13.8407 Y25.1770
G01 X13.9048 Y25.1723
G01 X13.9495 Y25.1703
G01 X13.9749 Y25.1697
G01 X14.0070 Y25.1694
G01 X15.4570 Y25.1694
G01 X15.4891 Y25.1697
G01 X15.5339 Y25.1710
G01 X15.5787 Y25.1735
G01 X15.6039 Y25.1753
G01 X15.6679 Y25.1816
G01 X15.6930 Y25.1847
G01 X15.7374 Y25.1911
G01 X15.7816 Y25.1985
G01 X15.8446 Y25.2110
G01 X15.8883 Y25.2211
G01 X15.9317 Y25.2322
G01 X15.9561 Y25.2390
G01 X16.0020 Y25.2527
G01 X16.0479 Y25.2390
G01 X16.0723 Y25.2322
G01 X16.1157 Y25.2211
G01 X16.1594 Y25.2110
G01 X16.2224 Y25.1985
G01 X16.2666 Y25.1911
G01 X16.2917 Y25.1874
G01 X16.3361 Y25.1816
G01 X16.4001 Y25.1753
G01 X16.4253 Y25.1735
G01 X16.4701 Y25.1710
G01 X16.5149 Y25.1697
G01 X16.5470 Y25.1694
G01 X17.9970 Y25.1694
G01 X18.0545 Y25.1703
G01 X18.0992 Y25.1723
G01 X18.1439 Y25.1753
G01 X18.1885 Y25.1795
G01 X18.2330 Y25.1847
G01 X18.2774 Y25.1911
G01 X18.3216 Y25.1985
G01 X18.3656 Y25.2070
G01 X18.4093 Y25.2166
G01 X18.4529 Y25.2272
G01 X18.4961 Y25.2390
G01 X18.5390 Y25.2517
G01 X18.5817 Y25.2656
G01 X18.6239 Y25.2804
G01 X18.6658 Y25.2963
G01 X18.7073 Y25.3133
G01 X18.7484 Y25.3312
G01 X18.7890 Y25.3501
G01 X18.8291 Y25.3701
G01 X18.8687 Y25.3910
G01 X18.9078 Y25.4129
G01 X18.9464 Y25.4357
G01 X18.9844 Y25.4595
G01 X19.0217 Y25.4841
G01 X19.0585 Y25.5098
G01 X19.0946 Y25.5362
G01 X19.1301 Y25.5636
G01 X19.1649 Y25.5919
G01 X19.1990 Y25.6210
G01 X19.2323 Y25.6509
G01 X19.2650 Y25.6816
G01 X19.2968 Y25.7131
G01 X19.3279 Y25.7454
G01 X19.3581 Y25.7784
G01 X19.3876 Y25.8122
G01 X19.4162 Y25.8467
G01 X19.4440 Y25.8818
G01 X19.4708 Y25.9177
G01 X19.4968 Y25.9542
G01 X19.5325 Y26.0076
G01 X19.5563 Y26.0456
G01 X19.5791 Y26.0842
G01 X19.6010 Y26.1233
G01 X19.6219 Y26.1629
G01 X19.6419 Y26.2030
G01 X19.6527 Y26.2259
G01 X19.6711 Y26.2668
G01 X19.6884 Y26.3081
G01 X19.7048 Y26.3498
G01 X19.7201 Y26.3919
G01 X19.7344 Y26.4344
G01 X19.7476 Y26.4772
G01 X19.7598 Y26.5203
G01 X19.7709 Y26.5637
G01 X19.7850 Y26.6264
G01 X19.7935 Y26.6704
G01 X19.7978 Y26.6954
G01 X19.8046 Y26.7397
G01 X19.8104 Y26.7841
G01 X19.8150 Y26.8287
G01 X19.8185 Y26.8733
G01 X19.8217 Y26.9375
G01 X19.8226 Y26.9950
G01 X19.8226 Y29.0950
G01 X19.8217 Y29.1525
G01 X19.8197 Y29.1972
G01 X19.8167 Y29.2419
G01 X19.8104 Y29.3059
G01 X19.8046 Y29.3503
G01 X19.8009 Y29.3754
G01 X19.7935 Y29.4196
G01 X19.7850 Y29.4636
G01 X19.7709 Y29.5263
G01 X19.7598 Y29.5697
G01 X19.7476 Y29.6128
G01 X19.7403 Y29.6370
G01 X19.7264 Y29.6797
G01 X19.7048 Y29.7402
G01 X19.6884 Y29.7819
G01 X19.6711 Y29.8232
G01 X19.6608 Y29.8464
G01 X19.6333 Y29.9045
G01 X19.6130 Y29.9444
G01 X19.6010 Y29.9667
G01 X19.5791 Y30.0058
G01 X19.5466 Y30.0601
G01 X19.5431 Y31.9490
G01 X19.6020 Y32.0290
G01 X19.6276 Y32.0658
G01 X19.6523 Y32.1032
G01 X19.6827 Y32.1520
G01 X19.7404 Y32.2484
G01 X19.7627 Y32.2873
G01 X19.7840 Y32.3267
G01 X19.8129 Y32.3841
G01 X19.8610 Y32.4856
G01 X19.8745 Y32.5148
G01 X19.8924 Y32.5559
G01 X19.9093 Y32.5974
G01 X19.9252 Y32.6393
G01 X19.9632 Y32.7450
G01 X19.9737 Y32.7754
G01 X19.9875 Y32.8180
G01 X19.9949 Y32.8423
G01 X20.0070 Y32.8854
G01 X20.0152 Y32.9165
G01 X20.0469 Y33.0445
G01 X20.0565 Y33.0882
G01 X20.0614 Y33.1131
G01 X20.0693 Y33.1572
G01 X20.0743 Y33.1889
G01 X20.0908 Y33.3001
G01 X20.0965 Y33.3445
G01 X20.1011 Y33.3891
G01 X20.1058 Y33.4532
G01 X20.1114 Y33.5654
G01 X20.1127 Y33.5975
G01 X20.1135 Y33.6423
G01 X20.1133 Y33.6871
G01 X20.1114 Y33.7446
G01 X20.1058 Y33.8568
G01 X20.1011 Y33.9209
G01 X20.0965 Y33.9655
G01 X20.0890 Y34.0225
G01 X20.0724 Y34.1336
G01 X20.0614 Y34.1969
G01 X20.0524 Y34.2408
G01 X20.0394 Y34.2968
G01 X20.0120 Y34.4058
G01 X19.9949 Y34.4677
G01 X19.9816 Y34.5105
G01 X19.9674 Y34.5530
G01 X19.9296 Y34.6588
G01 X19.9184 Y34.6890
G01 X19.9021 Y34.7307
G01 X19.8924 Y34.7541
G01 X19.8745 Y34.7952
G01 X19.8184 Y34.9145
G01 X19.7930 Y34.9660
G01 X19.7721 Y35.0057
G01 X19.7502 Y35.0448
G01 X19.7339 Y35.0725
G01 X19.6659 Y35.1854
G01 X19.6417 Y35.2232
G01 X19.6276 Y35.2442
G01 X19.6020 Y35.2810
G01 X19.5237 Y35.3871
G01 X19.5043 Y35.4127
G01 X19.4766 Y35.4479
G01 X19.4480 Y35.4824
G01 X19.4185 Y35.5161
G01 X19.3789 Y35.5600
G01 X19.4314 Y35.6185
G01 X19.4605 Y35.6526
G01 X19.4888 Y35.6873
G01 X19.5237 Y35.7329
G01 X19.6020 Y35.8390
G01 X19.6276 Y35.8758
G01 X19.6417 Y35.8968
G01 X19.6659 Y35.9346
G01 X19.6827 Y35.9620
G01 X19.7502 Y36.0752
G01 X19.7721 Y36.1143
G01 X19.7840 Y36.1367
G01 X19.8043 Y36.1766
G01 X19.8610 Y36.2956
G01 X19.8847 Y36.3480
G01 X19.9021 Y36.3893
G01 X19.9184 Y36.4310
G01 X19.9632 Y36.5550
G01 X19.9737 Y36.5854
G01 X19.9875 Y36.6280
G01 X19.9949 Y36.6523
G01 X20.0070 Y36.6954
G01 X20.0394 Y36.8232
G01 X20.0524 Y36.8792
G01 X20.0614 Y36.9231
G01 X20.0724 Y36.9864
G01 X20.0890 Y37.0975
G01 X20.0965 Y37.1545
G01 X20.1028 Y37.2185
G01 X20.1058 Y37.2632
G01 X20.1120 Y37.3881
G01 X20.1135 Y37.4523
G01 X20.1133 Y37.4971
G01 X20.1120 Y37.5419
G01 X20.1065 Y37.6542
G01 X20.1028 Y37.7115
G01 X20.0965 Y37.7755
G01 X20.0908 Y37.8199
G01 X20.0743 Y37.9311
G01 X20.0650 Y37.9878
G01 X20.0565 Y38.0318
G01 X20.0469 Y38.0755
G01 X20.0152 Y38.2035
G01 X20.0070 Y38.2346
G01 X19.9949 Y38.2777
G01 X19.9816 Y38.3205
G01 X19.9674 Y38.3630
G01 X19.9296 Y38.4688
G01 X19.9184 Y38.4990
G01 X19.9021 Y38.5407
G01 X19.8924 Y38.5641
G01 X19.8745 Y38.6052
G01 X19.8610 Y38.6344
G01 X19.8129 Y38.7359
G01 X19.7930 Y38.7760
G01 X19.7721 Y38.8157
G01 X19.7404 Y38.8716
G01 X19.6827 Y38.9680
G01 X19.6523 Y39.0168
G01 X19.6276 Y39.0542
G01 X19.5906 Y39.1068
G01 X19.5237 Y39.1971
G01 X19.5043 Y39.2227
G01 X19.4766 Y39.2579
G01 X19.4480 Y39.2924
G01 X19.4185 Y39.3261
G01 X19.3431 Y39.4094
G01 X19.3213 Y39.4330
G01 X19.2902 Y39.4653
G01 X19.2584 Y39.4968
G01 X19.2400 Y39.5143
G01 X19.1426 Y39.6031
G01 X19.1185 Y39.6244
G01 X19.0844 Y39.6535
G01 X19.0497 Y39.6818
G01 X19.0142 Y39.7091
G01 X18.9240 Y39.7761
G01 X18.8980 Y39.7950
G01 X18.8612 Y39.8206
G01 X18.8238 Y39.8453
G01 X18.7750 Y39.8757
G01 X18.6786 Y39.9334
G01 X18.6397 Y39.9557
G01 X18.6003 Y39.9770
G01 X18.5429 Y40.0059
G01 X18.4414 Y40.0540
G01 X18.4122 Y40.0675
G01 X18.3711 Y40.0854
G01 X18.3296 Y40.1023
G01 X18.2877 Y40.1182
G01 X18.1820 Y40.1562
G01 X18.1275 Y40.1746
G01 X18.0847 Y40.1879
G01 X18.0416 Y40.2000
G01 X17.9138 Y40.2324
G01 X17.8825 Y40.2399
G01 X17.8388 Y40.2495
G01 X17.7948 Y40.2580
G01 X17.7506 Y40.2654
G01 X17.7056 Y40.2722
G01 X17.7442 Y40.3009
G01 X17.7797 Y40.3282
G01 X17.8144 Y40.3565
G01 X17.8485 Y40.3856
G01 X17.8726 Y40.4069
G01 X17.9700 Y40.4957
G01 X17.9884 Y40.5132
G01 X18.0202 Y40.5447
G01 X18.0513 Y40.5770
G01 X18.0731 Y40.6006
G01 X18.1614 Y40.6985
G01 X18.1905 Y40.7326
G01 X18.2188 Y40.7673
G01 X18.2537 Y40.8129
G01 X18.3320 Y40.9190
G01 X18.3576 Y40.9558
G01 X18.3717 Y40.9768
G01 X18.3959 Y41.0146
G01 X18.4127 Y41.0420
G01 X18.4802 Y41.1552
G01 X18.5021 Y41.1943
G01 X18.5230 Y41.2340
G01 X18.5484 Y41.2855
G01 X18.5964 Y41.3871
G01 X18.6147 Y41.4280
G01 X18.6393 Y41.4874
G01 X18.6596 Y41.5412
G01 X18.6974 Y41.6470
G01 X18.7116 Y41.6895
G01 X18.7249 Y41.7323
G01 X18.7420 Y41.7942
G01 X18.7724 Y41.9155
G01 X18.7865 Y41.9782
G01 X18.7950 Y42.0222
G01 X18.8043 Y42.0789
G01 X18.8190 Y42.1775
G01 X18.8234 Y42.2094
G01 X18.8286 Y42.2539
G01 X18.8328 Y42.2985
G01 X18.8346 Y42.3237
G01 X18.8365 Y42.3558
G01 X18.8420 Y42.4681
G01 X18.8435 Y42.5323
G01 X18.8433 Y42.5771
G01 X18.8420 Y42.6219
G01 X18.8365 Y42.7342
G01 X18.8346 Y42.7663
G01 X18.8311 Y42.8109
G01 X18.8265 Y42.8555
G01 X18.8190 Y42.9125
G01 X18.8024 Y43.0236
G01 X18.7950 Y43.0678
G01 X18.7865 Y43.1118
G01 X18.7724 Y43.1745
G01 X18.7420 Y43.2958
G01 X18.7303 Y43.3390
G01 X18.7116 Y43.4005
G01 X18.6932 Y43.4550
G01 X18.6552 Y43.5607
G01 X18.6321 Y43.6207
G01 X18.6147 Y43.6620
G01 X18.5910 Y43.7144
G01 X18.5343 Y43.8334
G01 X18.5230 Y43.8560
G01 X18.5021 Y43.8957
G01 X18.4802 Y43.9348
G01 X18.4629 Y43.9641
G01 X18.4629 Y44.9359
G01 X18.4802 Y44.9652
G01 X18.5021 Y45.0043
G01 X18.5140 Y45.0267
G01 X18.5343 Y45.0666
G01 X18.5484 Y45.0955
G01 X18.5964 Y45.1971
G01 X18.6224 Y45.2559
G01 X18.6393 Y45.2974
G01 X18.6552 Y45.3393
G01 X18.6932 Y45.4450
G01 X18.7037 Y45.4754
G01 X18.7175 Y45.5180
G01 X18.7249 Y45.5423
G01 X18.7420 Y45.6042
G01 X18.7694 Y45.7132
G01 X18.7769 Y45.7445
G01 X18.7865 Y45.7882
G01 X18.7914 Y45.8131
G01 X18.8024 Y45.8764
G01 X18.8190 Y45.9875
G01 X18.8234 Y46.0194
G01 X18.8286 Y46.0639
G01 X18.8311 Y46.0891
G01 X18.8346 Y46.1337
G01 X18.8365 Y46.1658
G01 X18.8427 Y46.2975
G01 X18.8435 Y46.3423
G01 X18.8433 Y46.3871
G01 X18.8414 Y46.4446
G01 X18.8346 Y46.5763
G01 X18.8311 Y46.6209
G01 X18.8286 Y46.6461
G01 X18.8208 Y46.7099
G01 X18.8043 Y46.8211
G01 X18.7993 Y46.8528
G01 X18.7914 Y46.8969
G01 X18.7865 Y46.9218
G01 X18.7724 Y46.9845
G01 X18.7420 Y47.1058
G01 X18.7249 Y47.1677
G01 X18.7116 Y47.2105
G01 X18.7037 Y47.2346
G01 X18.6932 Y47.2650
G01 X18.6552 Y47.3707
G01 X18.6321 Y47.4307
G01 X18.6224 Y47.4541
G01 X18.6045 Y47.4952
G01 X18.5484 Y47.6145
G01 X18.5230 Y47.6660
G01 X18.5021 Y47.7057
G01 X18.4704 Y47.7616
G01 X18.4061 Y47.8688
G01 X18.3717 Y47.9232
G01 X18.3466 Y47.9603
G01 X18.3131 Y48.0070
G01 X18.2343 Y48.1127
G01 X18.2188 Y48.1327
G01 X18.1905 Y48.1674
G01 X18.1614 Y48.2015
G01 X18.1401 Y48.2256
G01 X18.0513 Y48.3230
G01 X18.0338 Y48.3414
G01 X18.0023 Y48.3732
G01 X17.9558 Y48.4176
G01 X17.8726 Y48.4931
G01 X17.8485 Y48.5144
G01 X17.8294 Y48.5310
G01 X17.7949 Y48.5596
G01 X17.7597 Y48.5873
G01 X17.7341 Y48.6067
G01 X17.6438 Y48.6736
G01 X17.5912 Y48.7106
G01 X17.5538 Y48.7353
G01 X17.5050 Y48.7657
G01 X17.4086 Y48.8234
G01 X17.3527 Y48.8551
G01 X17.3130 Y48.8760
G01 X17.2904 Y48.8873
G01 X17.1714 Y48.9440
G01 X17.1190 Y48.9677
G01 X17.0777 Y48.9851
G01 X17.0177 Y49.0082
G01 X16.9120 Y49.0462
G01 X16.8575 Y49.0646
G01 X16.8147 Y49.0779
G01 X16.7528 Y49.0950
G01 X16.6315 Y49.1254
G01 X16.5688 Y49.1395
G01 X16.5248 Y49.1480
G01 X16.4681 Y49.1573
G01 X16.3569 Y49.1738
G01 X16.3125 Y49.1795
G01 X16.2679 Y49.1841
G01 X16.2038 Y49.1888
G01 X16.0789 Y49.1950
G01 X16.0147 Y49.1965
G01 X15.9699 Y49.1963
G01 X15.9124 Y49.1944
G01 X15.8002 Y49.1888
G01 X15.7555 Y49.1858
G01 X15.6915 Y49.1795
G01 X15.6345 Y49.1720
G01 X15.5042 Y49.1523
G01 X15.4792 Y49.1480
G01 X15.4352 Y49.1395
G01 X15.3915 Y49.1299
G01 X15.3602 Y49.1224
G01 X15.2635 Y49.0982
G01 X15.2080 Y49.0833
G01 X15.1465 Y49.0646
G01 X15.0920 Y49.0462
G01 X14.9680 Y49.0014
G01 X14.9263 Y48.9851
G01 X14.9029 Y48.9754
G01 X14.8441 Y48.9494
G01 X14.7425 Y48.9014
G01 X14.6910 Y48.8760
G01 X14.6343 Y48.8457
G01 X14.5845 Y48.8169
G01 X14.4716 Y48.7489
G01 X14.4338 Y48.7247
G01 X14.4128 Y48.7106
G01 X14.3760 Y48.6850
G01 X14.3500 Y48.6661
G01 X14.2443 Y48.5873
G01 X14.2091 Y48.5596
G01 X14.1896 Y48.5435
G01 X14.1555 Y48.5144
G01 X14.0576 Y48.4261
G01 X14.0156 Y48.3868
G01 X13.9702 Y48.3414
G01 X13.9394 Y48.3088
G01 X13.8639 Y48.2256
G01 X13.8260 Y48.1824
G01 X13.7852 Y48.1327
G01 X13.7579 Y48.0972
G01 X13.6834 Y47.9968
G01 X13.6464 Y47.9442
G01 X13.6217 Y47.9068
G01 X13.5913 Y47.8580
G01 X13.5336 Y47.7616
G01 X13.5019 Y47.7057
G01 X13.4810 Y47.6660
G01 X13.4697 Y47.6434
G01 X13.4556 Y47.6145
G01 X13.4076 Y47.5129
G01 X13.3816 Y47.4541
G01 X13.3719 Y47.4307
G01 X13.3556 Y47.3890
G01 X13.3444 Y47.3588
G01 X13.3066 Y47.2530
G01 X13.2865 Y47.1920
G01 X13.2791 Y47.1677
G01 X13.2670 Y47.1246
G01 X13.2346 Y46.9968
G01 X13.2271 Y46.9655
G01 X13.2175 Y46.9218
G01 X13.2090 Y46.8778
G01 X13.2047 Y46.8528
G01 X13.1850 Y46.7225
G01 X13.1775 Y46.6655
G01 X13.1712 Y46.6015
G01 X13.1675 Y46.5442
G01 X13.1613 Y46.4125
G01 X13.1605 Y46.3677
G01 X13.1605 Y46.3423
G01 X13.1620 Y46.2781
G01 X13.1675 Y46.1658
G01 X13.1694 Y46.1337
G01 X13.1729 Y46.0891
G01 X13.1754 Y46.0639
G01 X13.1832 Y46.0001
G01 X13.1997 Y45.8889
G01 X13.2047 Y45.8572
G01 X13.2126 Y45.8131
G01 X13.2175 Y45.7882
G01 X13.2316 Y45.7255
G01 X13.2588 Y45.6165
G01 X13.2670 Y45.5854
G01 X13.2791 Y45.5423
G01 X13.2865 Y45.5180
G01 X13.3066 Y45.4570
G01 X13.3444 Y45.3512
G01 X13.3556 Y45.3210
G01 X13.3719 Y45.2793
G01 X13.3816 Y45.2559
G01 X13.4076 Y45.1971
G01 X13.4556 Y45.0955
G01 X13.4697 Y45.0666
G01 X13.4900 Y45.0267
G01 X13.5019 Y45.0043
G01 X13.5238 Y44.9652
G01 X13.5411 Y44.9359
G01 X13.5411 Y43.9641
G01 X13.5113 Y43.9127
G01 X13.4810 Y43.8560
G01 X13.4556 Y43.8045
G01 X13.3995 Y43.6852
G01 X13.3816 Y43.6441
G01 X13.3719 Y43.6207
G01 X13.3556 Y43.5790
G01 X13.3444 Y43.5488
G01 X13.3066 Y43.4430
G01 X13.2865 Y43.3820
G01 X13.2791 Y43.3577
G01 X13.2670 Y43.3146
G01 X13.2346 Y43.1868
G01 X13.2271 Y43.1555
G01 X13.2175 Y43.1118
G01 X13.2090 Y43.0678
G01 X13.2016 Y43.0236
G01 X13.1896 Y42.9434
G01 X13.1177 Y42.8714
G01 X13.0734 Y42.8248
G01 X13.0142 Y42.7591
G01 X12.9851 Y42.7250
G01 X12.9569 Y42.6902
G01 X12.9295 Y42.6548
G01 X12.8959 Y42.6096
G01 X12.8770 Y42.5836
G01 X12.8514 Y42.5468
G01 X12.8373 Y42.5258
G01 X12.8131 Y42.4880
G01 X12.7963 Y42.4606
G01 X12.7576 Y42.3955
G01 X12.7358 Y42.3564
G01 X12.7149 Y42.3167
G01 X12.6949 Y42.2766
G01 X12.6708 Y42.2257
G01 X12.6573 Y42.1966
G01 X12.6394 Y42.1555
G01 X12.6297 Y42.1321
G01 X12.6134 Y42.0904
G01 X12.5875 Y42.0191
G01 X12.5770 Y41.9888
G01 X12.5690 Y41.9647
G01 X12.5558 Y41.9219
G01 X12.5436 Y41.8788
G01 X12.5355 Y41.8477
G01 X12.5219 Y41.7930
G01 X12.5119 Y41.7494
G01 X12.5029 Y41.7055
G01 X12.4950 Y41.6614
G01 X12.4836 Y41.5865
G01 X12.4761 Y41.5295
G01 X12.4714 Y41.4849
G01 X12.4679 Y41.4403
G01 X12.4639 Y41.3646
G01 X12.4620 Y41.3071
G01 X12.4617 Y41.2750
G01 X12.4617 Y39.1329
G01 X12.4061 Y39.1828
G01 X12.3869 Y39.1994
G01 X12.3525 Y39.2280
G01 X12.3018 Y39.2675
G01 X12.2464 Y39.3086
G01 X12.1938 Y39.3456
G01 X12.1564 Y39.3703
G01 X12.1076 Y39.4007
G01 X12.0425 Y39.4394
G01 X12.0204 Y39.4518
G01 X11.9810 Y39.4732
G01 X11.9411 Y39.4935
G01 X11.9122 Y39.5076
G01 X11.8613 Y39.5316
G01 X11.8204 Y39.5499
G01 X11.7610 Y39.5745
G01 X11.7191 Y39.5904
G01 X11.6661 Y39.6095
G01 X11.6358 Y39.6200
G01 X11.5931 Y39.6338
G01 X11.5502 Y39.6466
G01 X11.5258 Y39.6534
G01 X11.4371 Y39.6758
G01 X11.3942 Y39.7091
G01 X11.2938 Y39.7836
G01 X11.2573 Y39.8096
G01 X11.2038 Y39.8453
G01 X11.1550 Y39.8757
G01 X11.0418 Y39.9432
G01 X11.0197 Y39.9557
G01 X10.9803 Y39.9770
G01 X10.9404 Y39.9973
G01 X10.9115 Y40.0114
G01 X10.7922 Y40.0675
G01 X10.7690 Y40.0777
G01 X10.7277 Y40.0951
G01 X10.6677 Y40.1182
G01 X10.5620 Y40.1562
G01 X10.5316 Y40.1667
G01 X10.4890 Y40.1805
G01 X10.4460 Y40.1933
G01 X10.4028 Y40.2050
G01 X10.2938 Y40.2324
G01 X10.2625 Y40.2399
G01 X10.2188 Y40.2495
G01 X10.1748 Y40.2580
G01 X10.1306 Y40.2654
G01 X10.0856 Y40.2722
G01 X10.1242 Y40.3009
G01 X10.1597 Y40.3282
G01 X10.2094 Y40.3690
G01 X10.2526 Y40.4069
G01 X10.3500 Y40.4957
G01 X10.3823 Y40.5268
G01 X10.4002 Y40.5447
G01 X10.4313 Y40.5770
G01 X10.4531 Y40.6006
G01 X10.5414 Y40.6985
G01 X10.5580 Y40.7176
G01 X10.5866 Y40.7521
G01 X10.6143 Y40.7873
G01 X10.6931 Y40.8930
G01 X10.7266 Y40.9397
G01 X10.7517 Y40.9768
G01 X10.7861 Y41.0312
G01 X10.8439 Y41.1275
G01 X10.8727 Y41.1773
G01 X10.9030 Y41.2340
G01 X10.9229 Y41.2741
G01 X10.9764 Y41.3871
G01 X11.0024 Y41.4459
G01 X11.0193 Y41.4874
G01 X11.0396 Y41.5412
G01 X11.0774 Y41.6470
G01 X11.0975 Y41.7080
G01 X11.1103 Y41.7510
G01 X11.1252 Y41.8065
G01 X11.1524 Y41.9155
G01 X11.1665 Y41.9782
G01 X11.1750 Y42.0222
G01 X11.1843 Y42.0789
G01 X11.2034 Y42.2094
G01 X11.2065 Y42.2345
G01 X11.2111 Y42.2791
G01 X11.2158 Y42.3432
G01 X11.2214 Y42.4554
G01 X11.2227 Y42.4875
G01 X11.2235 Y42.5323
G01 X11.2235 Y42.5577
G01 X11.2227 Y42.6025
G01 X11.2214 Y42.6346
G01 X11.2158 Y42.7468
G01 X11.2128 Y42.7915
G01 X11.2086 Y42.8361
G01 X11.2008 Y42.8999
G01 X11.1843 Y43.0111
G01 X11.1793 Y43.0428
G01 X11.1714 Y43.0869
G01 X11.1624 Y43.1308
G01 X11.1494 Y43.1868
G01 X11.1252 Y43.2835
G01 X11.1170 Y43.3146
G01 X11.1049 Y43.3577
G01 X11.0916 Y43.4005
G01 X11.0774 Y43.4430
G01 X11.0396 Y43.5488
G01 X11.0284 Y43.5790
G01 X11.0121 Y43.6207
G01 X11.0024 Y43.6441
G01 X10.9845 Y43.6852
G01 X10.9710 Y43.7144
G01 X10.9229 Y43.8159
G01 X10.9030 Y43.8560
G01 X10.8821 Y43.8957
G01 X10.8602 Y43.9348
G01 X10.8429 Y43.9641
G01 X10.8429 Y44.9359
G01 X10.8602 Y44.9652
G01 X10.8821 Y45.0043
G01 X10.9030 Y45.0440
G01 X10.9229 Y45.0841
G01 X10.9710 Y45.1856
G01 X10.9845 Y45.2148
G01 X11.0024 Y45.2559
G01 X11.0121 Y45.2793
G01 X11.0284 Y45.3210
G01 X11.0396 Y45.3512
G01 X11.0774 Y45.4570
G01 X11.0916 Y45.4995
G01 X11.1049 Y45.5423
G01 X11.1170 Y45.5854
G01 X11.1252 Y45.6165
G01 X11.1494 Y45.7132
G01 X11.1624 Y45.7692
G01 X11.1714 Y45.8131
G01 X11.1793 Y45.8572
G01 X11.1843 Y45.8889
G01 X11.2008 Y46.0001
G01 X11.2086 Y46.0639
G01 X11.2128 Y46.1085
G01 X11.2158 Y46.1532
G01 X11.2214 Y46.2654
G01 X11.2227 Y46.2975
G01 X11.2235 Y46.3423
G01 X11.2235 Y46.3677
G01 X11.2227 Y46.4125
G01 X11.2214 Y46.4446
G01 X11.2165 Y46.5442
G01 X11.2128 Y46.6015
G01 X11.2065 Y46.6655
G01 X11.1990 Y46.7225
G01 X11.1793 Y46.8528
G01 X11.1750 Y46.8778
G01 X11.1665 Y46.9218
G01 X11.1524 Y46.9845
G01 X11.1252 Y47.0935
G01 X11.1170 Y47.1246
G01 X11.1049 Y47.1677
G01 X11.0975 Y47.1920
G01 X11.0774 Y47.2530
G01 X11.0352 Y47.3707
G01 X11.0121 Y47.4307
G01 X10.9947 Y47.4720
G01 X10.9845 Y47.4952
G01 X10.9710 Y47.5244
G01 X10.9229 Y47.6259
G01 X10.8940 Y47.6833
G01 X10.8727 Y47.7227
G01 X10.8602 Y47.7448
G01 X10.8439 Y47.7725
G01 X10.7861 Y47.8688
G01 X10.7517 Y47.9232
G01 X10.7266 Y47.9603
G01 X10.7120 Y47.9810
G01 X10.6337 Y48.0871
G01 X10.5988 Y48.1327
G01 X10.5705 Y48.1674
G01 X10.5285 Y48.2161
G01 X10.4446 Y48.3088
G01 X10.4002 Y48.3553
G01 X10.3684 Y48.3868
G01 X10.3264 Y48.4261
G01 X10.2431 Y48.5015
G01 X10.1944 Y48.5435
G01 X10.1597 Y48.5718
G01 X10.1141 Y48.6067
G01 X10.0080 Y48.6850
G01 X9.9873 Y48.6996
G01 X9.9502 Y48.7247
G01 X9.9124 Y48.7489
G01 X9.8850 Y48.7657
G01 X9.7886 Y48.8234
G01 X9.7327 Y48.8551
G01 X9.6930 Y48.8760
G01 X9.6704 Y48.8873
G01 X9.5514 Y48.9440
G01 X9.4990 Y48.9677
G01 X9.4396 Y48.9923
G01 X9.3858 Y49.0126
G01 X9.2616 Y49.0567
G01 X9.2190 Y49.0705
G01 X9.1947 Y49.0779
G01 X9.1516 Y49.0900
G01 X9.0238 Y49.1224
G01 X8.9678 Y49.1354
G01 X8.9048 Y49.1480
G01 X8.8606 Y49.1554
G01 X8.7369 Y49.1738
G01 X8.6731 Y49.1816
G01 X8.6285 Y49.1858
G01 X8.5712 Y49.1895
G01 X8.4395 Y49.1957
G01 X8.3947 Y49.1965
G01 X8.3693 Y49.1965
G01 X8.3051 Y49.1950
G01 X8.1802 Y49.1888
G01 X8.1355 Y49.1858
G01 X8.0715 Y49.1795
G01 X8.0145 Y49.1720
G01 X7.9034 Y49.1554
G01 X7.8592 Y49.1480
G01 X7.7962 Y49.1354
G01 X7.7402 Y49.1224
G01 X7.6124 Y49.0900
G01 X7.5693 Y49.0779
G01 X7.5450 Y49.0705
G01 X7.5024 Y49.0567
G01 X7.4720 Y49.0462
G01 X7.3663 Y49.0082
G01 X7.3063 Y48.9851
G01 X7.2650 Y48.9677
G01 X7.2418 Y48.9575
G01 X7.1225 Y48.9014
G01 X7.0710 Y48.8760
G01 X7.0143 Y48.8457
G01 X6.9645 Y48.8169
G01 X6.8516 Y48.7489
G01 X6.8138 Y48.7247
G01 X6.7767 Y48.6996
G01 X6.7560 Y48.6850
G01 X6.6499 Y48.6067
G01 X6.6043 Y48.5718
G01 X6.5546 Y48.5310
G01 X6.5209 Y48.5015
G01 X6.4282 Y48.4176
G01 X6.3817 Y48.3732
G01 X6.3502 Y48.3414
G01 X6.3194 Y48.3088
G01 X6.2439 Y48.2256
G01 X6.2060 Y48.1824
G01 X6.1774 Y48.1479
G01 X6.1497 Y48.1127
G01 X6.1303 Y48.0871
G01 X6.0634 Y47.9968
G01 X6.0374 Y47.9603
G01 X6.0017 Y47.9068
G01 X5.9713 Y47.8580
G01 X5.9201 Y47.7725
G01 X5.9038 Y47.7448
G01 X5.8819 Y47.7057
G01 X5.8610 Y47.6660
G01 X5.8411 Y47.6259
G01 X5.7930 Y47.5244
G01 X5.7795 Y47.4952
G01 X5.7616 Y47.4541
G01 X5.7447 Y47.4126
G01 X5.7244 Y47.3588
G01 X5.6866 Y47.2530
G01 X5.6724 Y47.2105
G01 X5.6591 Y47.1677
G01 X5.6470 Y47.1246
G01 X5.6388 Y47.0935
G01 X5.6116 Y46.9845
G01 X5.5975 Y46.9218
G01 X5.5890 Y46.8778
G01 X5.5816 Y46.8336
G01 X5.5650 Y46.7225
G01 X5.5575 Y46.6655
G01 X5.5529 Y46.6209
G01 X5.5494 Y46.5763
G01 X5.5426 Y46.4446
G01 X5.5413 Y46.4125
G01 X5.5405 Y46.3677
G01 X5.5405 Y46.3423
G01 X5.5413 Y46.2975
G01 X5.5426 Y46.2654
G01 X5.5482 Y46.1532
G01 X5.5512 Y46.1085
G01 X5.5554 Y46.0639
G01 X5.5632 Y46.0001
G01 X5.5797 Y45.8889
G01 X5.5847 Y45.8572
G01 X5.5926 Y45.8131
G01 X5.6016 Y45.7692
G01 X5.6071 Y45.7445
G01 X5.6388 Y45.6165
G01 X5.6537 Y45.5610
G01 X5.6665 Y45.5180
G01 X5.6803 Y45.4754
G01 X5.6908 Y45.4450
G01 X5.7288 Y45.3393
G01 X5.7447 Y45.2974
G01 X5.7693 Y45.2380
G01 X5.7930 Y45.1856
G01 X5.8356 Y45.0955
G01 X5.8610 Y45.0440
G01 X5.8819 Y45.0043
G01 X5.9038 Y44.9652
G01 X5.9211 Y44.9359
G01 X5.9211 Y44.4774
G01 X5.8776 Y44.4503
G01 X5.8241 Y44.4146
G01 X5.7774 Y44.3811
G01 X5.7167 Y44.3357
G01 X5.6815 Y44.3080
G01 X5.6620 Y44.2919
G01 X5.6279 Y44.2628
G01 X5.5715 Y44.2122
G01 X5.5296 Y44.1729
G01 X5.5066 Y44.1504
G01 X4.2366 Y42.8804
G01 X4.1967 Y42.8391
G01 X4.1748 Y42.8155
G01 X4.1242 Y42.7591
G01 X4.0951 Y42.7250
G01 X4.0669 Y42.6902
G01 X4.0513 Y42.6703
G01 X4.0059 Y42.6096
G01 X3.9724 Y42.5629
G01 X3.9367 Y42.5094
G01 X3.9063 Y42.4606
G01 X3.8775 Y42.4123
G01 X3.8552 Y42.3734
G01 X3.8249 Y42.3167
G01 X3.7994 Y42.2652
G01 X3.7673 Y42.1966
G01 X3.7494 Y42.1555
G01 X3.7397 Y42.1321
G01 X3.7166 Y42.0721
G01 X3.6870 Y41.9888
G01 X3.6790 Y41.9647
G01 X3.6658 Y41.9219
G01 X3.6536 Y41.8788
G01 X3.6319 Y41.7930
G01 X3.6178 Y41.7303
G01 X3.6093 Y41.6863
G01 X3.6000 Y41.6296
G01 X3.5892 Y41.5546
G01 X3.5839 Y41.5101
G01 X3.5797 Y41.4655
G01 X3.5760 Y41.4082
G01 X3.5726 Y41.3325
G01 X3.5717 Y41.2877
G01 X3.5717 Y34.9250
G01 X2.5389 Y44.0809
G01 X2.5389 Y47.4739
G01 X2.5825 Y47.4602
G01 X2.6310 Y47.4457
G01 X2.6741 Y47.4333
G01 X2.7418 Y47.4150
G01 X3.0599 Y47.3351
G01 X3.1374 Y47.3167
G01 X3.1806 Y47.3071
G01 X3.2245 Y47.2979
G01 X3.2742 Y47.2880
G01 X3.3245 Y47.2788
G01 X3.4061 Y47.2652
G01 X3.5578 Y47.2426
G01 X3.5482 Y47.1869
G01 X3.5401 Y47.1364
G01 X3.5232 Y47.0221
G01 X3.5156 Y46.9684
G01 X3.5085 Y46.9118
G01 X3.5035 Y46.8673
G01 X3.4985 Y46.8169
G01 X3.4935 Y46.7596
G01 X3.4899 Y46.7091
G01 X3.4867 Y46.6549
G01 X3.4809 Y46.5364
G01 X3.4784 Y46.4694
G01 X3.4772 Y46.4188
G01 X3.4767 Y46.3677
G01 X3.4771 Y46.2975
G01 X3.4784 Y46.2406
G01 X3.4809 Y46.1736
G01 X3.4864 Y46.0614
G01 X3.4895 Y46.0072
G01 X3.4931 Y45.9567
G01 X3.4973 Y45.9057
G01 X3.5035 Y45.8427
G01 X3.5085 Y45.7982
G01 X3.5156 Y45.7416
G01 X3.5232 Y45.6879
G01 X3.5426 Y45.5579
G01 X3.5513 Y45.5043
G01 X3.5637 Y45.4353
G01 X3.5747 Y45.3794
G01 X3.5880 Y45.3170
G01 X3.6037 Y45.2487
G01 X3.6201 Y45.1824
G01 X2.7528 Y44.3149
G01 X2.7020 Y44.2621
G01 X2.6521 Y44.2084
G01 X2.5932 Y44.1431
G01 X2.5389 Y44.0809
G01 X1.5070 Y49.0775
G01 X1.7253 Y48.9467
G01 X1.7639 Y48.9240
G01 X1.8251 Y48.8896
G01 X1.8870 Y48.8568
G01 X1.9323 Y48.8340
G01 X1.9669 Y48.8172
G01 X2.2376 Y48.6892
G01 X2.3073 Y48.6576
G01 X2.3718 Y48.6302
G01 X2.4371 Y48.6045
G01 X2.4910 Y48.5845
G01 X2.7670 Y48.4858
G01 X2.8153 Y48.4691
G01 X2.8700 Y48.4514
G01 X2.9372 Y48.4313
G01 X3.0048 Y48.4128
G01 X3.3075 Y48.3368
G01 X3.3634 Y48.3235
G01 X3.4320 Y48.3086
G01 X3.5009 Y48.2955
G01 X3.5638 Y48.2850
G01 X3.8663 Y48.2400
G01 X3.9106 Y48.2339
G01 X3.9803 Y48.2255
G01 X4.0181 Y48.2217
G01 X4.0627 Y48.2179
G01 X4.1390 Y48.2129
G01 X4.4318 Y48.1985
G01 X4.4892 Y48.1963
G01 X4.5467 Y48.1952
G01 X4.6168 Y48.1954
G01 X4.6869 Y48.1974
G01 X4.9827 Y48.2118
G01 X4.9600 Y48.1698
G01 X4.9451 Y48.1413
G01 X4.9110 Y48.0728
G01 X4.8495 Y47.9426
G01 X4.8259 Y47.8902
G01 X4.8083 Y47.8490
G01 X4.7866 Y47.7958
G01 X4.7683 Y47.7485
G01 X4.7529 Y47.7065
G01 X4.7193 Y47.6126
G01 X4.7046 Y47.5703
G01 X4.6926 Y47.5342
G01 X4.6790 Y47.4915
G01 X4.6681 Y47.4551
G01 X4.6525 Y47.3998
G01 X4.6426 Y47.3626
G01 X4.6077 Y47.2229
G01 X4.5948 Y47.1669
G01 X4.5880 Y47.1355
G01 X4.5805 Y47.0982
G01 X4.5723 Y47.0542
G01 X4.5659 Y47.0168
G01 X4.5589 Y46.9725
G01 X4.5434 Y46.8676
G01 X4.5365 Y46.8169
G01 X4.5298 Y46.7599
G01 X4.5248 Y46.7095
G01 X4.5203 Y46.6522
G01 X4.5179 Y46.6138
G01 X4.5109 Y46.4699
G01 X4.5091 Y46.4125
G01 X4.5086 Y46.3677
G01 X4.5089 Y46.3102
G01 X4.5101 Y46.2596
G01 X4.5119 Y46.2148
G01 X4.5168 Y46.1152
G01 X4.5194 Y46.0705
G01 X4.5232 Y46.0200
G01 X4.5285 Y45.9627
G01 X4.5319 Y45.9308
G01 X4.5416 Y45.8549
G01 X4.5628 Y45.7125
G01 X4.5723 Y45.6558
G01 X4.5805 Y45.6118
G01 X4.5921 Y45.5555
G01 X4.6003 Y45.5184
G01 X4.6121 Y45.4686
G01 X4.6379 Y45.3658
G01 X4.6492 Y45.3224
G01 X4.6592 Y45.2858
G01 X4.6717 Y45.2427
G01 X4.6828 Y45.2064
G01 X4.7005 Y45.1517
G01 X4.7109 Y45.1213
G01 X4.7594 Y44.9857
G01 X4.7728 Y44.9496
G01 X4.7937 Y44.8965
G01 X3.5070 Y43.6100
G01 X3.4756 Y43.5781
G01 X3.4274 Y43.5271
G01 X3.3810 Y43.4761
G01 X3.3428 Y43.4331
G01 X3.3055 Y43.3894
G01 X3.2734 Y43.3502
G01 X3.2378 Y43.3051
G01 X3.2068 Y43.2644
G01 X3.1621 Y43.2039
G01 X3.1433 Y43.1778
G01 X3.1105 Y43.1306
G01 X3.0893 Y43.0990
G01 X3.0649 Y43.0615
G01 X3.0446 Y43.0294
G01 X3.0213 Y42.9911
G01 X2.9859 Y42.9319
G01 X2.9573 Y42.8820
G01 X2.9357 Y42.8428
G01 X2.9179 Y42.8092
G01 X2.8862 Y42.7467
G01 X2.8666 Y42.7064
G01 X2.8373 Y42.6440
G01 X2.8137 Y42.5916
G01 X2.8010 Y42.5620
G01 X2.7864 Y42.5270
G01 X2.7697 Y42.4854
G01 X2.7561 Y42.4499
G01 X2.7407 Y42.4079
G01 X2.7298 Y42.3774
G01 X2.7260 Y42.3668
G01 X2.7197 Y42.3488
G01 X2.7072 Y42.3124
G01 X2.6954 Y42.2763
G01 X2.6784 Y42.2214
G01 X2.6659 Y42.1784
G01 X2.6558 Y42.1418
G01 X2.6446 Y42.0984
G01 X2.6280 Y42.0315
G01 X2.6151 Y41.9755
G01 X2.6083 Y41.9440
G01 X2.6008 Y41.9068
G01 X2.5926 Y41.8627
G01 X2.5802 Y41.7873
G01 X2.5667 Y41.6935
G01 X2.5605 Y41.6432
G01 X2.5534 Y41.5735
G01 X2.5480 Y41.5035
G01 X2.5432 Y41.4152
G01 X2.5410 Y41.3578
G01 X2.5398 Y41.2813
G01 X2.5398 Y34.9250
G01 X2.5404 Y34.8675
G01 X2.5429 Y34.7911
G01 X2.5480 Y34.6965
G01 X2.5534 Y34.6265
G01 X2.5605 Y34.5568
G01 X2.5667 Y34.5065
G01 X2.5802 Y34.4127
G01 X2.5926 Y34.3373
G01 X2.6058 Y34.2684
G01 X2.6151 Y34.2245
G01 X2.6280 Y34.1685
G01 X2.6461 Y34.0955
G01 X2.6591 Y34.0460
G01 X2.6784 Y33.9786
G01 X2.6954 Y33.9237
G01 X2.7176 Y33.8571
G01 X2.7472 Y33.7743
G01 X2.7697 Y33.7146
G01 X2.7864 Y33.6730
G01 X2.8137 Y33.6084
G01 X2.8399 Y33.5503
G01 X2.8776 Y33.4708
G01 X2.9089 Y33.4080
G01 X2.9357 Y33.3572
G01 X2.9698 Y33.2959
G01 X2.9988 Y33.2463
G01 X3.0446 Y33.1706
G01 X3.0824 Y33.1115
G01 X3.1105 Y33.0694
G01 X3.1507 Y33.0119
G01 X3.2068 Y32.9356
G01 X3.2534 Y32.8749
G01 X3.2974 Y32.8204
G01 X3.3263 Y32.7861
G01 X3.3641 Y32.7428
G01 X3.4103 Y32.6916
G01 X3.4493 Y32.6494
G01 X3.4756 Y32.6219
G01 X3.5070 Y32.5900
G01 X4.7950 Y31.3022
G01 X4.8364 Y31.2623
G01 X4.8645 Y31.2361
G01 X4.9156 Y31.1897
G01 X4.9539 Y31.1558
G01 X4.9827 Y31.1311
G01 X5.0269 Y31.0944
G01 X5.0619 Y31.0664
G01 X5.0919 Y31.0431
G01 X5.1678 Y30.9863
G01 X5.2300 Y30.9418
G01 X5.2669 Y30.9164
G01 X5.2985 Y30.8954
G01 X5.3576 Y30.8576
G01 X5.3959 Y30.8343
G01 X5.4497 Y30.8021
G01 X5.5160 Y30.7642
G01 X5.5665 Y30.7368
G01 X5.5950 Y30.7219
G01 X5.6403 Y30.6992
G01 X5.6749 Y30.6824
G01 X5.7607 Y30.6422
G01 X5.7954 Y30.6267
G01 X5.8366 Y30.6091
G01 X5.8898 Y30.5874
G01 X5.9253 Y30.5736
G01 X5.9613 Y30.5602
G01 X6.0202 Y30.5390
G01 X6.0626 Y30.5242
G01 X6.0986 Y30.5123
G01 X6.1413 Y30.4987
G01 X6.1777 Y30.4878
G01 X6.2452 Y30.4688
G01 X6.2886 Y30.4576
G01 X6.3498 Y30.4423
G01 X6.3498 Y30.3291
G01 X6.3198 Y30.2645
G01 X6.2919 Y30.2002
G01 X6.2656 Y30.1352
G01 X6.2452 Y30.0815
G01 X6.2323 Y30.0457
G01 X6.2178 Y30.0033
G01 X6.2059 Y29.9672
G01 X6.1853 Y29.9002
G01 X6.1664 Y29.8327
G01 X6.1583 Y29.8016
G01 X6.1446 Y29.7458
G01 X6.1295 Y29.6773
G01 X6.1196 Y29.6276
G01 X6.1074 Y29.5585
G01 X6.0986 Y29.5017
G01 X6.0926 Y29.4573
G01 X6.0846 Y29.3877
G01 X6.0793 Y29.3305
G01 X6.0743 Y29.2605
G01 X6.0724 Y29.2226
G01 X6.0707 Y29.1778
G01 X6.0699 Y29.1398
G01 X6.0695 Y29.0950
G01 X6.0695 Y26.9950
G01 X6.0699 Y26.9502
G01 X6.0719 Y26.8801
G01 X6.0743 Y26.8295
G01 X6.0793 Y26.7595
G01 X6.0846 Y26.7023
G01 X6.0926 Y26.6327
G01 X6.1024 Y26.5632
G01 X6.1138 Y26.4940
G01 X6.1220 Y26.4500
G01 X6.1362 Y26.3813
G01 X6.1521 Y26.3130
G01 X6.1614 Y26.2762
G01 X6.1765 Y26.2207
G01 X6.1963 Y26.1534
G01 X6.2098 Y26.1107
G01 X6.2218 Y26.0747
G01 X6.2452 Y26.0085
G01 X6.2656 Y25.9548
G01 X6.2775 Y25.9249
G01 X6.3045 Y25.8602
G01 X6.3332 Y25.7962
G01 X6.3634 Y25.7329
G01 X6.3951 Y25.6704
G01 X6.4129 Y25.6369
G01 X6.4346 Y25.5976
G01 X6.4696 Y25.5369
G01 X6.5061 Y25.4770
G01 X6.5371 Y25.4286
G01 X6.5582 Y25.3970
G01 X6.5981 Y25.3393
G01 X6.6244 Y25.3030
G01 X6.6470 Y25.2725
G01 X6.6900 Y25.2171
G01 X6.7343 Y25.1627
G01 X6.7799 Y25.1095
G01 X6.8269 Y25.0574
G01 X6.8488 Y25.0339
G01 X6.8886 Y24.9925
G01 X6.9384 Y24.9430
G01 X6.9659 Y24.9168
G01 X6.9987 Y24.8863
G01 X7.0269 Y24.8608
G01 X7.0702 Y24.8231
G01 X7.1241 Y24.7781
G01 X7.1790 Y24.7346
G01 X7.2350 Y24.6924
G01 X7.2713 Y24.6661
G01 X7.3024 Y24.6443
G01 X7.3606 Y24.6051
G01 X7.4197 Y24.5674
G01 X7.4471 Y24.5506
G01 X7.4966 Y24.5213
G01 X7.5296 Y24.5026
G01 X7.5689 Y24.4809
G01 X7.6197 Y24.4541
G01 X7.6536 Y24.4370
G01 X7.6938 Y24.4173
G01 X7.7282 Y24.4012
G01 X7.7806 Y24.3776
G01 X7.8101 Y24.3648
G01 X7.8452 Y24.3502
G01 X7.8868 Y24.3336
G01 X7.9223 Y24.3200
G01 X7.9763 Y24.3003
G01 X8.0187 Y24.2858
G01 X8.0548 Y24.2739
G01 X8.0854 Y24.2643
G01 X8.1405 Y24.2479
G01 X8.1771 Y24.2377
G01 X8.2204 Y24.2263
G01 X8.2573 Y24.2171
G01 X8.3133 Y24.2042
G01 X8.3571 Y24.1950
G01 X8.3944 Y24.1876
G01 X8.4260 Y24.1818
G01 X8.4827 Y24.1723
G01 X8.5203 Y24.1666
G01 X8.5647 Y24.1606
G01 X8.6024 Y24.1560
G01 X8.6595 Y24.1501
G01 X8.7042 Y24.1463
G01 X8.7421 Y24.1435
G01 X8.7741 Y24.1416
G01 X8.8316 Y24.1391
G01 X8.8822 Y24.1379
G01 X8.9270 Y24.1375
G01 X10.3770 Y24.1375
G01 X10.4345 Y24.1381
G01 X10.4919 Y24.1399
G01 X10.5619 Y24.1435
G01 X10.6125 Y24.1473
G01 X10.6823 Y24.1539
G01 X10.7519 Y24.1622
G01 X10.8088 Y24.1704
G01 X10.8530 Y24.1775
G01 X10.9220 Y24.1900
G01 X10.9910 Y24.1775
G01 X11.0352 Y24.1704
G01 X11.0921 Y24.1622
G01 X11.1617 Y24.1539
G01 X11.2121 Y24.1489
G01 X11.2694 Y24.1444
G01 X11.3141 Y24.1416
G01 X11.3842 Y24.1387
G01 X11.4222 Y24.1379
G01 X11.4670 Y24.1375
G01 X12.9423 Y24.1377
G01 X13.0124 Y24.1391
G01 X13.0825 Y24.1423
G01 X13.1525 Y24.1473
G01 X13.2097 Y24.1526
G01 X13.2542 Y24.1575
G01 X13.3237 Y24.1666
G01 X13.3930 Y24.1775
G01 X13.4620 Y24.1900
G01 X13.5310 Y24.1775
G01 X13.5752 Y24.1704
G01 X13.6321 Y24.1622
G01 X13.7017 Y24.1539
G01 X13.7521 Y24.1489
G01 X13.8094 Y24.1444
G01 X13.8794 Y24.1404
G01 X13.9242 Y24.1387
G01 X13.9622 Y24.1379
G01 X14.0070 Y24.1375
G01 X15.4760 Y24.1376
G01 X15.5398 Y24.1387
G01 X15.6099 Y24.1416
G01 X15.6798 Y24.1463
G01 X15.7497 Y24.1526
G01 X15.7942 Y24.1575
G01 X15.8637 Y24.1666
G01 X15.9330 Y24.1775
G01 X16.0020 Y24.1900
G01 X16.0710 Y24.1775
G01 X16.1152 Y24.1704
G01 X16.1721 Y24.1622
G01 X16.2417 Y24.1539
G01 X16.2921 Y24.1489
G01 X16.3494 Y24.1444
G01 X16.4194 Y24.1404
G01 X16.4642 Y24.1387
G01 X16.5022 Y24.1379
G01 X16.5470 Y24.1375
G01 X17.9970 Y24.1375
G01 X18.0418 Y24.1379
G01 X18.0924 Y24.1391
G01 X18.1499 Y24.1416
G01 X18.2198 Y24.1463
G01 X18.2645 Y24.1501
G01 X18.3216 Y24.1560
G01 X18.3912 Y24.1649
G01 X18.4413 Y24.1723
G01 X18.4980 Y24.1818
G01 X18.5420 Y24.1900
G01 X18.6107 Y24.2042
G01 X18.6667 Y24.2171
G01 X18.7158 Y24.2294
G01 X18.7835 Y24.2479
G01 X18.8386 Y24.2643
G01 X18.8813 Y24.2778
G01 X18.9358 Y24.2962
G01 X18.9835 Y24.3132
G01 X19.0372 Y24.3336
G01 X19.0788 Y24.3502
